; generated by SuperSlicer 2.4 on 2022-10-11 at 17:21:25 UTC


;
;

;
;
; 

; external perimeters extrusion width = 0.45mm
; perimeters extrusion width = 0.45mm
; infill extrusion width = 0.45mm
; solid infill extrusion width = 0.48mm
; top infill extrusion width = 0.42mm
; support material extrusion width = 0.45mm
; first layer extrusion width = 0.38mm

; object:{"name":"30 mm cube","id":"30 mm cube.stl id:0 copy 0","object_center":[165.000000,162.500000,0.000000],"boundingbox_center":[165.000000,162.500000,5.000000],"boundingbox_size":[30.000000,30.000000,10.000000]}
; plater:{"center":[165.000000,162.500000,0.000000],"boundingbox_center":[165.000000,162.500000,5.000000],"boundingbox_size":[30.000000,30.000000,10.000000]}

M73 P0 R7
;TYPE:Custom
; custom gcode: start_gcode
M104 S0 ; Stops PS/SS from sending temp waits separately
M140 S0
PRINT_START EXTRUDER_TEMP=220 BED_TEMP=50
; custom gcode end: start_gcode
M107
G21 ; set units to millimeters
G90 ; use absolute coordinates
M83 ; use relative distances for extrusion
; custom gcode: start_filament_gcode
; Filament gcode
;SET_GCODE_OFFSET Z=0
;SET_PRESSURE_ADVANCE ADVANCE=0.05
; custom gcode end: start_filament_gcode
;_TOOLCHANGE 0
;LAYER_CHANGE
;Z:0.24
;HEIGHT:0.24
G1 Z0.24 F30000
G92 E0
M104 S220 ; set temperature
M73 P4 R7
G1 E-1 F1800
; printing object 30 mm cube.stl id:0 copy 0
G1 X150.618 Y148.118 F30000
G1 E1 F1800
;TYPE:Internal perimeter
;WIDTH:0.38
G1 F2400
G1 X179.382 Y148.118 E0.83907
G1 X179.382 Y176.882 E0.83907
G1 X150.618 Y176.882 E0.83907
G1 X150.618 Y148.118 E0.83907
M73 P5 R7
G1 X150.29 Y147.79 F30000
;TYPE:External perimeter
G1 F2400
G1 X179.71 Y147.79 E0.85824
G1 X179.71 Y177.21 E0.85824
G1 X150.29 Y177.21 E0.85824
G1 X150.29 Y147.79 E0.85824
;WIPE_START
G1 X150.636 Y147.99 F30000
;WIPE_END
G1 E-1 F1800
G1 X178.619 Y148.217 F30000
G1 E1 F1800
;TYPE:Solid infill
;WIDTH:0.381076
G1 F3000
G1 X179.142 Y148.74 E0.02163
G1 X179.142 Y149.204 E0.01359
G1 X178.296 Y148.358 E0.03501
G1 X177.831 Y148.358 E0.01359
G1 X179.142 Y149.669 E0.05423
G1 X179.142 Y150.134 E0.01359
G1 X177.366 Y148.358 E0.07345
G1 X176.902 Y148.358 E0.01359
G1 X179.142 Y150.598 E0.09267
G1 X179.142 Y151.063 E0.01359
G1 X176.437 Y148.358 E0.11189
G1 X175.973 Y148.358 E0.01359
G1 X179.142 Y151.527 E0.13111
G1 X179.142 Y151.992 E0.01359
G1 X175.508 Y148.358 E0.15033
G1 X175.044 Y148.358 E0.01359
G1 X179.142 Y152.456 E0.16955
G1 X179.142 Y152.921 E0.01359
G1 X174.579 Y148.358 E0.18877
G1 X174.115 Y148.358 E0.01359
G1 X179.142 Y153.385 E0.20799
G1 X179.142 Y153.85 E0.01359
G1 X173.65 Y148.358 E0.22721
M73 P6 R7
G1 X173.185 Y148.358 E0.01359
G1 X179.142 Y154.315 E0.24642
G1 X179.142 Y154.779 E0.01359
G1 X172.721 Y148.358 E0.26564
G1 X172.256 Y148.358 E0.01359
G1 X179.142 Y155.244 E0.28486
G1 X179.142 Y155.708 E0.01359
G1 X171.792 Y148.358 E0.30408
G1 X171.327 Y148.358 E0.01359
G1 X179.142 Y156.173 E0.3233
G1 X179.142 Y156.637 E0.01359
G1 X170.863 Y148.358 E0.34252
G1 X170.398 Y148.358 E0.01359
G1 X179.142 Y157.102 E0.36174
G1 X179.142 Y157.567 E0.01359
G1 X169.933 Y148.358 E0.38096
G1 X169.469 Y148.358 E0.01359
G1 X179.142 Y158.031 E0.40018
G1 X179.142 Y158.496 E0.01359
G1 X169.004 Y148.358 E0.4194
G1 X168.54 Y148.358 E0.01359
G1 X179.142 Y158.96 E0.43862
G1 X179.142 Y159.425 E0.01359
G1 X168.075 Y148.358 E0.45784
G1 X167.611 Y148.358 E0.01359
G1 X179.142 Y159.889 E0.47706
G1 X179.142 Y160.354 E0.01359
G1 X167.146 Y148.358 E0.49628
G1 X166.682 Y148.358 E0.01359
G1 X179.142 Y160.818 E0.5155
G1 X179.142 Y161.283 E0.01359
G1 X166.217 Y148.358 E0.53472
M73 P7 R7
G1 X165.752 Y148.358 E0.01359
G1 X179.142 Y161.748 E0.55394
G1 X179.142 Y162.212 E0.01359
G1 X165.288 Y148.358 E0.57316
G1 X164.823 Y148.358 E0.01359
G1 X179.142 Y162.677 E0.59238
G1 X179.142 Y163.141 E0.01359
G1 X164.359 Y148.358 E0.6116
G1 X163.894 Y148.358 E0.01359
G1 X179.142 Y163.606 E0.63082
G1 X179.142 Y164.07 E0.01359
G1 X163.43 Y148.358 E0.65004
G1 X162.965 Y148.358 E0.01359
G1 X179.142 Y164.535 E0.66926
G1 X179.142 Y165 E0.01359
G1 X162.5 Y148.358 E0.68848
G1 X162.036 Y148.358 E0.01359
G1 X179.142 Y165.464 E0.7077
G1 X179.142 Y165.929 E0.01359
G1 X161.571 Y148.358 E0.72692
G1 X161.107 Y148.358 E0.01359
G1 X179.142 Y166.393 E0.74614
M73 P8 R7
G1 X179.142 Y166.858 E0.01359
G1 X160.642 Y148.358 E0.76536
G1 X160.178 Y148.358 E0.01359
G1 X179.142 Y167.322 E0.78458
G1 X179.142 Y167.787 E0.01359
G1 X159.713 Y148.358 E0.8038
G1 X159.249 Y148.358 E0.01359
G1 X179.142 Y168.251 E0.82302
G1 X179.142 Y168.716 E0.01359
G1 X158.784 Y148.358 E0.84224
G1 X158.319 Y148.358 E0.01359
G1 X179.142 Y169.181 E0.86146
G1 X179.142 Y169.645 E0.01359
G1 X157.855 Y148.358 E0.88068
G1 X157.39 Y148.358 E0.01359
G1 X179.142 Y170.11 E0.8999
M73 P9 R7
G1 X179.142 Y170.574 E0.01359
G1 X156.926 Y148.358 E0.91912
G1 X156.461 Y148.358 E0.01359
G1 X179.142 Y171.039 E0.93834
G1 X179.142 Y171.503 E0.01359
G1 X155.997 Y148.358 E0.95756
M73 P9 R6
G1 X155.532 Y148.358 E0.01359
G1 X179.142 Y171.968 E0.97678
G1 X179.142 Y172.432 E0.01359
G1 X155.068 Y148.358 E0.996
G1 X154.603 Y148.358 E0.01359
G1 X179.142 Y172.897 E1.01522
G1 X179.142 Y173.362 E0.01359
M73 P10 R6
G1 X154.138 Y148.358 E1.03444
G1 X153.674 Y148.358 E0.01359
G1 X179.142 Y173.826 E1.05366
G1 X179.142 Y174.291 E0.01359
G1 X153.209 Y148.358 E1.07288
G1 X152.745 Y148.358 E0.01359
G1 X179.142 Y174.755 E1.0921
G1 X179.142 Y175.22 E0.01359
G1 X152.28 Y148.358 E1.11132
G1 X151.816 Y148.358 E0.01359
G1 X179.142 Y175.684 E1.13054
G1 X179.142 Y176.149 E0.01359
G1 X151.351 Y148.358 E1.14976
M73 P11 R6
G1 X150.886 Y148.358 E0.01359
G1 X179.142 Y176.614 E1.16898
G1 X179.142 Y176.642 E0.00082
G1 X178.705 Y176.642 E0.01277
G1 X150.858 Y148.795 E1.15209
G1 X150.858 Y149.259 E0.01359
G1 X178.241 Y176.642 E1.13287
G1 X177.776 Y176.642 E0.01359
G1 X150.858 Y149.724 E1.11365
G1 X150.858 Y150.188 E0.01359
G1 X177.312 Y176.642 E1.09443
M73 P12 R6
G1 X176.847 Y176.642 E0.01359
G1 X150.858 Y150.653 E1.07521
G1 X150.858 Y151.117 E0.01359
G1 X176.383 Y176.642 E1.05599
G1 X175.918 Y176.642 E0.01359
G1 X150.858 Y151.582 E1.03677
G1 X150.858 Y152.047 E0.01359
G1 X175.453 Y176.642 E1.01755
G1 X174.989 Y176.642 E0.01359
G1 X150.858 Y152.511 E0.99833
G1 X150.858 Y152.976 E0.01359
G1 X174.524 Y176.642 E0.97911
G1 X174.06 Y176.642 E0.01359
G1 X150.858 Y153.44 E0.95989
M73 P13 R6
G1 X150.858 Y153.905 E0.01359
G1 X173.595 Y176.642 E0.94067
G1 X173.131 Y176.642 E0.01359
G1 X150.858 Y154.369 E0.92145
G1 X150.858 Y154.834 E0.01359
G1 X172.666 Y176.642 E0.90223
G1 X172.201 Y176.642 E0.01359
G1 X150.858 Y155.299 E0.88301
G1 X150.858 Y155.763 E0.01359
G1 X171.737 Y176.642 E0.86379
G1 X171.272 Y176.642 E0.01359
G1 X150.858 Y156.228 E0.84457
G1 X150.858 Y156.692 E0.01359
G1 X170.808 Y176.642 E0.82535
M73 P14 R6
G1 X170.343 Y176.642 E0.01359
G1 X150.858 Y157.157 E0.80613
G1 X150.858 Y157.621 E0.01359
G1 X169.879 Y176.642 E0.78691
G1 X169.414 Y176.642 E0.01359
G1 X150.858 Y158.086 E0.76769
G1 X150.858 Y158.55 E0.01359
G1 X168.95 Y176.642 E0.74847
G1 X168.485 Y176.642 E0.01359
G1 X150.858 Y159.015 E0.72925
G1 X150.858 Y159.48 E0.01359
G1 X168.02 Y176.642 E0.71003
G1 X167.556 Y176.642 E0.01359
G1 X150.858 Y159.944 E0.69081
G1 X150.858 Y160.409 E0.01359
G1 X167.091 Y176.642 E0.67159
G1 X166.627 Y176.642 E0.01359
G1 X150.858 Y160.873 E0.65237
M73 P15 R6
G1 X150.858 Y161.338 E0.01359
G1 X166.162 Y176.642 E0.63315
G1 X165.698 Y176.642 E0.01359
G1 X150.858 Y161.802 E0.61393
G1 X150.858 Y162.267 E0.01359
G1 X165.233 Y176.642 E0.59471
G1 X164.768 Y176.642 E0.01359
G1 X150.858 Y162.732 E0.57549
G1 X150.858 Y163.196 E0.01359
G1 X164.304 Y176.642 E0.55627
G1 X163.839 Y176.642 E0.01359
G1 X150.858 Y163.661 E0.53705
G1 X150.858 Y164.125 E0.01359
G1 X163.375 Y176.642 E0.51783
G1 X162.91 Y176.642 E0.01359
G1 X150.858 Y164.59 E0.49861
G1 X150.858 Y165.054 E0.01359
G1 X162.446 Y176.642 E0.47939
G1 X161.981 Y176.642 E0.01359
G1 X150.858 Y165.519 E0.46018
G1 X150.858 Y165.983 E0.01359
G1 X161.517 Y176.642 E0.44096
G1 X161.052 Y176.642 E0.01359
G1 X150.858 Y166.448 E0.42174
M73 P16 R6
G1 X150.858 Y166.913 E0.01359
G1 X160.587 Y176.642 E0.40252
G1 X160.123 Y176.642 E0.01359
G1 X150.858 Y167.377 E0.3833
G1 X150.858 Y167.842 E0.01359
G1 X159.658 Y176.642 E0.36408
G1 X159.194 Y176.642 E0.01359
G1 X150.858 Y168.306 E0.34486
G1 X150.858 Y168.771 E0.01359
G1 X158.729 Y176.642 E0.32564
G1 X158.265 Y176.642 E0.01359
G1 X150.858 Y169.235 E0.30642
G1 X150.858 Y169.7 E0.01359
G1 X157.8 Y176.642 E0.2872
G1 X157.335 Y176.642 E0.01359
G1 X150.858 Y170.165 E0.26798
G1 X150.858 Y170.629 E0.01359
G1 X156.871 Y176.642 E0.24876
G1 X156.406 Y176.642 E0.01359
G1 X150.858 Y171.094 E0.22954
G1 X150.858 Y171.558 E0.01359
G1 X155.942 Y176.642 E0.21032
G1 X155.477 Y176.642 E0.01359
G1 X150.858 Y172.023 E0.1911
G1 X150.858 Y172.487 E0.01359
G1 X155.013 Y176.642 E0.17188
G1 X154.548 Y176.642 E0.01359
G1 X150.858 Y172.952 E0.15266
G1 X150.858 Y173.416 E0.01359
G1 X154.084 Y176.642 E0.13344
G1 X153.619 Y176.642 E0.01359
G1 X150.858 Y173.881 E0.11422
G1 X150.858 Y174.346 E0.01359
G1 X153.154 Y176.642 E0.095
G1 X152.69 Y176.642 E0.01359
G1 X150.858 Y174.81 E0.07578
G1 X150.858 Y175.275 E0.01359
G1 X152.225 Y176.642 E0.05656
G1 X151.761 Y176.642 E0.01359
G1 X150.858 Y175.739 E0.03734
G1 X150.858 Y176.204 E0.01359
G1 X151.437 Y176.783 E0.02396
;LAYER_CHANGE
;Z:0.44
;HEIGHT:0.2
; stop printing object 30 mm cube.stl id:0 copy 0
G1 Z0.44 F30000
G92 E0
M140 S50 ; set bed temperature
G1 E-1 F1800
; printing object 30 mm cube.stl id:0 copy 0
G1 X150.682 Y148.182 F30000
G1 E1 F1800
;TYPE:Internal perimeter
;WIDTH:0.45
G1 F3000
G1 X179.318 Y148.182 E0.86267
G1 X179.318 Y176.818 E0.86267
M73 P17 R6
G1 X150.682 Y176.818 E0.86267
G1 X150.682 Y148.182 E0.86267
G1 X150.275 Y147.79 F30000
;TYPE:External perimeter
G1 F3000
G1 X150.275 Y147.775 E0.00045
G1 X179.725 Y147.775 E0.88719
G1 X179.725 Y177.225 E0.88719
G1 X150.275 Y177.225 E0.88719
G1 X150.275 Y147.79 E0.88674
;WIPE_START
G1 X150.621 Y147.59 F30000
;WIPE_END
G1 E-1 F1800
G1 X179.198 Y175.815 F30000
G1 E1 F1800
;TYPE:Solid infill
;WIDTH:0.479768
G1 F3000
G1 X178.502 Y176.51 E0.0318
G1 X177.884 Y176.51 E0.01998
G1 X179.01 Y175.384 E0.05147
G1 X179.01 Y174.766 E0.01998
G1 X177.266 Y176.51 E0.07973
G1 X176.648 Y176.51 E0.01998
G1 X179.01 Y174.148 E0.108
G1 X179.01 Y173.53 E0.01998
G1 X176.03 Y176.51 E0.13626
G1 X175.412 Y176.51 E0.01998
G1 X179.01 Y172.912 E0.16452
G1 X179.01 Y172.294 E0.01998
G1 X174.794 Y176.51 E0.19278
G1 X174.176 Y176.51 E0.01998
G1 X179.01 Y171.676 E0.22104
M73 P18 R6
G1 X179.01 Y171.057 E0.01998
G1 X173.557 Y176.51 E0.2493
G1 X172.939 Y176.51 E0.01998
G1 X179.01 Y170.439 E0.27756
G1 X179.01 Y169.821 E0.01998
G1 X172.321 Y176.51 E0.30583
G1 X171.703 Y176.51 E0.01998
G1 X179.01 Y169.203 E0.33409
G1 X179.01 Y168.585 E0.01998
G1 X171.085 Y176.51 E0.36235
G1 X170.467 Y176.51 E0.01998
G1 X179.01 Y167.967 E0.39061
G1 X179.01 Y167.349 E0.01998
G1 X169.849 Y176.51 E0.41887
G1 X169.231 Y176.51 E0.01998
G1 X179.01 Y166.731 E0.44713
G1 X179.01 Y166.112 E0.01998
G1 X168.612 Y176.51 E0.47539
G1 X167.994 Y176.51 E0.01998
G1 X179.01 Y165.494 E0.50366
G1 X179.01 Y164.876 E0.01998
G1 X167.376 Y176.51 E0.53192
G1 X166.758 Y176.51 E0.01998
G1 X179.01 Y164.258 E0.56018
G1 X179.01 Y163.64 E0.01998
G1 X166.14 Y176.51 E0.58844
G1 X165.522 Y176.51 E0.01998
G1 X179.01 Y163.022 E0.6167
G1 X179.01 Y162.404 E0.01998
G1 X164.904 Y176.51 E0.64496
G1 X164.286 Y176.51 E0.01998
G1 X179.01 Y161.786 E0.67322
M73 P19 R6
G1 X179.01 Y161.168 E0.01998
G1 X163.668 Y176.51 E0.70149
G1 X163.049 Y176.51 E0.01998
G1 X179.01 Y160.549 E0.72975
G1 X179.01 Y159.931 E0.01998
G1 X162.431 Y176.51 E0.75801
G1 X161.813 Y176.51 E0.01998
G1 X179.01 Y159.313 E0.78627
G1 X179.01 Y158.695 E0.01998
G1 X161.195 Y176.51 E0.81453
G1 X160.577 Y176.51 E0.01998
G1 X179.01 Y158.077 E0.84279
G1 X179.01 Y157.459 E0.01998
G1 X159.959 Y176.51 E0.87106
G1 X159.341 Y176.51 E0.01998
G1 X179.01 Y156.841 E0.89932
G1 X179.01 Y156.223 E0.01998
G1 X158.723 Y176.51 E0.92758
M73 P20 R6
G1 X158.104 Y176.51 E0.01998
G1 X179.01 Y155.604 E0.95584
G1 X179.01 Y154.986 E0.01998
G1 X157.486 Y176.51 E0.9841
G1 X156.868 Y176.51 E0.01998
G1 X179.01 Y154.368 E1.01236
G1 X179.01 Y153.75 E0.01998
G1 X156.25 Y176.51 E1.04062
G1 X155.632 Y176.51 E0.01998
G1 X179.01 Y153.132 E1.06889
G1 X179.01 Y152.514 E0.01998
G1 X155.014 Y176.51 E1.09715
G1 X154.396 Y176.51 E0.01998
G1 X179.01 Y151.896 E1.12541
M73 P21 R6
G1 X179.01 Y151.278 E0.01998
G1 X153.778 Y176.51 E1.15367
G1 X153.159 Y176.51 E0.01998
G1 X179.01 Y150.659 E1.18193
G1 X179.01 Y150.041 E0.01998
G1 X152.541 Y176.51 E1.21019
G1 X151.923 Y176.51 E0.01998
G1 X179.01 Y149.423 E1.23845
G1 X179.01 Y148.805 E0.01998
G1 X151.305 Y176.51 E1.26672
G1 X150.99 Y176.51 E0.01019
G1 X150.99 Y176.207 E0.00979
G1 X178.707 Y148.49 E1.26727
M73 P22 R6
G1 X178.089 Y148.49 E0.01998
G1 X150.99 Y175.589 E1.23901
G1 X150.99 Y174.971 E0.01998
G1 X177.471 Y148.49 E1.21075
M73 P22 R5
G1 X176.853 Y148.49 E0.01998
G1 X150.99 Y174.353 E1.18249
G1 X150.99 Y173.735 E0.01998
G1 X176.235 Y148.49 E1.15423
G1 X175.617 Y148.49 E0.01998
G1 X150.99 Y173.117 E1.12597
G1 X150.99 Y172.498 E0.01998
G1 X174.998 Y148.49 E1.0977
M73 P23 R5
G1 X174.38 Y148.49 E0.01998
G1 X150.99 Y171.88 E1.06944
G1 X150.99 Y171.262 E0.01998
G1 X173.762 Y148.49 E1.04118
G1 X173.144 Y148.49 E0.01998
G1 X150.99 Y170.644 E1.01292
G1 X150.99 Y170.026 E0.01998
G1 X172.526 Y148.49 E0.98466
G1 X171.908 Y148.49 E0.01998
G1 X150.99 Y169.408 E0.9564
G1 X150.99 Y168.79 E0.01998
G1 X171.29 Y148.49 E0.92814
G1 X170.672 Y148.49 E0.01998
G1 X150.99 Y168.172 E0.89987
M73 P24 R5
G1 X150.99 Y167.553 E0.01998
G1 X170.053 Y148.49 E0.87161
G1 X169.435 Y148.49 E0.01998
G1 X150.99 Y166.935 E0.84335
G1 X150.99 Y166.317 E0.01998
G1 X168.817 Y148.49 E0.81509
G1 X168.199 Y148.49 E0.01998
G1 X150.99 Y165.699 E0.78683
G1 X150.99 Y165.081 E0.01998
G1 X167.581 Y148.49 E0.75857
G1 X166.963 Y148.49 E0.01998
G1 X150.99 Y164.463 E0.73031
G1 X150.99 Y163.845 E0.01998
G1 X166.345 Y148.49 E0.70204
G1 X165.727 Y148.49 E0.01998
G1 X150.99 Y163.227 E0.67378
G1 X150.99 Y162.608 E0.01998
G1 X165.108 Y148.49 E0.64552
G1 X164.49 Y148.49 E0.01998
G1 X150.99 Y161.99 E0.61726
M73 P25 R5
G1 X150.99 Y161.372 E0.01998
G1 X163.872 Y148.49 E0.589
G1 X163.254 Y148.49 E0.01998
G1 X150.99 Y160.754 E0.56074
G1 X150.99 Y160.136 E0.01998
G1 X162.636 Y148.49 E0.53248
G1 X162.018 Y148.49 E0.01998
G1 X150.99 Y159.518 E0.50421
G1 X150.99 Y158.9 E0.01998
G1 X161.4 Y148.49 E0.47595
G1 X160.782 Y148.49 E0.01998
G1 X150.99 Y158.282 E0.44769
G1 X150.99 Y157.663 E0.01998
G1 X160.163 Y148.49 E0.41943
G1 X159.545 Y148.49 E0.01998
G1 X150.99 Y157.045 E0.39117
G1 X150.99 Y156.427 E0.01998
G1 X158.927 Y148.49 E0.36291
G1 X158.309 Y148.49 E0.01998
G1 X150.99 Y155.809 E0.33464
G1 X150.99 Y155.191 E0.01998
G1 X157.691 Y148.49 E0.30638
G1 X157.073 Y148.49 E0.01998
G1 X150.99 Y154.573 E0.27812
G1 X150.99 Y153.955 E0.01998
G1 X156.455 Y148.49 E0.24986
G1 X155.837 Y148.49 E0.01998
G1 X150.99 Y153.337 E0.2216
G1 X150.99 Y152.718 E0.01998
G1 X155.218 Y148.49 E0.19334
G1 X154.6 Y148.49 E0.01998
G1 X150.99 Y152.1 E0.16508
G1 X150.99 Y151.482 E0.01998
G1 X153.982 Y148.49 E0.13681
G1 X153.364 Y148.49 E0.01998
G1 X150.99 Y150.864 E0.10855
G1 X150.99 Y150.246 E0.01998
G1 X152.746 Y148.49 E0.08029
G1 X152.128 Y148.49 E0.01998
M73 P26 R5
G1 X150.99 Y149.628 E0.05203
G1 X150.99 Y149.01 E0.01998
G1 X151.698 Y148.302 E0.03236
M106 S127.5
;LAYER_CHANGE
;Z:0.64
;HEIGHT:0.2
; stop printing object 30 mm cube.stl id:0 copy 0
G1 Z0.64 F30000
G92 E0
; printing object 30 mm cube.stl id:0 copy 0
G1 X150.632 Y148.132
;TYPE:Internal perimeter
;WIDTH:0.45
G1 F3000
G1 X179.368 Y148.132 E0.86568
G1 X179.368 Y176.868 E0.86568
G1 X150.632 Y176.868 E0.86568
G1 X150.632 Y148.132 E0.86568
G1 X150.225 Y147.79 F30000
;TYPE:External perimeter
G1 F3000
G1 X150.225 Y147.725 E0.00196
G1 X179.775 Y147.725 E0.89021
G1 X179.775 Y177.275 E0.89021
G1 X150.225 Y177.275 E0.89021
G1 X150.225 Y147.79 E0.88825
;WIPE_START
M73 P27 R5
G1 X150.571 Y147.59 F30000
;WIPE_END
G1 E-1 F1800
G1 X178.365 Y148.252 F30000
G1 E1 F1800
;TYPE:Solid infill
