; generated by SuperSlicer 2.4 on 2022-11-03 at 19:37:48 UTC


;
;

;
;
; 

; external perimeters extrusion width = 0.45mm
; perimeters extrusion width = 0.45mm
; infill extrusion width = 0.45mm
; solid infill extrusion width = 0.48mm
; top infill extrusion width = 0.42mm
; first layer extrusion width = 0.38mm

; object:{"name":"Back_2","id":"Back_2.4_CPAP.stl id:0 copy 0","object_center":[165.000000,162.500000,0.000000],"boundingbox_center":[165.000000,162.500000,2.500000],"boundingbox_size":[44.099998,111.000000,5.000000]}
; plater:{"center":[165.000000,162.500000,0.000000],"boundingbox_center":[165.000000,162.500000,2.500000],"boundingbox_size":[44.099998,111.000000,5.000000]}

M73 P0 R62
;TYPE:Custom
; custom gcode: start_gcode
M104 S0 ; Stops PS/SS from sending temp waits separately
M140 S0
PRINT_START EXTRUDER_TEMP=270 BED_TEMP=80
; custom gcode end: start_gcode
M107
G21 ; set units to millimeters
G90 ; use absolute coordinates
M83 ; use relative distances for extrusion
; custom gcode: start_filament_gcode
; Filament gcode
SET_GCODE_OFFSET Z=0.0

 SET_PRESSURE_ADVANCE ADVANCE=0.02

; custom gcode end: start_filament_gcode
;_TOOLCHANGE 0
;LAYER_CHANGE
;Z:0.2
;HEIGHT:0.2
G1 Z0.2 F30000
G92 E0
M104 S270 ; set temperature
G1 E-2 F1800
; printing object Back_2.4_CPAP.stl id:0 copy 0
G1 X173.94 Y186.267 F30000
G1 E2 F1800
;TYPE:Internal perimeter
;WIDTH:0.38
G1 F1500
G1 X173.94 Y184.615 E0.04538
G1 X176.172 Y183.326 E0.07079
G1 X176.172 Y179.824 E0.09621
G1 X173.94 Y178.535 E0.07079
G1 X173.94 Y176.883 E0.04538
G1 X176.172 Y175.594 E0.07079
G1 X176.172 Y172.092 E0.09621
G1 X173.94 Y170.803 E0.07079
G1 X173.94 Y169.151 E0.04538
G1 X176.172 Y167.862 E0.07079
G1 X176.172 Y164.36 E0.09621
G1 X173.94 Y163.071 E0.07079
G1 X173.94 Y160.494 E0.07079
G1 X170.907 Y158.742 E0.09621
G1 X168.675 Y160.031 E0.07079
G1 X166.443 Y158.742 E0.07079
G1 X164.211 Y160.031 E0.07079
G1 X161.979 Y158.742 E0.07079
G1 X160.895 Y159.368 E0.03437
G1 X159.747 Y160.031 E0.03642
G1 X157.515 Y158.742 E0.07079
G1 X154.481 Y160.494 E0.09621
G1 X154.481 Y163.071 E0.07079
G1 X152.249 Y164.36 E0.07079
G1 X152.249 Y167.862 E0.09621
G1 X154.481 Y169.151 E0.07079
G1 X154.481 Y170.803 E0.04538
G1 X152.249 Y172.092 E0.07079
G1 X152.249 Y175.594 E0.09621
G1 X154.481 Y176.883 E0.07079
G1 X154.481 Y178.535 E0.04538
G1 X152.249 Y179.824 E0.07079
G1 X152.249 Y183.326 E0.09621
G1 X154.481 Y184.615 E0.07079
G1 X154.481 Y186.267 E0.04538
G1 X152.249 Y187.556 E0.07079
G1 X152.249 Y189.592 E0.05593
G1 X157.01 Y191.812 E0.1443
G1 X157.515 Y191.521 E0.01599
G1 X159.747 Y192.809 E0.07079
G1 X161.979 Y191.521 E0.07079
G1 X164.211 Y192.809 E0.07079
G1 X166.443 Y191.521 E0.07079
G1 X168.675 Y192.809 E0.07079
G1 X170.907 Y191.521 E0.07079
G1 X173.139 Y192.809 E0.07079
G1 X176.172 Y191.058 E0.09621
G1 X176.172 Y187.556 E0.09621
G1 X173.94 Y186.267 E0.07079
;WIPE_START
G1 F24000
G1 X173.94 Y184.615 E-0.11772
G1 X176.172 Y183.326 E-0.18364
G1 X176.172 Y179.824 E-0.24956
G1 X173.94 Y178.535 E-0.18364
G1 X173.94 Y176.883 E-0.11772
G1 X176.172 Y175.594 E-0.18364
G1 X176.172 Y172.092 E-0.24956
G1 X173.94 Y170.803 E-0.18364
G1 X173.94 Y169.151 E-0.11772
G1 X176.172 Y167.862 E-0.18364
G1 X176.172 Y166.044 E-0.12956
;WIPE_END
G1 E-0.1 F1800
G1 X154.818 Y186.462 F30000
G1 E2 F1800
G1 F1500
G1 X152.586 Y187.75 E0.07079
G1 X152.586 Y189.377 E0.04468
G1 X156.994 Y191.432 E0.13358
G1 X157.515 Y191.132 E0.01652
G1 X159.747 Y192.42 E0.07079
G1 X161.979 Y191.132 E0.07079
G1 X164.211 Y192.42 E0.07079
G1 X166.443 Y191.132 E0.07079
G1 X168.675 Y192.42 E0.07079
G1 X170.907 Y191.132 E0.07079
G1 X173.139 Y192.42 E0.07079
G1 X175.835 Y190.864 E0.08552
G1 X175.835 Y187.75 E0.08552
G1 X173.603 Y186.462 E0.07079
G1 X173.603 Y184.42 E0.05607
G1 X175.835 Y183.132 E0.07079
G1 X175.835 Y180.018 E0.08552
G1 X173.603 Y178.73 E0.07079
G1 X173.603 Y176.688 E0.05607
G1 X175.835 Y175.4 E0.07079
G1 X175.835 Y172.286 E0.08552
G1 X173.603 Y170.998 E0.07079
G1 X173.603 Y168.956 E0.05607
G1 X175.835 Y167.667 E0.07079
G1 X175.835 Y164.554 E0.08552
G1 X173.603 Y163.265 E0.07079
G1 X173.603 Y160.688 E0.07079
G1 X170.907 Y159.131 E0.08552
G1 X168.675 Y160.42 E0.07079
G1 X166.443 Y159.131 E0.07079
G1 X164.211 Y160.42 E0.07079
G1 X161.979 Y159.131 E0.07079
G1 X161.064 Y159.66 E0.02902
G1 X159.747 Y160.42 E0.04177
G1 X157.515 Y159.131 E0.07079
G1 X154.818 Y160.688 E0.08552
G1 X154.818 Y163.265 E0.07079
G1 X152.586 Y164.554 E0.07079
G1 X152.586 Y167.667 E0.08552
G1 X154.818 Y168.956 E0.07079
G1 X154.818 Y170.998 E0.05607
G1 X152.586 Y172.286 E0.07079
G1 X152.586 Y175.4 E0.08552
G1 X154.818 Y176.688 E0.07079
G1 X154.818 Y178.73 E0.05607
G1 X152.586 Y180.018 E0.07079
G1 X152.586 Y183.132 E0.08552
G1 X154.818 Y184.42 E0.07079
G1 X154.818 Y186.462 E0.05607
;WIPE_START
G1 F24000
G1 X152.586 Y187.75 E-0.18364
M73 P0 R61
G1 X152.586 Y189.377 E-0.11591
G1 X156.994 Y191.432 E-0.3465
G1 X157.515 Y191.132 E-0.04285
G1 X159.747 Y192.42 E-0.18364
G1 X161.979 Y191.132 E-0.18364
G1 X164.211 Y192.42 E-0.18364
G1 X166.443 Y191.132 E-0.18364
G1 X168.675 Y192.42 E-0.18364
G1 X170.907 Y191.132 E-0.18364
G1 X172.235 Y191.899 E-0.1093
;WIPE_END
G1 E-0.1 F1800
G1 X173.307 Y186.68 F30000
G1 E2 F1800
G1 F1500
G1 X173.266 Y186.656 E0.00132
G1 X173.266 Y184.226 E0.06676
G1 X175.498 Y182.937 E0.07079
G1 X175.498 Y180.213 E0.07482
G1 X173.266 Y178.924 E0.07079
G1 X173.266 Y176.494 E0.06676
G1 X175.498 Y175.205 E0.07079
G1 X175.498 Y172.481 E0.07482
G1 X173.266 Y171.192 E0.07079
G1 X173.266 Y168.762 E0.06676
G1 X175.498 Y167.473 E0.07079
G1 X175.498 Y164.749 E0.07482
G1 X173.266 Y163.46 E0.07079
G1 X173.266 Y160.883 E0.07079
G1 X170.907 Y159.521 E0.07482
G1 X170.16 Y159.952 E0.02368
G1 X168.675 Y160.809 E0.04712
G1 X166.443 Y159.521 E0.07079
G1 X165.696 Y159.952 E0.02368
G1 X164.211 Y160.809 E0.04712
G1 X161.979 Y159.521 E0.07079
G1 X161.232 Y159.952 E0.02368
G1 X159.747 Y160.809 E0.04712
G1 X157.515 Y159.521 E0.07079
G1 X156.768 Y159.952 E0.02368
G1 X155.155 Y160.883 E0.05115
G1 X155.155 Y163.46 E0.07079
G1 X154.536 Y163.818 E0.01965
G1 X152.923 Y164.749 E0.05115
G1 X152.923 Y167.473 E0.07482
G1 X155.155 Y168.762 E0.07079
G1 X155.155 Y171.192 E0.06676
G1 X154.536 Y171.55 E0.01965
G1 X152.923 Y172.481 E0.05115
G1 X152.923 Y175.205 E0.07482
G1 X155.155 Y176.494 E0.07079
G1 X155.155 Y178.924 E0.06676
G1 X154.536 Y179.282 E0.01965
G1 X152.923 Y180.213 E0.05115
G1 X152.923 Y182.937 E0.07482
G1 X155.155 Y184.226 E0.07079
G1 X155.155 Y186.656 E0.06676
G1 X154.536 Y187.014 E0.01965
G1 X152.923 Y187.945 E0.05115
G1 X152.923 Y189.162 E0.03344
G1 X156.977 Y191.053 E0.12286
G1 X157.515 Y190.742 E0.01704
G1 X159.747 Y192.031 E0.07079
G1 X161.979 Y190.742 E0.07079
G1 X164.211 Y192.031 E0.07079
G1 X166.443 Y190.742 E0.07079
G1 X168.675 Y192.031 E0.07079
G1 X170.907 Y190.742 E0.07079
G1 X173.139 Y192.031 E0.07079
G1 X175.498 Y190.669 E0.07482
G1 X175.498 Y187.945 E0.07482
G1 X173.307 Y186.68 E0.06948
;WIPE_START
G1 F24000
G1 X173.266 Y186.656 E-0.00341
G1 X173.266 Y184.226 E-0.17318
G1 X175.498 Y182.937 E-0.18364
G1 X175.498 Y180.213 E-0.19409
G1 X173.266 Y178.924 E-0.18364
G1 X173.266 Y176.494 E-0.17318
G1 X175.498 Y175.205 E-0.18364
G1 X175.498 Y172.481 E-0.19409
G1 X173.266 Y171.192 E-0.18364
G1 X173.266 Y168.762 E-0.17318
G1 X175.498 Y167.473 E-0.18364
G1 X175.498 Y166.481 E-0.07068
;WIPE_END
G1 E-0.1 F1800
G1 X164.211 Y168.446 F30000
G1 E2 F1800
;TYPE:External perimeter
M73 P1 R61
G1 F1500
G1 X166.233 Y167.278 E0.06413
G1 X166.233 Y164.943 E0.06413
G1 X164.211 Y163.776 E0.06413
G1 X163.633 Y164.11 E0.01833
G1 X162.189 Y164.943 E0.0458
G1 X162.189 Y167.278 E0.06413
G1 X164.211 Y168.446 E0.06413
;WIPE_START
G1 X164.468 Y168.752 F30000
;WIPE_END
G1 X164.421 Y168.809
G1 F1500
G1 X164.421 Y171.144 E0.06413
G1 X166.443 Y172.312 E0.06413
G1 X168.465 Y171.144 E0.06413
G1 X168.465 Y168.809 E0.06413
G1 X166.443 Y167.642 E0.06413
G1 X165.865 Y167.976 E0.01833
G1 X164.421 Y168.809 E0.0458
;WIPE_START
G1 X164.027 Y168.879 F30000
;WIPE_END
;WIPE_START
G1 F24000
G1 X164.221 Y171.26 E-0.1702
G1 X166.443 Y172.543 E-0.18281
G1 X168.665 Y171.26 E-0.18281
G1 X168.665 Y168.694 E-0.18281
G1 X166.443 Y167.411 E-0.18281
G1 X165.765 Y167.802 E-0.05578
;WIPE_END
G1 E-1.04277 F1800
G1 X164.211 Y171.508 F30000
G1 E2 F1800
G1 F1500
G1 X163.633 Y171.842 E0.01833
G1 X162.189 Y172.675 E0.0458
G1 X162.189 Y175.01 E0.06413
G1 X164.211 Y176.178 E0.06413
G1 X166.233 Y175.01 E0.06413
G1 X166.233 Y172.675 E0.06413
G1 X164.211 Y171.508 E0.06413
;WIPE_START
G1 X163.954 Y171.202 F30000
;WIPE_END
;WIPE_START
G1 F24000
G1 X163.533 Y171.669 E-0.04479
G1 X161.989 Y172.56 E-0.12703
G1 X161.989 Y175.126 E-0.18281
G1 X164.211 Y176.409 E-0.18281
G1 X166.433 Y175.126 E-0.18281
G1 X166.433 Y172.56 E-0.18281
;WIPE_END
G1 E-1.09692 F1800
G1 X166.653 Y172.675 F30000
G1 E2 F1800
G1 F1500
G1 X166.653 Y175.01 E0.06413
G1 X168.675 Y176.178 E0.06413
G1 X170.697 Y175.01 E0.06413
G1 X170.697 Y172.675 E0.06413
G1 X168.675 Y171.508 E0.06413
G1 X168.097 Y171.842 E0.01833
G1 X166.653 Y172.675 E0.0458
;WIPE_START
G1 X166.259 Y172.745 F30000
;WIPE_END
;WIPE_START
G1 F24000
G1 X166.453 Y175.126 E-0.1702
G1 X168.675 Y176.409 E-0.18281
G1 X170.897 Y175.126 E-0.18281
G1 X170.897 Y172.56 E-0.18281
G1 X168.675 Y171.277 E-0.18281
G1 X167.997 Y171.669 E-0.05578
;WIPE_END
G1 E-1.04277 F1800
G1 X168.885 Y171.144 F30000
G1 E2 F1800
G1 F1500
G1 X170.907 Y172.312 E0.06413
G1 X172.929 Y171.144 E0.06413
G1 X172.929 Y168.809 E0.06413
G1 X170.907 Y167.642 E0.06413
G1 X170.329 Y167.976 E0.01833
G1 X168.885 Y168.809 E0.0458
G1 X168.885 Y171.144 E0.06413
;WIPE_START
G1 X168.748 Y171.52 F30000
;WIPE_END
;WIPE_START
G1 F24000
G1 X170.907 Y172.543 E-0.1702
G1 X173.129 Y171.26 E-0.18281
G1 X173.129 Y168.694 E-0.18281
G1 X170.907 Y167.411 E-0.18281
G1 X170.229 Y167.802 E-0.05578
G1 X168.685 Y168.694 E-0.12703
;WIPE_END
G1 E-1.09855 F1800
G1 X171.117 Y172.675 F30000
G1 E2 F1800
G1 F1500
G1 X171.117 Y175.01 E0.06413
G1 X173.139 Y176.178 E0.06413
G1 X175.161 Y175.01 E0.06413
G1 X175.161 Y172.675 E0.06413
G1 X173.139 Y171.508 E0.06413
G1 X172.561 Y171.842 E0.01833
G1 X171.117 Y172.675 E0.0458
;WIPE_START
G1 X170.723 Y172.745 F30000
;WIPE_END
;WIPE_START
G1 F24000
G1 X170.917 Y175.126 E-0.1702
G1 X173.139 Y176.409 E-0.18281
G1 X175.361 Y175.126 E-0.18281
G1 X175.361 Y172.56 E-0.18281
G1 X173.139 Y171.277 E-0.18281
G1 X172.461 Y171.669 E-0.05578
;WIPE_END
G1 E-1.04277 F1800
G1 X170.907 Y175.374 F30000
G1 E2 F1800
G1 F1500
G1 X170.329 Y175.708 E0.01833
G1 X168.885 Y176.541 E0.0458
G1 X168.885 Y178.876 E0.06413
G1 X170.907 Y180.044 E0.06413
G1 X172.929 Y178.876 E0.06413
G1 X172.929 Y176.541 E0.06413
G1 X170.907 Y175.374 E0.06413
;WIPE_START
G1 X170.65 Y175.068 F30000
;WIPE_END
;WIPE_START
G1 F24000
G1 X170.229 Y175.535 E-0.04479
G1 X168.685 Y176.426 E-0.12703
G1 X168.685 Y178.992 E-0.18281
G1 X170.907 Y180.275 E-0.18281
G1 X173.129 Y178.992 E-0.18281
G1 X173.129 Y176.426 E-0.18281
;WIPE_END
G1 E-1.09692 F1800
G1 X168.675 Y179.24 F30000
G1 E2 F1800
G1 F1500
G1 X168.097 Y179.574 E0.01833
G1 X166.653 Y180.407 E0.0458
G1 X166.653 Y182.742 E0.06413
G1 X168.675 Y183.91 E0.06413
G1 X170.697 Y182.742 E0.06413
G1 X170.697 Y180.407 E0.06413
G1 X168.675 Y179.24 E0.06413
;WIPE_START
G1 X168.418 Y178.934 F30000
;WIPE_END
;WIPE_START
G1 F24000
G1 X167.997 Y179.401 E-0.04479
G1 X166.453 Y180.292 E-0.12703
G1 X166.453 Y182.858 E-0.18281
G1 X168.675 Y184.141 E-0.18281
G1 X170.897 Y182.858 E-0.18281
G1 X170.897 Y180.292 E-0.18281
;WIPE_END
G1 E-1.09692 F1800
G1 X170.847 Y183.141 F30000
G1 E2 F1800
G1 F1500
G1 X170.329 Y183.44 E0.01642
G1 X168.885 Y184.274 E0.0458
G1 X168.885 Y186.608 E0.06413
G1 X170.907 Y187.776 E0.06413
G1 X172.929 Y186.608 E0.06413
G1 X172.929 Y184.274 E0.06413
G1 X170.907 Y183.106 E0.06413
G1 X170.847 Y183.141 E0.00191
;WIPE_START
G1 X170.5 Y182.941 F30000
;WIPE_END
G1 X171.117 Y182.742
G1 F1500
G1 X173.139 Y183.91 E0.06413
G1 X175.161 Y182.742 E0.06413
G1 X175.161 Y180.407 E0.06413
G1 X173.139 Y179.24 E0.06413
G1 X172.561 Y179.574 E0.01833
G1 X171.117 Y180.407 E0.0458
G1 X171.117 Y182.742 E0.06413
;WIPE_START
G1 X170.98 Y183.118 F30000
;WIPE_END
;WIPE_START
G1 F24000
G1 X173.139 Y184.141 E-0.1702
G1 X175.361 Y182.858 E-0.18281
G1 X175.361 Y180.292 E-0.18281
G1 X173.139 Y179.009 E-0.18281
G1 X172.461 Y179.401 E-0.05578
G1 X170.917 Y180.292 E-0.12703
;WIPE_END
G1 E-1.09855 F1800
G1 X173.139 Y186.972 F30000
G1 E2 F1800
G1 F1500
G1 X172.647 Y187.256 E0.01559
G1 X171.117 Y188.14 E0.04855
G1 X171.117 Y190.474 E0.06413
G1 X173.139 Y191.642 E0.06413
G1 X175.161 Y190.474 E0.06413
G1 X175.161 Y188.14 E0.06413
G1 X173.139 Y186.972 E0.06413
;WIPE_START
G1 X172.882 Y186.666 F30000
;WIPE_END
;WIPE_START
G1 F24000
G1 X172.547 Y187.083 E-0.03808
G1 X170.917 Y188.024 E-0.13416
G1 X170.917 Y190.59 E-0.18281
G1 X173.139 Y191.873 E-0.18281
G1 X175.361 Y190.59 E-0.18281
G1 X175.361 Y188.024 E-0.18281
;WIPE_END
G1 E-1.09651 F1800
G1 X170.697 Y188.14 F30000
G1 E2 F1800
G1 F1500
G1 X168.675 Y186.972 E0.06413
G1 X168.097 Y187.306 E0.01833
G1 X166.653 Y188.14 E0.0458
G1 X166.653 Y190.474 E0.06413
G1 X168.675 Y191.642 E0.06413
G1 X170.697 Y190.474 E0.06413
G1 X170.697 Y188.14 E0.06413
;WIPE_START
G1 X170.834 Y187.764 F30000
;WIPE_END
;WIPE_START
G1 F24000
G1 X168.675 Y186.741 E-0.1702
G1 X167.997 Y187.133 E-0.05578
G1 X166.453 Y188.024 E-0.12703
G1 X166.453 Y190.59 E-0.18281
G1 X168.675 Y191.873 E-0.18281
G1 X170.897 Y190.59 E-0.18281
;WIPE_END
G1 E-1.09855 F1800
G1 X166.233 Y188.14 F30000
G1 E2 F1800
G1 F1500
G1 X164.211 Y186.972 E0.06413
G1 X163.633 Y187.306 E0.01833
G1 X162.189 Y188.14 E0.0458
G1 X162.189 Y190.474 E0.06413
G1 X164.211 Y191.642 E0.06413
G1 X166.233 Y190.474 E0.06413
G1 X166.233 Y188.14 E0.06413
;WIPE_START
G1 X166.37 Y187.764 F30000
;WIPE_END
G1 X166.443 Y187.776
G1 F1500
G1 X168.465 Y186.608 E0.06413
G1 X168.465 Y184.274 E0.06413
G1 X166.443 Y183.106 E0.06413
G1 X165.865 Y183.44 E0.01833
G1 X164.421 Y184.274 E0.0458
G1 X164.421 Y186.608 E0.06413
G1 X166.443 Y187.776 E0.06413
;WIPE_START
G1 X166.7 Y188.082 F30000
;WIPE_END
;WIPE_START
G1 F24000
G1 X168.665 Y186.724 E-0.1702
G1 X168.665 Y184.158 E-0.18281
G1 X166.443 Y182.875 E-0.18281
G1 X165.765 Y183.267 E-0.05578
G1 X164.221 Y184.158 E-0.12703
G1 X164.221 Y186.724 E-0.18281
;WIPE_END
G1 E-1.09855 F1800
G1 X164.001 Y186.608 F30000
G1 E2 F1800
G1 F1500
G1 X164.001 Y184.274 E0.06413
G1 X161.979 Y183.106 E0.06413
G1 X161.401 Y183.44 E0.01833
G1 X159.957 Y184.274 E0.0458
G1 X159.957 Y186.608 E0.06413
G1 X161.979 Y187.776 E0.06413
G1 X164.001 Y186.608 E0.06413
;WIPE_START
G1 X164.395 Y186.539 F30000
;WIPE_END
;WIPE_START
G1 F24000
G1 X164.201 Y184.158 E-0.1702
G1 X161.979 Y182.875 E-0.18281
G1 X161.301 Y183.267 E-0.05578
G1 X159.757 Y184.158 E-0.12703
G1 X159.757 Y186.724 E-0.18281
G1 X161.979 Y188.007 E-0.18281
;WIPE_END
G1 E-1.09855 F1800
G1 X164.211 Y183.91 F30000
G1 E2 F1800
G1 F1500
G1 X166.233 Y182.742 E0.06413
G1 X166.233 Y180.407 E0.06413
G1 X164.211 Y179.24 E0.06413
G1 X163.633 Y179.574 E0.01833
G1 X162.189 Y180.407 E0.0458
G1 X162.189 Y182.742 E0.06413
G1 X164.211 Y183.91 E0.06413
;WIPE_START
G1 X164.468 Y184.216 F30000
;WIPE_END
;WIPE_START
G1 F24000
G1 X166.433 Y182.858 E-0.1702
G1 X166.433 Y180.292 E-0.18281
G1 X164.211 Y179.009 E-0.18281
G1 X163.533 Y179.401 E-0.05578
G1 X161.989 Y180.292 E-0.12703
G1 X161.989 Y182.858 E-0.18281
;WIPE_END
G1 E-1.09855 F1800
G1 X161.769 Y182.742 F30000
G1 E2 F1800
G1 F1500
G1 X161.769 Y180.407 E0.06413
G1 X159.747 Y179.24 E0.06413
G1 X159.169 Y179.574 E0.01833
G1 X157.725 Y180.407 E0.0458
G1 X157.725 Y182.742 E0.06413
G1 X159.747 Y183.91 E0.06413
G1 X161.769 Y182.742 E0.06413
;WIPE_START
G1 X162.163 Y182.673 F30000
;WIPE_END
;WIPE_START
G1 F24000
G1 X161.969 Y180.292 E-0.1702
G1 X159.747 Y179.009 E-0.18281
G1 X159.069 Y179.401 E-0.05578
G1 X157.525 Y180.292 E-0.12703
G1 X157.525 Y182.858 E-0.18281
G1 X159.747 Y184.141 E-0.18281
;WIPE_END
G1 E-1.09855 F1800
G1 X159.537 Y184.274 F30000
G1 E2 F1800
G1 F1500
G1 X157.515 Y183.106 E0.06413
G1 X156.936 Y183.44 E0.01833
G1 X155.492 Y184.274 E0.0458
G1 X155.492 Y186.608 E0.06413
