; generated by SuperSlicer 2.4 on 2022-10-25 at 16:45:53 UTC


;
;

;
;
; 

; external perimeters extrusion width = 0.45mm
; perimeters extrusion width = 0.45mm
; infill extrusion width = 0.45mm
; solid infill extrusion width = 0.48mm
; top infill extrusion width = 0.42mm
; first layer extrusion width = 0.38mm

; object:{"name":"Back_2","id":"Back_2.4_CPAP.stl id:0 copy 0","object_center":[165.000000,162.500000,0.000000],"boundingbox_center":[165.000000,162.500000,4.574997],"boundingbox_size":[44.099998,111.000000,9.149994]}
; plater:{"center":[165.000000,162.500000,0.000000],"boundingbox_center":[165.000000,162.500000,4.574997],"boundingbox_size":[44.099998,111.000000,9.149994]}

M73 P0 R49
;TYPE:Custom
; custom gcode: start_gcode
M104 S0 ; Stops PS/SS from sending temp waits separately
M140 S0
PRINT_START EXTRUDER_TEMP=235 BED_TEMP=66
; custom gcode end: start_gcode
M107
G21 ; set units to millimeters
G90 ; use absolute coordinates
M83 ; use relative distances for extrusion
; custom gcode: start_filament_gcode
; Filament gcode
;SET_GCODE_OFFSET Z=0
;SET_PRESSURE_ADVANCE ADVANCE=0.05
; custom gcode end: start_filament_gcode
;_TOOLCHANGE 0
;LAYER_CHANGE
;Z:0.2
;HEIGHT:0.2
G1 E-1.2 F1800
G1 Z0.2 F30000
G92 E0
M104 S235 ; set temperature
; printing object Back_2.4_CPAP.stl id:0 copy 0
G1 X167.212 Y209.298
G1 E1.2 F1800
;TYPE:Internal perimeter
;WIDTH:0.38
G1 F1500
G1 X167.888 Y208.125 E0.03566
G1 X168.138 Y208.192 E0.00681
G1 X168.139 Y210.423 E0.05878
G1 X167.888 Y210.49 E0.00684
G1 X167.212 Y209.298 E0.0361
;WIPE_START
G1 F24000
G1 X167.888 Y208.125 E-0.09643
G1 X168.138 Y208.192 E-0.01843
G1 X168.139 Y210.423 E-0.15896
G1 X167.888 Y210.49 E-0.01851
G1 X167.212 Y209.298 E-0.09763
;WIPE_END
G1 E-0.81004 F1800
G1 X162.111 Y210.476 F30000
G1 E1.2 F1800
G1 F1500
G1 X161.861 Y210.409 E0.00682
G1 X161.862 Y208.192 E0.05841
G1 X162.112 Y208.126 E0.00681
G1 X162.789 Y209.3 E0.03572
G1 X162.111 Y210.476 E0.03578
G1 X163.021 Y209.573 F30000
G1 F1500
G1 X161.775 Y211.734 E0.06574
G1 X161.523 Y211.665 E0.00687
G1 X161.527 Y211.439 E0.00595
G1 X161.526 Y206.934 E0.11869
G1 X161.776 Y206.868 E0.00682
G1 X163.021 Y209.027 E0.06568
G1 X166.979 Y209.027 E0.10427
G1 X168.224 Y206.868 E0.06568
G1 X168.474 Y206.934 E0.00682
G1 X168.473 Y211.439 E0.11869
G1 X168.477 Y211.697 E0.00678
G1 X168.224 Y211.766 E0.0069
G1 X166.98 Y209.573 E0.06642
G1 X163.021 Y209.573 E0.10431
;WIPE_START
G1 F24000
G1 X161.775 Y211.734 E-0.17777
G1 X161.523 Y211.665 E-0.01858
G1 X161.527 Y211.439 E-0.01608
G1 X161.526 Y206.934 E-0.32097
G1 X161.776 Y206.868 E-0.01844
G1 X163.021 Y209.027 E-0.17762
G1 X166.979 Y209.027 E-0.28198
G1 X167.88 Y207.464 E-0.12856
;WIPE_END
G1 E-0.06 F1800
G1 X167.886 Y215.528 F30000
G1 E1.2 F1800
G1 F1500
G1 X168.136 Y215.595 E0.00682
G1 X168.136 Y216.5 E0.02386
G1 X167.601 Y217.036 E0.01995
G1 X167.017 Y217.036 E0.01538
G1 X167.886 Y215.528 E0.04586
;WIPE_START
G1 F24000
G1 X168.136 Y215.595 E-0.01844
G1 X168.136 Y216.5 E-0.06453
G1 X167.601 Y217.036 E-0.05395
G1 X167.017 Y217.036 E-0.04159
G1 X167.886 Y215.528 E-0.12403
;WIPE_END
G1 E-0.89747 F1800
G1 X162.114 Y215.528 F30000
G1 E1.2 F1800
G1 F1500
G1 X162.983 Y217.036 E0.04586
G1 X162.399 Y217.036 E0.01538
G1 X161.864 Y216.5 E0.01995
G1 X161.864 Y215.595 E0.02386
G1 X162.114 Y215.528 E0.00682
G1 X161.776 Y214.267 F30000
G1 F1500
G1 X163.021 Y216.427 E0.06568
G1 X166.979 Y216.427 E0.10427
G1 X168.224 Y214.267 E0.06568
G1 X168.474 Y214.334 E0.00682
G1 X168.473 Y216.64 E0.06075
G1 X167.74 Y217.373 E0.0273
G1 X162.26 Y217.373 E0.14439
G1 X161.527 Y216.64 E0.0273
G1 X161.526 Y214.334 E0.06075
G1 X161.776 Y214.267 E0.00682
;WIPE_START
G1 F24000
G1 X163.021 Y216.427 E-0.17762
G1 X166.979 Y216.427 E-0.28198
M73 P0 R48
G1 X168.224 Y214.267 E-0.17762
G1 X168.474 Y214.334 E-0.01844
G1 X168.473 Y216.64 E-0.16429
G1 X167.74 Y217.373 E-0.07384
G1 X164.285 Y217.373 E-0.24622
;WIPE_END
G1 E-0.06 F1800
G1 X178.889 Y156.819 F30000
G1 E1.2 F1800
G1 F1500
G1 X178.906 Y160.776 E0.10426
G1 X182.341 Y162.74 E0.10426
G1 X185.76 Y160.747 E0.10426
G1 X185.743 Y156.79 E0.10426
G1 X182.308 Y154.826 E0.10426
G1 X181.596 Y155.241 E0.02171
G1 X178.889 Y156.819 E0.08255
G1 X179.227 Y157.012 F30000
;TYPE:External perimeter
G1 F1500
G1 X179.242 Y160.58 E0.09401
G1 X182.34 Y162.351 E0.09401
G1 X185.422 Y160.554 E0.09401
G1 X185.407 Y156.986 E0.09401
G1 X182.309 Y155.215 E0.09401
G1 X181.766 Y155.532 E0.01658
G1 X179.227 Y157.012 E0.07743
;WIPE_START
G1 X178.833 Y157.083 F30000
;WIPE_END
;WIPE_START
G1 F24000
G1 X179.043 Y160.696 E-0.25787
G1 X182.341 Y162.582 E-0.27068
G1 X185.623 Y160.669 E-0.27068
G1 X185.607 Y156.87 E-0.27068
G1 X184.752 Y156.381 E-0.0701
;WIPE_END
G1 E-0.06 F1800
G1 X181.615 Y170.084 F30000
G1 E1.2 F1800
;TYPE:Internal perimeter
G1 F1500
G1 X181.105 Y170.196 E0.01375
G1 X180.525 Y170.465 E0.01686
G1 X180.043 Y170.83 E0.01592
G1 X179.775 Y171.114 E0.01029
G1 X179.456 Y171.585 E0.01498
G1 X179.292 Y171.939 E0.01029
G1 X179.13 Y172.521 E0.01592
G1 X179.095 Y173.16 E0.01686
G1 X179.199 Y173.792 E0.01686
G1 X179.436 Y174.386 E0.01686
G1 X179.775 Y174.886 E0.01592
G1 X180.043 Y175.17 E0.01029
G1 X180.525 Y175.535 E0.01592
G1 X181.105 Y175.804 E0.01686
G1 X181.73 Y175.942 E0.01686
G1 X182.334 Y175.942 E0.01592
G1 X182.72 Y175.878 E0.01029
G1 X183.292 Y175.685 E0.01592
G1 X183.841 Y175.356 E0.01686
G1 X184.305 Y174.916 E0.01686
G1 X184.664 Y174.386 E0.01686
G1 X184.901 Y173.792 E0.01686
G1 X185.005 Y173.16 E0.01686
G1 X184.97 Y172.521 E0.01686
G1 X184.799 Y171.905 E0.01686
G1 X184.499 Y171.34 E0.01686
G1 X184.108 Y170.879 E0.01592
G1 X183.81 Y170.626 E0.01029
G1 X183.292 Y170.315 E0.01592
G1 X182.686 Y170.11 E0.01686
G1 X182.085 Y170.045 E0.01592
G1 X181.695 Y170.066 E0.01029
G1 X181.615 Y170.084 E0.00217
G1 X181.687 Y170.413 F30000
G1 F1500
G1 X181.213 Y170.517 E0.01278
G1 X180.699 Y170.755 E0.01493
G1 X180.269 Y171.082 E0.01423
G1 X180.038 Y171.326 E0.00884
G1 X179.75 Y171.751 E0.01354
G1 X179.609 Y172.056 E0.00884
G1 X179.465 Y172.576 E0.01423
G1 X179.434 Y173.142 E0.01493
G1 X179.526 Y173.701 E0.01493
G1 X179.735 Y174.227 E0.01493
G1 X180.038 Y174.674 E0.01423
G1 X180.269 Y174.918 E0.00884
G1 X180.699 Y175.245 E0.01423
G1 X181.213 Y175.483 E0.01493
G1 X181.767 Y175.604 E0.01493
G1 X182.307 Y175.604 E0.01423
G1 X182.638 Y175.55 E0.00884
G1 X183.15 Y175.378 E0.01423
G1 X183.635 Y175.086 E0.01493
G1 X184.047 Y174.696 E0.01493
G1 X184.365 Y174.227 E0.01493
G1 X184.574 Y173.701 E0.01493
G1 X184.666 Y173.142 E0.01493
G1 X184.635 Y172.576 E0.01493
G1 X184.484 Y172.03 E0.01493
G1 X184.218 Y171.53 E0.01493
G1 X183.869 Y171.118 E0.01423
G1 X183.613 Y170.901 E0.00884
G1 X183.15 Y170.622 E0.01423
G1 X182.613 Y170.441 E0.01493
G1 X182.076 Y170.383 E0.01423
G1 X181.741 Y170.401 E0.00884
G1 X181.687 Y170.413 E0.00145
G1 X181.76 Y170.742 F30000
G1 F1500
G1 X181.322 Y170.839 E0.01182
G1 X180.874 Y171.046 E0.01299
G1 X180.495 Y171.334 E0.01254
G1 X180.302 Y171.538 E0.0074
G1 X180.045 Y171.917 E0.01209
G1 X179.927 Y172.172 E0.0074
G1 X179.799 Y172.631 E0.01254
G1 X179.773 Y173.123 E0.01299
G1 X179.852 Y173.61 E0.01299
G1 X180.035 Y174.068 E0.01299
G1 X180.302 Y174.462 E0.01254
G1 X180.495 Y174.666 E0.0074
G1 X180.874 Y174.954 E0.01254
G1 X181.322 Y175.161 E0.01299
G1 X181.803 Y175.267 E0.01299
G1 X182.279 Y175.267 E0.01254
G1 X182.557 Y175.222 E0.0074
G1 X183.008 Y175.07 E0.01254
G1 X183.43 Y174.816 E0.01299
G1 X183.788 Y174.477 E0.01299
G1 X184.065 Y174.068 E0.01299
G1 X184.248 Y173.61 E0.01299
G1 X184.327 Y173.123 E0.01299
G1 X184.301 Y172.631 E0.01299
G1 X184.169 Y172.156 E0.01299
G1 X183.938 Y171.72 E0.01299
G1 X183.63 Y171.357 E0.01254
G1 X183.416 Y171.175 E0.0074
G1 X183.008 Y170.93 E0.01254
G1 X182.54 Y170.773 E0.01299
G1 X182.067 Y170.721 E0.01254
G1 X181.787 Y170.736 E0.0074
G1 X181.76 Y170.742 E0.00072
G1 X181.832 Y171.071 F30000
;TYPE:External perimeter
G1 F1500
G1 X181.43 Y171.16 E0.01085
G1 X181.049 Y171.336 E0.01106
G1 X180.721 Y171.586 E0.01085
G1 X180.566 Y171.75 E0.00595
G1 X180.339 Y172.084 E0.01064
G1 X180.244 Y172.289 E0.00595
G1 X180.134 Y172.686 E0.01085
G1 X180.111 Y173.105 E0.01106
G1 X180.179 Y173.519 E0.01106
G1 X180.334 Y173.91 E0.01106
G1 X180.566 Y174.25 E0.01085
G1 X180.721 Y174.414 E0.00595
G1 X181.049 Y174.664 E0.01085
G1 X181.43 Y174.84 E0.01106
G1 X181.84 Y174.93 E0.01106
G1 X182.252 Y174.93 E0.01085
G1 X182.475 Y174.894 E0.00595
G1 X182.865 Y174.762 E0.01085
G1 X183.225 Y174.546 E0.01106
G1 X183.53 Y174.257 E0.01106
G1 X183.766 Y173.91 E0.01106
G1 X183.921 Y173.519 E0.01106
G1 X183.989 Y173.105 E0.01106
G1 X183.966 Y172.686 E0.01106
G1 X183.854 Y172.281 E0.01106
G1 X183.657 Y171.91 E0.01106
G1 X183.39 Y171.596 E0.01085
G1 X183.218 Y171.45 E0.00595
G1 X182.865 Y171.238 E0.01085
G1 X182.467 Y171.104 E0.01106
G1 X182.058 Y171.059 E0.01085
G1 X181.832 Y171.071 E0.00595
;WIPE_START
M73 P1 R48
G1 X181.579 Y170.762 F30000
;WIPE_END
;WIPE_START
G1 F24000
G1 X181.366 Y170.969 E-0.02119
G1 X180.945 Y171.164 E-0.03302
G1 X180.587 Y171.436 E-0.03206
G1 X180.409 Y171.624 E-0.01841
G1 X180.164 Y171.985 E-0.03111
G1 X180.056 Y172.22 E-0.01841
G1 X179.935 Y172.653 E-0.03206
G1 X179.91 Y173.116 E-0.03302
G1 X179.985 Y173.573 E-0.03301
G1 X180.157 Y174.004 E-0.03302
G1 X180.409 Y174.376 E-0.03206
G1 X180.587 Y174.564 E-0.01842
G1 X180.945 Y174.836 E-0.03206
G1 X181.366 Y175.031 E-0.03302
G1 X181.818 Y175.13 E-0.03302
G1 X182.268 Y175.13 E-0.03206
G1 X182.523 Y175.089 E-0.01842
G1 X182.95 Y174.945 E-0.03206
G1 X183.347 Y174.706 E-0.03301
G1 X183.683 Y174.387 E-0.03302
G1 X183.943 Y174.004 E-0.03302
G1 X184.115 Y173.573 E-0.03302
G1 X184.19 Y173.116 E-0.03301
G1 X184.165 Y172.653 E-0.03302
G1 X184.041 Y172.207 E-0.03302
G1 X183.824 Y171.797 E-0.03301
G1 X183.532 Y171.454 E-0.03206
G1 X183.335 Y171.287 E-0.01842
G1 X182.95 Y171.055 E-0.03206
G1 X182.511 Y170.907 E-0.03301
G1 X182.063 Y170.859 E-0.03206
;WIPE_END
G1 E-0.27185 F1800
G1 X150.87 Y172.521 F30000
G1 E1.2 F1800
;TYPE:Internal perimeter
G1 F1500
G1 X150.708 Y171.939 E0.01592
G1 X150.544 Y171.585 E0.01029
G1 X150.205 Y171.084 E0.01592
G1 X149.741 Y170.644 E0.01686
G1 X149.192 Y170.315 E0.01686
G1 X148.586 Y170.11 E0.01686
G1 X147.985 Y170.045 E0.01592
G1 X147.595 Y170.066 E0.01029
G1 X147.005 Y170.196 E0.01592
G1 X146.425 Y170.465 E0.01686
G1 X145.943 Y170.83 E0.01592
G1 X145.675 Y171.114 E0.01029
G1 X145.356 Y171.585 E0.01498
G1 X145.192 Y171.939 E0.01029
G1 X145.03 Y172.521 E0.01592
G1 X144.995 Y173.16 E0.01686
G1 X145.099 Y173.792 E0.01686
G1 X145.336 Y174.386 E0.01686
G1 X145.675 Y174.886 E0.01592
G1 X145.943 Y175.17 E0.01029
G1 X146.425 Y175.535 E0.01592
G1 X147.005 Y175.804 E0.01686
G1 X147.63 Y175.942 E0.01686
G1 X148.234 Y175.942 E0.01592
G1 X148.62 Y175.878 E0.01029
G1 X149.192 Y175.685 E0.01592
G1 X149.741 Y175.356 E0.01686
G1 X150.205 Y174.916 E0.01686
G1 X150.564 Y174.386 E0.01686
G1 X150.801 Y173.792 E0.01686
G1 X150.905 Y173.16 E0.01686
G1 X150.87 Y172.521 E0.01686
G1 X150.546 Y172.768 F30000
G1 F1500
G1 X150.535 Y172.576 E0.00505
G1 X150.391 Y172.056 E0.01423
G1 X150.25 Y171.751 E0.00884
G1 X149.947 Y171.304 E0.01423
G1 X149.535 Y170.914 E0.01493
G1 X149.05 Y170.622 E0.01493
G1 X148.513 Y170.441 E0.01493
G1 X147.976 Y170.383 E0.01423
G1 X147.641 Y170.401 E0.00884
G1 X147.113 Y170.517 E0.01423
G1 X146.599 Y170.755 E0.01493
G1 X146.169 Y171.082 E0.01423
G1 X145.938 Y171.326 E0.00884
G1 X145.65 Y171.751 E0.01354
G1 X145.509 Y172.056 E0.00884
G1 X145.365 Y172.576 E0.01423
G1 X145.334 Y173.142 E0.01493
G1 X145.426 Y173.701 E0.01493
G1 X145.635 Y174.227 E0.01493
G1 X145.938 Y174.674 E0.01423
G1 X146.169 Y174.918 E0.00884
G1 X146.599 Y175.245 E0.01423
G1 X147.113 Y175.483 E0.01493
G1 X147.667 Y175.604 E0.01493
G1 X148.207 Y175.604 E0.01423
G1 X148.538 Y175.55 E0.00884
G1 X149.05 Y175.378 E0.01423
G1 X149.535 Y175.086 E0.01493
G1 X149.947 Y174.696 E0.01493
G1 X150.265 Y174.227 E0.01493
G1 X150.474 Y173.701 E0.01493
G1 X150.566 Y173.142 E0.01493
G1 X150.546 Y172.768 E0.00988
G1 X150.209 Y172.786 F30000
G1 F1500
G1 X150.201 Y172.631 E0.00408
G1 X150.073 Y172.172 E0.01254
G1 X149.955 Y171.917 E0.0074
G1 X149.688 Y171.523 E0.01254
G1 X149.33 Y171.184 E0.01299
G1 X148.908 Y170.93 E0.01299
G1 X148.44 Y170.773 E0.01299
G1 X147.967 Y170.721 E0.01254
G1 X147.687 Y170.736 E0.0074
G1 X147.222 Y170.839 E0.01254
G1 X146.774 Y171.046 E0.01299
G1 X146.395 Y171.334 E0.01254
G1 X146.202 Y171.538 E0.0074
G1 X145.945 Y171.917 E0.01209
G1 X145.827 Y172.172 E0.0074
G1 X145.699 Y172.631 E0.01254
G1 X145.673 Y173.123 E0.01299
G1 X145.752 Y173.61 E0.01299
G1 X145.935 Y174.068 E0.01299
G1 X146.202 Y174.462 E0.01254
G1 X146.395 Y174.666 E0.0074
G1 X146.774 Y174.954 E0.01254
G1 X147.222 Y175.161 E0.01299
G1 X147.703 Y175.267 E0.01299
G1 X148.179 Y175.267 E0.01254
G1 X148.457 Y175.222 E0.0074
G1 X148.908 Y175.07 E0.01254
G1 X149.33 Y174.816 E0.01299
G1 X149.688 Y174.477 E0.01299
G1 X149.965 Y174.068 E0.01299
G1 X150.148 Y173.61 E0.01299
G1 X150.227 Y173.123 E0.01299
G1 X150.209 Y172.786 E0.00891
G1 X149.873 Y172.804 F30000
;TYPE:External perimeter
G1 F1500
G1 X149.866 Y172.686 E0.00312
G1 X149.756 Y172.289 E0.01085
G1 X149.661 Y172.084 E0.00595
G1 X149.43 Y171.743 E0.01085
G1 X149.125 Y171.454 E0.01106
G1 X148.765 Y171.238 E0.01106
G1 X148.367 Y171.104 E0.01106
G1 X147.958 Y171.059 E0.01085
G1 X147.732 Y171.071 E0.00595
G1 X147.33 Y171.16 E0.01085
G1 X146.949 Y171.336 E0.01106
G1 X146.621 Y171.586 E0.01085
G1 X146.466 Y171.75 E0.00595
G1 X146.239 Y172.084 E0.01064
G1 X146.144 Y172.289 E0.00595
G1 X146.034 Y172.686 E0.01085
G1 X146.011 Y173.105 E0.01106
G1 X146.079 Y173.519 E0.01106
G1 X146.234 Y173.91 E0.01106
G1 X146.466 Y174.25 E0.01085
G1 X146.621 Y174.414 E0.00595
G1 X146.949 Y174.664 E0.01085
G1 X147.33 Y174.84 E0.01106
G1 X147.74 Y174.93 E0.01106
G1 X148.152 Y174.93 E0.01085
G1 X148.375 Y174.894 E0.00595
G1 X148.765 Y174.762 E0.01085
G1 X149.125 Y174.546 E0.01106
G1 X149.43 Y174.257 E0.01106
G1 X149.666 Y173.91 E0.01106
G1 X149.821 Y173.519 E0.01106
G1 X149.889 Y173.105 E0.01106
G1 X149.873 Y172.804 E0.00794
;WIPE_START
G1 X150.208 Y172.586 F30000
;WIPE_END
;WIPE_START
G1 F24000
G1 X149.944 Y172.22 E-0.03212
G1 X149.836 Y171.985 E-0.01841
G1 X149.583 Y171.613 E-0.03206
G1 X149.247 Y171.294 E-0.03302
G1 X148.85 Y171.055 E-0.03302
G1 X148.411 Y170.907 E-0.03302
G1 X147.963 Y170.859 E-0.03206
G1 X147.705 Y170.873 E-0.01842
G1 X147.266 Y170.969 E-0.03206
G1 X146.845 Y171.164 E-0.03301
G1 X146.487 Y171.436 E-0.03206
G1 X146.309 Y171.624 E-0.01842
G1 X146.064 Y171.985 E-0.03111
G1 X145.956 Y172.22 E-0.01842
G1 X145.835 Y172.653 E-0.03206
G1 X145.81 Y173.116 E-0.03302
G1 X145.885 Y173.573 E-0.03301
G1 X146.057 Y174.004 E-0.03302
G1 X146.309 Y174.376 E-0.03206
G1 X146.487 Y174.564 E-0.01842
G1 X146.845 Y174.836 E-0.03206
G1 X147.266 Y175.031 E-0.03302
G1 X147.718 Y175.13 E-0.03302
G1 X148.168 Y175.13 E-0.03206
G1 X148.423 Y175.089 E-0.01842
G1 X148.85 Y174.945 E-0.03206
G1 X149.247 Y174.706 E-0.03301
G1 X149.583 Y174.387 E-0.03302
G1 X149.843 Y174.004 E-0.03302
G1 X150.015 Y173.573 E-0.03302
G1 X150.09 Y173.116 E-0.03301
;WIPE_END
G1 E-0.27552 F1800
G1 X161.325 Y164.969 F30000
G1 E1.2 F1800
;TYPE:Internal perimeter
G1 F1500
G1 X163.557 Y166.258 E0.0679
G1 X165.789 Y164.969 E0.0679
G1 X168.021 Y166.258 E0.0679
G1 X170.253 Y164.969 E0.0679
G1 X172.485 Y166.258 E0.0679
G1 X175.519 Y164.506 E0.09228
G1 X175.519 Y161.929 E0.0679
G1 X177.751 Y160.64 E0.0679
G1 X177.751 Y157.138 E0.09228
G1 X175.519 Y155.849 E0.0679
G1 X175.519 Y154.197 E0.04353
G1 X177.751 Y152.908 E0.0679
G1 X177.751 Y149.406 E0.09228
G1 X175.519 Y148.117 E0.0679
G1 X175.519 Y146.465 E0.04353
G1 X177.751 Y145.176 E0.0679
G1 X177.751 Y141.674 E0.09228
G1 X175.519 Y140.385 E0.0679
G1 X175.519 Y138.733 E0.04353
G1 X177.751 Y137.444 E0.0679
G1 X177.751 Y135.408 E0.05364
G1 X172.99 Y133.188 E0.13841
G1 X172.485 Y133.479 E0.01534
G1 X170.253 Y132.191 E0.0679
G1 X168.021 Y133.479 E0.0679
G1 X165.789 Y132.191 E0.0679
G1 X163.557 Y133.479 E0.0679
G1 X161.325 Y132.191 E0.0679
G1 X160.242 Y132.816 E0.03297
G1 X159.093 Y133.479 E0.03494
G1 X156.861 Y132.191 E0.0679
