; generated by SuperSlicer 2.4 on 2022-10-05 at 17:59:57 UTC


;
;

;
;
; 

; external perimeters extrusion width = 0.45mm
; perimeters extrusion width = 0.45mm
; infill extrusion width = 0.45mm
; solid infill extrusion width = 0.48mm
; top infill extrusion width = 0.40mm
; support material extrusion width = 0.45mm
; first layer extrusion width = 0.38mm

; object:{"name":"beer_crate_stackable_rim","id":"beer_crate_stackable_rim.stl id:0 copy 0","object_center":[165.000000,162.500000,0.000000],"boundingbox_center":[165.000000,162.500000,1.310000],"boundingbox_size":[68.400002,54.400002,2.620000]}
; plater:{"center":[165.000000,162.500000,0.000000],"boundingbox_center":[165.000000,162.500000,1.310000],"boundingbox_size":[68.400002,54.400002,2.620000]}

M73 P0 R6
;TYPE:Custom
; custom gcode: start_gcode
M104 S0 ; Stops PS/SS from sending temp waits separately
M140 S0
PRINT_START EXTRUDER_TEMP=215 BED_TEMP=55
; custom gcode end: start_gcode
M107
G21 ; set units to millimeters
G90 ; use absolute coordinates
M83 ; use relative distances for extrusion
; custom gcode: start_filament_gcode
; Filament gcode
;SET_GCODE_OFFSET Z=0
;SET_PRESSURE_ADVANCE ADVANCE=0.05
; custom gcode end: start_filament_gcode
;_TOOLCHANGE 0
;LAYER_CHANGE
;Z:0.24
;HEIGHT:0.24
G1 Z0.24 F30000
G92 E0
M104 S215 ; set temperature
M73 P5 R5
G1 E-1 F1800
; printing object beer_crate_stackable_rim.stl id:0 copy 0
G1 X157.102 Y167.442 F30000
G1 E1 F1800
;TYPE:Internal perimeter
;WIDTH:0.38
G1 F4500
G1 X157.576 Y167.395 E0.0139
G1 X158.13 Y167.227 E0.01688
G1 X158.64 Y166.954 E0.01688
G1 X159.087 Y166.587 E0.01688
G1 X159.454 Y166.14 E0.01688
G1 X159.727 Y165.63 E0.01688
G1 X159.878 Y165.131 E0.0152
G1 X160.122 Y165.131 E0.00711
G1 X160.273 Y165.63 E0.0152
G1 X160.546 Y166.14 E0.01688
G1 X160.913 Y166.587 E0.01688
G1 X161.36 Y166.954 E0.01688
G1 X161.87 Y167.227 E0.01688
G1 X162.369 Y167.378 E0.0152
G1 X162.369 Y167.622 E0.00711
G1 X161.87 Y167.773 E0.0152
G1 X161.36 Y168.046 E0.01688
G1 X160.913 Y168.413 E0.01688
G1 X160.546 Y168.86 E0.01688
G1 X160.273 Y169.37 E0.01688
G1 X160.105 Y169.924 E0.01688
G1 X160.058 Y170.398 E0.0139
G1 X159.785 Y170.421 E0.008
G1 X159.712 Y170.149 E0.00821
G1 X159.421 Y169.525 E0.02009
G1 X159.026 Y168.961 E0.02009
G1 X158.539 Y168.474 E0.02009
G1 X157.975 Y168.079 E0.02009
G1 X157.351 Y167.788 E0.02009
G1 X157.079 Y167.715 E0.00821
G1 X157.102 Y167.442 E0.008
G1 E-1 F1800
G1 X169.942 Y170.398 F30000
G1 E1 F1800
G1 F4500
G1 X169.895 Y169.924 E0.0139
G1 X169.727 Y169.37 E0.01688
G1 X169.454 Y168.86 E0.01688
G1 X169.087 Y168.413 E0.01688
G1 X168.64 Y168.046 E0.01688
G1 X168.13 Y167.773 E0.01688
G1 X167.631 Y167.622 E0.0152
G1 X167.631 Y167.378 E0.00711
G1 X168.13 Y167.227 E0.0152
G1 X168.64 Y166.954 E0.01688
G1 X169.087 Y166.587 E0.01688
G1 X169.454 Y166.14 E0.01688
G1 X169.727 Y165.63 E0.01688
G1 X169.878 Y165.131 E0.0152
G1 X170.122 Y165.131 E0.00711
G1 X170.273 Y165.63 E0.0152
G1 X170.546 Y166.14 E0.01688
G1 X170.913 Y166.587 E0.01688
G1 X171.36 Y166.954 E0.01688
G1 X171.87 Y167.227 E0.01688
G1 X172.424 Y167.395 E0.01688
G1 X172.898 Y167.442 E0.0139
G1 X172.921 Y167.715 E0.008
G1 X172.649 Y167.788 E0.00821
G1 X172.025 Y168.079 E0.02009
G1 X171.461 Y168.474 E0.02009
G1 X170.974 Y168.961 E0.02009
G1 X170.579 Y169.525 E0.02009
G1 X170.288 Y170.149 E0.02009
G1 X170.215 Y170.421 E0.00821
G1 X169.942 Y170.398 E0.008
G1 E-1 F1800
G1 X170.124 Y159.862 F30000
G1 E1 F1800
G1 F4500
G1 X170.122 Y159.869 E0.00021
G1 X169.878 Y159.869 E0.00711
G1 X169.727 Y159.37 E0.0152
G1 X169.454 Y158.86 E0.01688
G1 X169.087 Y158.413 E0.01688
G1 X168.64 Y158.046 E0.01688
G1 X168.13 Y157.773 E0.01688
G1 X167.631 Y157.622 E0.0152
G1 X167.631 Y157.378 E0.00711
G1 X168.13 Y157.227 E0.0152
G1 X168.64 Y156.954 E0.01688
G1 X169.087 Y156.587 E0.01688
G1 X169.454 Y156.14 E0.01688
G1 X169.727 Y155.63 E0.01688
G1 X169.895 Y155.076 E0.01688
G1 X169.942 Y154.602 E0.0139
G1 X170.215 Y154.579 E0.008
G1 X170.288 Y154.851 E0.00821
G1 X170.579 Y155.475 E0.02009
G1 X170.974 Y156.039 E0.02009
G1 X171.461 Y156.526 E0.02009
G1 X172.025 Y156.921 E0.02009
G1 X172.649 Y157.212 E0.02009
G1 X172.921 Y157.285 E0.00821
G1 X172.898 Y157.558 E0.008
G1 X172.424 Y157.605 E0.0139
G1 X171.87 Y157.773 E0.01688
G1 X171.36 Y158.046 E0.01688
G1 X170.913 Y158.413 E0.01688
G1 X170.546 Y158.86 E0.01688
G1 X170.273 Y159.37 E0.01688
G1 X170.124 Y159.862 E0.01499
G1 E-1 F1800
G1 X160.058 Y154.602 F30000
G1 E1 F1800
G1 F4500
G1 X160.105 Y155.076 E0.0139
G1 X160.273 Y155.63 E0.01688
G1 X160.546 Y156.14 E0.01688
G1 X160.913 Y156.587 E0.01688
G1 X161.36 Y156.954 E0.01688
G1 X161.87 Y157.227 E0.01688
G1 X162.369 Y157.378 E0.0152
G1 X162.369 Y157.622 E0.00711
G1 X161.87 Y157.773 E0.0152
M73 P6 R5
G1 X161.36 Y158.046 E0.01688
G1 X160.913 Y158.413 E0.01688
G1 X160.546 Y158.86 E0.01688
G1 X160.273 Y159.37 E0.01688
G1 X160.122 Y159.869 E0.0152
G1 X159.878 Y159.869 E0.00711
G1 X159.727 Y159.37 E0.0152
G1 X159.454 Y158.86 E0.01688
G1 X159.087 Y158.413 E0.01688
G1 X158.64 Y158.046 E0.01688
G1 X158.13 Y157.773 E0.01688
G1 X157.576 Y157.605 E0.01688
G1 X157.102 Y157.558 E0.0139
G1 X157.079 Y157.285 E0.008
G1 X157.351 Y157.212 E0.00821
G1 X157.975 Y156.921 E0.02009
G1 X158.539 Y156.526 E0.02009
G1 X159.026 Y156.039 E0.02009
G1 X159.421 Y155.475 E0.02009
G1 X159.712 Y154.851 E0.02009
G1 X159.785 Y154.579 E0.00821
G1 X160.058 Y154.602 E0.008
G1 E-1 F1800
G1 X157.915 Y167.635 F30000
G1 E1 F1800
G1 F4500
G1 X158.256 Y167.532 E0.0104
G1 X158.823 Y167.229 E0.01877
G1 X159.32 Y166.82 E0.01877
G1 X159.729 Y166.323 E0.01877
G1 X160 Y165.815 E0.0168
G1 X160.271 Y166.323 E0.0168
G1 X160.68 Y166.82 E0.01877
G1 X161.177 Y167.229 E0.01877
G1 X161.685 Y167.5 E0.0168
G1 X161.177 Y167.771 E0.0168
G1 X160.68 Y168.18 E0.01877
G1 X160.271 Y168.677 E0.01877
G1 X159.968 Y169.244 E0.01877
G1 X159.865 Y169.585 E0.0104
G1 X159.279 Y168.749 E0.02979
G1 X158.751 Y168.221 E0.02177
G1 X157.915 Y167.635 E0.02979
G1 E-1 F1800
G1 X170.135 Y169.585 F30000
G1 E1 F1800
G1 F4500
G1 X170.032 Y169.244 E0.0104
G1 X169.729 Y168.677 E0.01877
G1 X169.32 Y168.18 E0.01877
G1 X168.823 Y167.771 E0.01877
G1 X168.315 Y167.5 E0.0168
G1 X168.823 Y167.229 E0.0168
G1 X169.32 Y166.82 E0.01877
G1 X169.729 Y166.323 E0.01877
G1 X170 Y165.815 E0.0168
G1 X170.271 Y166.323 E0.0168
G1 X170.68 Y166.82 E0.01877
G1 X171.177 Y167.229 E0.01877
G1 X171.744 Y167.532 E0.01877
G1 X172.085 Y167.635 E0.0104
G1 X171.249 Y168.221 E0.02979
G1 X170.721 Y168.749 E0.02177
G1 X170.135 Y169.585 E0.02979
G1 E-1 F1800
G1 X170 Y159.185 F30000
G1 E1 F1800
G1 F4500
G1 X169.729 Y158.677 E0.0168
G1 X169.32 Y158.18 E0.01877
G1 X168.823 Y157.771 E0.01877
G1 X168.315 Y157.5 E0.0168
G1 X168.823 Y157.229 E0.0168
G1 X169.32 Y156.82 E0.01877
G1 X169.729 Y156.323 E0.01877
G1 X170.032 Y155.756 E0.01877
G1 X170.135 Y155.415 E0.0104
G1 X170.721 Y156.251 E0.02979
G1 X171.249 Y156.779 E0.02177
G1 X172.085 Y157.365 E0.02979
G1 X171.744 Y157.468 E0.0104
G1 X171.177 Y157.771 E0.01877
G1 X170.68 Y158.18 E0.01877
G1 X170.271 Y158.677 E0.01877
G1 X170 Y159.185 E0.0168
G1 E-1 F1800
G1 X159.865 Y155.415 F30000
G1 E1 F1800
G1 F4500
G1 X159.968 Y155.756 E0.0104
G1 X160.271 Y156.323 E0.01877
G1 X160.68 Y156.82 E0.01877
G1 X161.177 Y157.229 E0.01877
G1 X161.685 Y157.5 E0.0168
G1 X161.177 Y157.771 E0.0168
G1 X160.68 Y158.18 E0.01877
G1 X160.271 Y158.677 E0.01877
G1 X160 Y159.185 E0.0168
G1 X159.729 Y158.677 E0.0168
G1 X159.32 Y158.18 E0.01877
G1 X158.823 Y157.771 E0.01877
G1 X158.256 Y157.468 E0.01877
G1 X157.915 Y157.365 E0.0104
G1 X158.751 Y156.779 E0.02979
G1 X159.279 Y156.251 E0.02177
G1 X159.865 Y155.415 E0.02979
G1 E-1 F1800
G1 X168.91 Y137.843 F30000
G1 E1 F1800
G1 F4500
G1 X168.823 Y137.771 E0.00328
G1 X168.256 Y137.468 E0.01877
G1 X167.64 Y137.281 E0.01877
G1 X167.063 Y137.225 E0.01693
G1 X162.937 Y137.225 E0.12034
G1 X162.36 Y137.281 E0.01693
G1 X161.744 Y137.468 E0.01877
G1 X161.177 Y137.771 E0.01877
G1 X160.68 Y138.18 E0.01877
G1 X160.271 Y138.677 E0.01877
G1 X159.968 Y139.244 E0.01877
G1 X159.781 Y139.86 E0.01877
G1 X159.725 Y140.437 E0.01693
G1 X159.725 Y140.984 E0.01596
G1 X159.495 Y141.057 E0.00703
G1 X159.279 Y140.749 E0.01098
G1 X158.751 Y140.221 E0.02177
G1 X158.14 Y139.793 E0.02177
G1 X157.464 Y139.478 E0.02177
G1 X156.743 Y139.285 E0.02177
G1 X156.056 Y139.225 E0.02013
G1 X138.944 Y139.225 E0.49917
G1 X138.257 Y139.285 E0.02013
G1 X137.536 Y139.478 E0.02177
G1 X136.86 Y139.793 E0.02177
G1 X136.249 Y140.221 E0.02177
G1 X135.721 Y140.749 E0.02177
G1 X135.293 Y141.36 E0.02177
G1 X134.978 Y142.036 E0.02177
G1 X134.785 Y142.757 E0.02177
G1 X134.725 Y143.444 E0.02013
G1 X134.725 Y153.556 E0.29497
G1 X134.785 Y154.243 E0.02013
G1 X134.978 Y154.964 E0.02177
G1 X135.293 Y155.64 E0.02177
G1 X135.721 Y156.251 E0.02177
G1 X136.249 Y156.779 E0.02177
G1 X136.557 Y156.995 E0.01098
G1 X136.484 Y157.225 E0.00703
G1 X135.937 Y157.225 E0.01596
G1 X135.36 Y157.281 E0.01693
G1 X134.744 Y157.468 E0.01877
G1 X134.177 Y157.771 E0.01877
G1 X133.68 Y158.18 E0.01877
G1 X133.271 Y158.677 E0.01877
G1 X132.968 Y159.244 E0.01877
G1 X132.781 Y159.86 E0.01877
G1 X132.725 Y160.437 E0.01693
G1 X132.725 Y164.563 E0.12034
G1 X132.781 Y165.14 E0.01693
G1 X132.968 Y165.756 E0.01877
G1 X133.271 Y166.323 E0.01877
G1 X133.68 Y166.82 E0.01877
G1 X134.177 Y167.229 E0.01877
G1 X134.744 Y167.532 E0.01877
G1 X135.36 Y167.719 E0.01877
G1 X135.937 Y167.775 E0.01693
G1 X136.484 Y167.775 E0.01596
G1 X136.557 Y168.005 E0.00703
G1 X136.249 Y168.221 E0.01098
G1 X135.721 Y168.749 E0.02177
G1 X135.293 Y169.36 E0.02177
G1 X134.978 Y170.036 E0.02177
G1 X134.785 Y170.757 E0.02177
G1 X134.725 Y171.444 E0.02013
G1 X134.725 Y181.556 E0.29497
G1 X134.785 Y182.243 E0.02013
G1 X134.978 Y182.964 E0.02177
G1 X135.293 Y183.64 E0.02177
G1 X135.721 Y184.251 E0.02177
G1 X136.249 Y184.779 E0.02177
G1 X136.86 Y185.207 E0.02177
G1 X137.536 Y185.522 E0.02177
G1 X138.257 Y185.715 E0.02177
G1 X138.944 Y185.775 E0.02013
G1 X156.056 Y185.775 E0.49917
G1 X156.743 Y185.715 E0.02013
G1 X157.464 Y185.522 E0.02177
G1 X158.14 Y185.207 E0.02177
G1 X158.751 Y184.779 E0.02177
G1 X159.279 Y184.251 E0.02177
G1 X159.495 Y183.943 E0.01098
G1 X159.725 Y184.016 E0.00703
G1 X159.725 Y184.563 E0.01596
G1 X159.781 Y185.14 E0.01693
G1 X159.968 Y185.756 E0.01877
G1 X160.271 Y186.323 E0.01877
G1 X160.68 Y186.82 E0.01877
G1 X161.177 Y187.229 E0.01877
G1 X161.744 Y187.532 E0.01877
G1 X162.36 Y187.719 E0.01877
G1 X162.937 Y187.775 E0.01693
G1 X167.063 Y187.775 E0.12034
G1 X167.64 Y187.719 E0.01693
G1 X168.256 Y187.532 E0.01877
G1 X168.823 Y187.229 E0.01877
G1 X169.32 Y186.82 E0.01877
G1 X169.729 Y186.323 E0.01877
G1 X170.032 Y185.756 E0.01877
G1 X170.219 Y185.14 E0.01877
G1 X170.275 Y184.563 E0.01693
G1 X170.275 Y184.016 E0.01596
G1 X170.505 Y183.943 E0.00703
G1 X170.721 Y184.251 E0.01098
G1 X171.249 Y184.779 E0.02177
G1 X171.86 Y185.207 E0.02177
G1 X172.536 Y185.522 E0.02177
G1 X173.257 Y185.715 E0.02177
M73 P7 R5
G1 X173.944 Y185.775 E0.02013
G1 X191.056 Y185.775 E0.49917
G1 X191.743 Y185.715 E0.02013
G1 X192.464 Y185.522 E0.02177
G1 X193.14 Y185.207 E0.02177
G1 X193.751 Y184.779 E0.02177
G1 X194.279 Y184.251 E0.02177
G1 X194.707 Y183.64 E0.02177
G1 X195.022 Y182.964 E0.02177
G1 X195.215 Y182.243 E0.02177
G1 X195.275 Y181.556 E0.02013
G1 X195.275 Y171.444 E0.29497
G1 X195.215 Y170.757 E0.02013
G1 X195.022 Y170.036 E0.02177
G1 X194.707 Y169.36 E0.02177
G1 X194.279 Y168.749 E0.02177
G1 X193.751 Y168.221 E0.02177
G1 X193.443 Y168.005 E0.01098
G1 X193.516 Y167.775 E0.00703
G1 X194.063 Y167.775 E0.01596
G1 X194.64 Y167.719 E0.01693
G1 X195.256 Y167.532 E0.01877
G1 X195.823 Y167.229 E0.01877
G1 X196.32 Y166.82 E0.01877
G1 X196.729 Y166.323 E0.01877
G1 X197.032 Y165.756 E0.01877
G1 X197.219 Y165.14 E0.01877
G1 X197.275 Y164.563 E0.01693
G1 X197.275 Y160.437 E0.12034
G1 X197.219 Y159.86 E0.01693
G1 X197.032 Y159.244 E0.01877
G1 X196.729 Y158.677 E0.01877
G1 X196.32 Y158.18 E0.01877
G1 X195.823 Y157.771 E0.01877
G1 X195.256 Y157.468 E0.01877
G1 X194.64 Y157.281 E0.01877
G1 X194.063 Y157.225 E0.01693
G1 X193.516 Y157.225 E0.01596
G1 X193.443 Y156.995 E0.00703
G1 X193.751 Y156.779 E0.01098
G1 X194.279 Y156.251 E0.02177
G1 X194.707 Y155.64 E0.02177
G1 X195.022 Y154.964 E0.02177
G1 X195.215 Y154.243 E0.02177
G1 X195.275 Y153.556 E0.02013
G1 X195.275 Y143.444 E0.29497
G1 X195.215 Y142.757 E0.02013
G1 X195.022 Y142.036 E0.02177
G1 X194.707 Y141.36 E0.02177
G1 X194.279 Y140.749 E0.02177
G1 X193.751 Y140.221 E0.02177
G1 X193.14 Y139.793 E0.02177
G1 X192.464 Y139.478 E0.02177
G1 X191.743 Y139.285 E0.02177
G1 X191.056 Y139.225 E0.02013
G1 X173.944 Y139.225 E0.49917
G1 X173.257 Y139.285 E0.02013
G1 X172.536 Y139.478 E0.02177
G1 X171.86 Y139.793 E0.02177
G1 X171.249 Y140.221 E0.02177
G1 X170.721 Y140.749 E0.02177
G1 X170.505 Y141.057 E0.01098
G1 X170.275 Y140.984 E0.00703
G1 X170.275 Y140.437 E0.01596
G1 X170.219 Y139.86 E0.01693
G1 X170.032 Y139.244 E0.01877
G1 X169.729 Y138.677 E0.01877
G1 X169.32 Y138.18 E0.01877
G1 X168.91 Y137.843 E0.01549
G1 X168.702 Y138.097 F30000
G1 F4500
G1 X168.64 Y138.046 E0.00234
G1 X168.13 Y137.773 E0.01688
G1 X167.576 Y137.605 E0.01688
G1 X167.047 Y137.553 E0.01552
G1 X162.953 Y137.553 E0.1194
G1 X162.424 Y137.605 E0.01552
G1 X161.87 Y137.773 E0.01688
G1 X161.36 Y138.046 E0.01688
G1 X160.913 Y138.413 E0.01688
G1 X160.546 Y138.86 E0.01688
G1 X160.273 Y139.37 E0.01688
G1 X160.105 Y139.924 E0.01688
G1 X160.053 Y140.453 E0.01552
G1 X160.053 Y142.317 E0.05435
G1 X159.767 Y142.354 E0.0084
G1 X159.712 Y142.149 E0.0062
G1 X159.421 Y141.525 E0.02009
G1 X159.026 Y140.961 E0.02009
G1 X158.539 Y140.474 E0.02009
G1 X157.975 Y140.079 E0.02009
G1 X157.351 Y139.788 E0.02009
G1 X156.686 Y139.609 E0.02009
G1 X156.041 Y139.553 E0.01888
G1 X138.959 Y139.553 E0.49833
G1 X138.314 Y139.609 E0.01888
G1 X137.649 Y139.788 E0.02009
G1 X137.025 Y140.079 E0.02009
G1 X136.461 Y140.474 E0.02009
G1 X135.974 Y140.961 E0.02009
G1 X135.579 Y141.525 E0.02009
G1 X135.288 Y142.149 E0.02009
G1 X135.109 Y142.814 E0.02009
G1 X135.053 Y143.459 E0.01888
G1 X135.053 Y153.541 E0.29413
G1 X135.109 Y154.186 E0.01888
G1 X135.288 Y154.851 E0.02009
G1 X135.579 Y155.475 E0.02009
G1 X135.974 Y156.039 E0.02009
G1 X136.461 Y156.526 E0.02009
G1 X137.025 Y156.921 E0.02009
G1 X137.649 Y157.212 E0.02009
G1 X137.854 Y157.267 E0.0062
G1 X137.817 Y157.553 E0.0084
G1 X135.953 Y157.553 E0.05435
G1 X135.424 Y157.605 E0.01552
G1 X134.87 Y157.773 E0.01688
G1 X134.36 Y158.046 E0.01688
G1 X133.913 Y158.413 E0.01688
G1 X133.546 Y158.86 E0.01688
G1 X133.273 Y159.37 E0.01688
G1 X133.105 Y159.924 E0.01688
G1 X133.053 Y160.453 E0.01552
G1 X133.053 Y164.547 E0.1194
G1 X133.105 Y165.076 E0.01552
G1 X133.273 Y165.63 E0.01688
G1 X133.546 Y166.14 E0.01688
G1 X133.913 Y166.587 E0.01688
G1 X134.36 Y166.954 E0.01688
G1 X134.87 Y167.227 E0.01688
G1 X135.424 Y167.395 E0.01688
G1 X135.953 Y167.447 E0.01552
G1 X137.817 Y167.447 E0.05435
G1 X137.854 Y167.733 E0.0084
G1 X137.649 Y167.788 E0.0062
G1 X137.025 Y168.079 E0.02009
G1 X136.461 Y168.474 E0.02009
G1 X135.974 Y168.961 E0.02009
G1 X135.579 Y169.525 E0.02009
G1 X135.288 Y170.149 E0.02009
G1 X135.109 Y170.814 E0.02009
G1 X135.053 Y171.459 E0.01888
G1 X135.053 Y181.541 E0.29413
G1 X135.109 Y182.186 E0.01888
G1 X135.288 Y182.851 E0.02009
G1 X135.579 Y183.475 E0.02009
G1 X135.974 Y184.039 E0.02009
G1 X136.461 Y184.526 E0.02009
G1 X137.025 Y184.921 E0.02009
G1 X137.649 Y185.212 E0.02009
G1 X138.314 Y185.391 E0.02009
G1 X138.959 Y185.447 E0.01888
G1 X156.041 Y185.447 E0.49833
G1 X156.686 Y185.391 E0.01888
G1 X157.351 Y185.212 E0.02009
G1 X157.975 Y184.921 E0.02009
G1 X158.539 Y184.526 E0.02009
G1 X159.026 Y184.039 E0.02009
G1 X159.421 Y183.475 E0.02009
G1 X159.712 Y182.851 E0.02009
G1 X159.767 Y182.646 E0.0062
G1 X160.053 Y182.683 E0.0084
G1 X160.053 Y184.547 E0.05435
G1 X160.105 Y185.076 E0.01552
G1 X160.273 Y185.63 E0.01688
G1 X160.546 Y186.14 E0.01688
G1 X160.913 Y186.587 E0.01688
G1 X161.36 Y186.954 E0.01688
G1 X161.87 Y187.227 E0.01688
G1 X162.424 Y187.395 E0.01688
G1 X162.953 Y187.447 E0.01552
G1 X167.047 Y187.447 E0.1194
G1 X167.576 Y187.395 E0.01552
G1 X168.13 Y187.227 E0.01688
