; generated by SuperSlicer 2.4 on 2022-11-11 at 08:51:32 UTC


;
;

;
;
; 

; external perimeters extrusion width = 0.45mm
; perimeters extrusion width = 0.45mm
; infill extrusion width = 0.45mm
; solid infill extrusion width = 0.48mm
; top infill extrusion width = 0.40mm
; support material extrusion width = 0.45mm
; first layer extrusion width = 0.38mm

; object:{"name":"cpap_hose_to_duct_2","id":"cpap_hose_to_duct_2.4_15mm.stl id:0 copy 0","object_center":[162.076996,180.974831,0.000000],"boundingbox_center":[162.076996,180.974831,27.253721],"boundingbox_size":[43.992702,26.272156,54.507442]}
; plater:{"center":[162.076996,180.974831,0.000000],"boundingbox_center":[162.076996,180.974831,27.253721],"boundingbox_size":[43.992702,26.272156,54.507442]}

M204 P6000 T7000 ; sets acceleration (P, T), mm/sec^2
;TYPE:Custom
; custom gcode: start_gcode
PRINT_START EXTRUDER_TEMP=235 BED_TEMP=65
; custom gcode end: start_gcode
M107
G21 ; set units to millimeters
G90 ; use absolute coordinates
M82 ; use absolute distances for extrusion
G92 E0
; custom gcode: start_filament_gcode
; Filament gcode
;SET_PRESSURE_ADVANCE ADVANCE=0.025
; custom gcode end: start_filament_gcode
;_TOOLCHANGE 0
M104 S235 ; set temperature
M109 S235 ; set temperature and wait for it to be reached
M190 S65 ; set bed temperature and wait for it to be reached
;LAYER_CHANGE
;Z:0.24
;HEIGHT:0.24
; custom gcode: before_layer_gcode
;BEFORE_LAYER_CHANGE
;0.24
; custom gcode end: before_layer_gcode

G1 E-1.2 F7200
G1 Z0.24 F30000
; custom gcode: layer_gcode
;AFTER_LAYER_CHANGE
;0.24
; custom gcode end: layer_gcode

G92 E0
; printing object cpap_hose_to_duct_2.4_15mm.stl id:0 copy 0
G1 X152.5 Y171.453
G1 E1.2 F3600
;TYPE:Support material interface
;WIDTH:0.38
G1 F4500
G1 X154.619 Y171.453 E1.26529
G1 X154.756 Y171.6 E1.27148
G1 X155.075 Y171.943 E1.28591
G1 X155.385 Y172.276 E1.29996
G1 X155.67 Y172.608 E1.31343
G1 X156.264 Y173.299 E1.34149
G1 X157.314 Y174.464 E1.38983
G1 X157.334 Y174.486 E1.39073
G1 X157.602 Y174.758 E1.40249
G1 X158.115 Y175.278 E1.425
G1 X158.254 Y175.402 E1.43075
G1 X158.436 Y175.562 E1.43822
G1 X158.503 Y175.62 E1.44094
G1 X158.743 Y175.831 E1.45078
G1 X158.765 Y175.849 E1.45167
G1 X159.126 Y176.115 E1.46549
G1 X159.309 Y176.25 E1.47249
G1 X159.492 Y176.384 E1.47949
G1 X159.528 Y176.407 E1.4808
G1 X159.907 Y176.618 E1.49416
G1 X160.283 Y176.826 E1.5074
G1 X160.313 Y176.841 E1.50842
G1 X160.642 Y176.982 E1.51946
G1 X160.673 Y176.994 E1.52048
G1 X160.999 Y177.097 E1.53101
G1 X161.023 Y177.104 E1.53179
G1 X161.218 Y177.149 E1.53794
G1 X161.347 Y177.179 E1.54204
G1 X161.375 Y177.185 E1.54292
G1 X161.702 Y177.232 E1.55308
G1 X161.733 Y177.235 E1.55405
G1 X161.856 Y177.241 E1.55784
G1 X162.061 Y177.251 E1.56416
G1 X162.094 Y177.251 E1.56518
G1 X162.363 Y177.237 E1.57347
G1 X162.43 Y177.234 E1.57554
G1 X162.462 Y177.231 E1.57653
G1 X162.801 Y177.181 E1.58711
G1 X162.843 Y177.172 E1.58841
G1 X162.93 Y177.147 E1.59122
G1 X163.169 Y177.08 E1.59886
G1 X163.498 Y176.988 E1.60939
G1 X163.543 Y176.971 E1.61086
G1 X163.883 Y176.821 E1.62231
G1 X163.908 Y176.808 E1.62318
G1 X164.231 Y176.631 E1.63452
G1 X164.332 Y176.575 E1.63809
G1 X164.558 Y176.452 E1.64601
G1 X164.591 Y176.43 E1.64724
G1 X164.92 Y176.195 E1.6597
G1 X165.031 Y176.115 E1.6639
G1 X165.245 Y175.962 E1.67201
G1 X165.268 Y175.944 E1.67292
G1 X165.643 Y175.62 E1.68819
G1 X166.017 Y175.299 E1.70337
G1 X166.308 Y175.014 E1.71592
G1 X166.592 Y174.735 E1.72818
G1 X166.624 Y174.701 E1.72963
G1 X166.843 Y174.465 E1.73955
G1 X167.096 Y174.191 E1.75104
G1 X167.293 Y173.947 E1.76071
G1 X167.571 Y173.665 E1.77288
G1 X167.596 Y173.637 E1.77406
G1 X167.637 Y173.584 E1.77611
G1 X167.843 Y173.321 E1.78641
G1 X167.873 Y173.29 E1.78773
G1 X168.033 Y173.128 E1.79475
G1 X168.052 Y173.106 E1.79567
G1 X168.232 Y172.887 E1.80438
G1 X168.382 Y172.704 E1.81167
G1 X168.501 Y172.587 E1.81681
G1 X168.535 Y172.547 E1.81843
G1 X168.667 Y172.369 E1.82526
G1 X168.99 Y172.038 E1.8395
G1 X169.012 Y172.013 E1.84056
G1 X169.209 Y171.764 E1.85031
G1 X169.304 Y171.678 E1.85427
G1 X169.484 Y171.514 E1.86176
G1 X169.545 Y171.453 E1.86443
G1 X171.654 Y171.453 E1.92943
G1 X165.638 Y177.47 E2.1916
G1 X165.281 Y177.114 E2.20711
G1 X164.925 Y176.758 E2.22263
G1 X162.789 Y178.894 E2.31571
G1 X162.077 Y178.182 E2.34674
G1 X161.365 Y178.894 E2.37777
G1 X159.229 Y176.758 E2.47086
G1 X158.872 Y177.114 E2.48637
G1 X158.516 Y177.47 E2.50189
G1 X152.542 Y171.495 E2.76221
G92 E0
;WIPE_START
G1 F24000
G1 X154.619 Y171.453 E-0.59197
G1 X154.756 Y171.6 E-0.64924
G1 X155.075 Y171.943 E-0.78271
G1 X155.385 Y172.276 E-0.91265
G1 X155.67 Y172.608 E-1.03727
G1 X155.905 Y172.882 E-1.14
;WIPE_END
G1 E-1.2 F7200
G1 X171.141 Y171.85 F30000
G1 E0 F3600
G1 F4500
G1 X169.447 Y171.85 E0.05221
G1 X169.373 Y171.917 E0.05529
G1 X169.184 Y172.156 E0.06467
G1 X169.129 Y172.215 E0.06714
G1 X170.577 Y172.215 E0.11173
G1 X170.212 Y172.58 E0.12763
G1 X168.789 Y172.58 E0.17146
G1 X168.71 Y172.687 E0.17557
G1 X168.663 Y172.74 E0.17774
G1 X168.547 Y172.855 E0.18278
G1 X168.473 Y172.945 E0.18636
G1 X169.847 Y172.945 E0.22868
G1 X169.482 Y173.31 E0.24459
G1 X168.167 Y173.31 E0.28509
G1 X168.032 Y173.447 E0.29101
G1 X168.011 Y173.469 E0.29194
G1 X167.85 Y173.675 E0.30002
G1 X169.117 Y173.675 E0.33905
G1 X168.752 Y174.04 E0.35496
G1 X167.515 Y174.04 E0.39306
G1 X167.46 Y174.095 E0.39545
G1 X167.284 Y174.315 E0.40414
G1 X167.263 Y174.34 E0.40514
G1 X167.203 Y174.405 E0.40787
G1 X168.387 Y174.405 E0.44434
G1 X168.022 Y174.77 E0.46024
G1 X166.864 Y174.77 E0.4959
G1 X166.787 Y174.853 E0.49937
G1 X166.739 Y174.904 E0.50154
G1 X166.504 Y175.135 E0.5117
G1 X167.657 Y175.135 E0.54722
G1 X167.292 Y175.5 E0.56312
G1 X166.126 Y175.5 E0.59903
G1 X165.789 Y175.79 E0.61272
G1 X165.702 Y175.865 E0.61628
G1 X166.927 Y175.865 E0.65401
G1 X166.562 Y176.23 E0.66992
G1 X165.012 Y176.23 E0.71767
G92 E0
;WIPE_START
G1 F24000
G1 X166.562 Y176.23 E-0.44174
G1 X166.927 Y175.865 E-0.58885
G1 X165.702 Y175.865 E-0.93793
G1 X165.789 Y175.79 E-0.97077
G1 X166.126 Y175.5 E-1.09746
G1 X166.275 Y175.5 E-1.14
;WIPE_END
G1 E-1.2 F7200
G1 X154.876 Y171.85 F30000
G1 E0 F3600
G1 F4500
G1 X153.212 Y171.85 E0.05126
G1 X153.577 Y172.215 E0.06716
G1 X155.023 Y172.215 E0.1117
G1 X155.219 Y172.425 E0.12056
G1 X155.352 Y172.58 E0.12683
G1 X153.942 Y172.58 E0.17025
G1 X154.307 Y172.945 E0.18615
G1 X155.665 Y172.945 E0.22797
G1 X155.978 Y173.31 E0.2428
G1 X154.672 Y173.31 E0.28303
G1 X155.037 Y173.675 E0.29893
G1 X156.302 Y173.675 E0.33788
G1 X156.631 Y174.04 E0.35302
G1 X155.402 Y174.04 E0.39086
G1 X155.767 Y174.405 E0.40676
G1 X156.96 Y174.405 E0.44349
G1 X157.148 Y174.614 E0.45217
G1 X157.169 Y174.638 E0.45315
G1 X157.299 Y174.77 E0.45886
G1 X156.132 Y174.77 E0.49481
G1 X156.497 Y175.135 E0.51071
G1 X157.659 Y175.135 E0.54652
G1 X157.958 Y175.438 E0.55963
G1 X158.027 Y175.5 E0.56249
G1 X156.862 Y175.5 E0.59838
G1 X157.227 Y175.865 E0.61428
G1 X158.442 Y175.865 E0.65172
G1 X158.599 Y176.002 E0.65813
G1 X158.629 Y176.026 E0.65932
G1 X158.905 Y176.23 E0.66989
G1 X157.592 Y176.23 E0.71034
G1 X157.957 Y176.595 E0.72625
G1 X159.407 Y176.595 E0.7709
G1 X159.799 Y176.813 E0.78473
G1 X160.064 Y176.96 E0.79406
G1 X159.747 Y176.96 E0.80384
G1 X160.112 Y177.325 E0.81974
G1 X160.989 Y177.325 E0.84677
G1 X161.167 Y177.367 E0.8524
G1 X161.301 Y177.398 E0.85665
G1 X161.339 Y177.405 E0.85783
G1 X161.675 Y177.454 E0.86829
G1 X161.717 Y177.458 E0.86959
G1 X161.845 Y177.464 E0.87354
G1 X162.055 Y177.474 E0.88004
G1 X162.1 Y177.474 E0.8814
G1 X162.374 Y177.461 E0.88986
G1 X162.446 Y177.457 E0.8921
G1 X162.489 Y177.453 E0.89342
G1 X162.841 Y177.401 E0.90438
G1 X162.896 Y177.389 E0.90612
G1 X162.991 Y177.362 E0.90914
G1 X163.123 Y177.325 E0.91339
G1 X164.042 Y177.325 E0.94171
G1 X163.677 Y177.69 E0.95761
G1 X160.477 Y177.69 E1.05623
G1 X160.842 Y178.055 E1.07213
G1 X163.312 Y178.055 E1.14826
G1 X162.947 Y178.42 E1.16416
G1 X162.431 Y178.42 E1.18007
G92 E0
;WIPE_START
G1 F24000
G1 X162.947 Y178.42 E-0.14715
G1 X163.312 Y178.055 E-0.29426
G1 X160.842 Y178.055 E-0.99844
G1 X160.49 Y177.704 E-1.14
;WIPE_END
G1 E-1.2 F7200
G1 X166.396 Y176.595 F30000
G1 E0 F3600
G1 F4500
G1 X164.745 Y176.595 E0.05088
G1 X164.671 Y176.644 E0.05362
G1 X164.44 Y176.771 E0.06175
G1 X164.338 Y176.827 E0.06532
G1 X164.096 Y176.96 E0.07384
G1 X164.607 Y176.96 E0.08959
G92 E0
;WIPE_START
G1 F24000
G1 X164.096 Y176.96 E-0.14576
G1 X164.338 Y176.827 E-0.22453
G1 X164.44 Y176.771 E-0.25758
G1 X164.671 Y176.644 E-0.33275
G1 X164.745 Y176.595 E-0.35814
G1 X166.396 Y176.595 E-0.82875
;WIPE_END
G1 E-1.2 F7200
G1 X166.031 Y176.96 F30000
G1 E0 F3600
G1 F4500
G1 X165.244 Y176.96 E0.02427
G92 E0
;WIPE_START
G1 F24000
G1 X166.031 Y176.96 E-0.22447
;WIPE_END
G1 E-1.2 F7200
G1 X158.91 Y176.96 F30000
G1 E0 F3600
G1 F4500
G1 X158.123 Y176.96 E0.02427
G92 E0
;WIPE_START
G1 F24000
G1 X158.91 Y176.96 E-0.22447
;WIPE_END
G1 E-1.2 F7200
G1 X161.723 Y178.42 F30000
G1 E0 F3600
G1 F4500
G1 X161.007 Y178.42 E0.02206
G92 E0
;WIPE_START
G1 F24000
G1 X161.723 Y178.42 E-0.20409
;WIPE_END
G1 E-1.2 F7200
G1 X143.24 Y171.383 F30000
G1 E0 F3600
G1 F4500
G1 X142.85 Y171.773 E0.01699
G1 X142.082 Y171.005 E0.05044
G1 X142.794 Y170.293 E0.08147
G1 X142.082 Y169.581 E0.11249
G1 X142.557 Y169.106 E0.13318
G1 X142.794 Y168.869 E0.14352
G1 X142.082 Y168.157 E0.17455
G1 X142.921 Y167.318 E0.21108
G1 X142.921 Y171.064 E0.32648
G1 X143.197 Y171.341 E0.33854
G1 X142.838 Y170.755 F30000
G1 F4500
G1 X142.648 Y170.755 E0.34439
G1 X142.398 Y171.005 E0.3553
G1 X142.513 Y171.12 E0.3603
G1 X142.861 Y171.12 E0.37101
G92 E0
;WIPE_START
G1 F24000
G1 X142.513 Y171.12 E-0.09907
G1 X142.398 Y171.005 E-0.14531
G1 X142.648 Y170.755 E-0.24618
G1 X142.838 Y170.755 E-0.30034
;WIPE_END
G1 E-1.2 F7200
G1 X142.838 Y169.295 F30000
G1 E0 F3600
G1 F4500
G1 X142.684 Y169.295 E0.00475
G1 X142.398 Y169.581 E0.01722
G1 X142.477 Y169.66 E0.02066
G1 X142.838 Y169.66 E0.03179
G92 E0
;WIPE_START
G1 F24000
G1 X142.477 Y169.66 E-0.10297
G1 X142.398 Y169.581 E-0.1348
G1 X142.684 Y169.295 E-0.25008
G1 X142.838 Y169.295 E-0.29405
;WIPE_END
G1 E-1.2 F7200
G1 X142.838 Y168.2 F30000
G1 E0 F3600
G1 F4500
G1 X142.242 Y168.2 E0.01839
G92 E0
;WIPE_START
G1 F24000
G1 X142.838 Y168.2 E-0.1701
;WIPE_END
G1 E-1.2 F7200
G1 X143.015 Y167.225 F30000
G1 E0 F3600
G1 F4500
G1 X143.562 Y166.677 E0.02386
G1 X143.781 Y166.896 E0.0334
G1 X144.11 Y167.225 E0.04772
G1 X143.075 Y167.225 E0.07961
G92 E0
;WIPE_START
G1 F24000
G1 X143.562 Y166.677 E-0.20894
G1 X143.781 Y166.896 E-0.29722
G1 X144.11 Y167.225 E-0.42963
G1 X143.075 Y167.225 E-0.72462
;WIPE_END
G1 E-1.2 F7200
G1 X180.914 Y171.383 F30000
G1 E0 F3600
G1 F4500
G1 X181.233 Y171.064 E0.01391
G1 X181.233 Y167.318 E0.12931
G1 X182.072 Y168.157 E0.16584
G1 X181.36 Y168.869 E0.19686
G1 X181.597 Y169.106 E0.20721
G1 X182.072 Y169.581 E0.22789
G1 X181.36 Y170.293 E0.25892
G1 X182.072 Y171.005 E0.28995
G1 X181.304 Y171.773 E0.3234
G1 X180.957 Y171.426 E0.33854
G92 E0
;WIPE_START
G1 F24000
G1 X181.233 Y171.064 E-0.12979
G1 X181.233 Y167.519 E-1.14
;WIPE_END
G1 E-1.2 F7200
G1 X181.705 Y170.755 F30000
G1 E0 F3600
G1 F4500
G1 X181.457 Y170.755 E0.00766
G1 X181.457 Y171.12 E0.0189
G1 X181.841 Y171.12 E0.03074
G92 E0
;WIPE_START
G1 F24000
G1 X181.457 Y171.12 E-0.10946
G1 X181.457 Y170.755 E-0.21348
G1 X181.705 Y170.755 E-0.28431
;WIPE_END
G1 E-1.2 F7200
G1 X181.67 Y169.295 F30000
G1 E0 F3600
G1 F4500
G1 X181.457 Y169.295 E0.00656
G1 X181.457 Y169.66 E0.0178
G1 X181.877 Y169.66 E0.03074
G92 E0
;WIPE_START
G1 F24000
G1 X181.457 Y169.66 E-0.11965
G1 X181.457 Y169.295 E-0.22367
G1 X181.67 Y169.295 E-0.28431
;WIPE_END
G1 E-1.2 F7200
G1 X181.912 Y168.2 F30000
G1 E0 F3600
G1 F4500
G1 X181.316 Y168.2 E0.01839
G1 X181.139 Y167.225 F30000
G1 F4500
G1 X180.044 Y167.225 E0.05213
G1 X180.373 Y166.896 E0.06644
G1 X180.592 Y166.677 E0.07599
G1 X181.097 Y167.182 E0.098
G92 E0
;WIPE_START
G1 F24000
G1 X180.044 Y167.225 E-0.30025
G1 X180.373 Y166.896 E-0.43266
G1 X180.592 Y166.677 E-0.52093
G1 X181.097 Y167.182 E-0.72452
;WIPE_END
G1 E-1.2 F7200
G1 X180.592 Y164.127 F30000
G1 E0 F3600
;TYPE:Support material
G1 F4500
G1 X182.016 Y162.703 E0.06206
G1 X187.47 Y168.157 E0.29969
G1 X186.758 Y168.869 E0.33072
G1 X187.47 Y169.581 E0.36174
G1 X182.304 Y174.747 E0.58683
G1 X181.592 Y174.035 E0.61786
G1 X181.061 Y174.566 E0.641
G1 X181.773 Y175.278 E0.67203
G1 X176.319 Y180.731 E0.90966
G1 X175.607 Y180.019 E0.94069
G1 X173.471 Y182.156 E1.03378
G1 X172.759 Y181.444 E1.06481
G1 X169.198 Y185.004 E1.21995
G1 X168.486 Y184.292 E1.25098
G1 X163.501 Y189.277 E1.46818
G1 X162.077 Y187.853 E1.53024
G1 X161.365 Y188.565 E1.56127
G1 X160.653 Y187.853 E1.5923
G1 X159.941 Y188.565 E1.62333
G1 X155.668 Y184.292 E1.8095
G1 X154.956 Y185.004 E1.84053
G1 X151.395 Y181.444 E1.99567
G1 X150.683 Y182.156 E2.0267
G1 X148.547 Y180.019 E2.11979
G1 X147.835 Y180.731 E2.15082
G1 X143.093 Y175.99 E2.35742
G1 X143.805 Y175.278 E2.38844
G1 X143.426 Y174.898 E2.40498
G1 X142.562 Y174.035 E2.44262
G1 X141.85 Y174.747 E2.47365
G1 X136.684 Y169.581 E2.69873
G1 X137.396 Y168.869 E2.72976
G1 X136.684 Y168.157 E2.76079
G1 X142.138 Y162.703 E2.99842
G1 X143.562 Y164.127 E3.06048
G1 X144.986 Y162.703 E3.12254
G1 X146.411 Y164.127 E3.18459
G1 X147.835 Y162.703 E3.24665
G1 X148.547 Y163.415 E3.27768
G1 X149.259 Y162.703 E3.30871
G1 X149.971 Y163.415 E3.33974
G1 X150.683 Y162.703 E3.37077
G1 X151.395 Y163.415 E3.40179
G1 X152.107 Y162.703 E3.43282
G1 X152.82 Y163.415 E3.46385
G1 X153.532 Y162.703 E3.49488
G1 X154.244 Y163.415 E3.52591
G1 X154.956 Y162.703 E3.55694
G1 X155.668 Y163.415 E3.58797
G1 X156.38 Y162.703 E3.619
G1 X157.092 Y163.415 E3.65003
G1 X157.804 Y162.703 E3.68105
G1 X158.516 Y163.415 E3.71208
G1 X159.229 Y162.703 E3.74311
G1 X159.941 Y163.415 E3.77414
G1 X160.653 Y162.703 E3.80517
G1 X161.365 Y163.415 E3.8362
G1 X162.077 Y162.703 E3.86723
G1 X162.789 Y163.415 E3.89826
G1 X163.501 Y162.703 E3.92928
G1 X164.213 Y163.415 E3.96031
G1 X164.925 Y162.703 E3.99134
G1 X165.638 Y163.415 E4.02237
G1 X166.35 Y162.703 E4.0534
G1 X167.062 Y163.415 E4.08443
G1 X167.774 Y162.703 E4.11546
G1 X168.486 Y163.415 E4.14649
G1 X169.198 Y162.703 E4.17751
G1 X169.91 Y163.415 E4.20854
G1 X170.622 Y162.703 E4.23957
G1 X171.334 Y163.415 E4.2706
G1 X172.047 Y162.703 E4.30163
G1 X172.759 Y163.415 E4.33266
G1 X173.471 Y162.703 E4.36369
G1 X174.183 Y163.415 E4.39472
G1 X174.895 Y162.703 E4.42575
G1 X175.607 Y163.415 E4.45677
G1 X176.319 Y162.703 E4.4878
G1 X177.743 Y164.127 E4.54986
G1 X179.168 Y162.703 E4.61192
G1 X180.549 Y164.085 E4.67213
G1 X172.906 Y170.934 F30000
G1 F4500
G1 X169.31 Y170.934 E4.78292
G1 X169.125 Y171.139 E4.79143
G1 X168.829 Y171.409 E4.80379
G1 X168.723 Y171.543 E4.80902
G1 X168.614 Y171.68 E4.81443
G1 X168.271 Y172.032 E4.82959
G1 X168.13 Y172.223 E4.83688
G1 X167.998 Y172.354 E4.84261
G1 X167.831 Y172.558 E4.85076
G1 X167.659 Y172.768 E4.85911
G1 X167.452 Y172.978 E4.86819
G1 X167.191 Y173.312 E4.88124
G1 X166.905 Y173.602 E4.89379
G1 X166.848 Y173.673 E4.89659
G1 X166.71 Y173.845 E4.90341
G1 X166.463 Y174.112 E4.91461
G1 X166.216 Y174.378 E4.92579
G1 X165.945 Y174.644 E4.9375
G1 X165.672 Y174.912 E4.94926
G1 X165.305 Y175.227 E4.96417
G1 X164.938 Y175.543 E4.97909
G1 X164.618 Y175.773 E4.99126
G1 X164.294 Y176.004 E5.0035
G1 X163.981 Y176.176 E5.01451
G1 X163.668 Y176.348 E5.02551
G1 X163.35 Y176.49 E5.03625
G1 X163.029 Y176.581 E5.04652
G1 X162.865 Y176.627 E5.05177
G1 X162.709 Y176.67 E5.05675
G1 X162.509 Y176.7 E5.06298
G1 X162.391 Y176.717 E5.06666
G1 X162.226 Y176.725 E5.07176
G1 X162.073 Y176.732 E5.07645
G1 X161.835 Y176.721 E5.08381
G1 X161.764 Y176.717 E5.08601
G1 X161.454 Y176.672 E5.09564
G1 X161.151 Y176.601 E5.10524
G1 X160.835 Y176.501 E5.11545
G1 X160.53 Y176.369 E5.12569
G1 X160.159 Y176.164 E5.13875
G1 X159.786 Y175.957 E5.15189
G1 X159.434 Y175.698 E5.16538
G1 X159.081 Y175.438 E5.17885
G1 X158.779 Y175.173 E5.19126
G1 X158.477 Y174.907 E5.20363
G1 X157.971 Y174.394 E5.22586
G1 X157.715 Y174.135 E5.23707
G1 X157.625 Y174.035 E5.24122
G1 X156.651 Y172.954 E5.28604
G1 X156.064 Y172.27 E5.31381
G1 X156.023 Y172.223 E5.31574
