; generated by SuperSlicer 2.4 on 2022-11-05 at 17:40:40 UTC


;
;

;
;
; 

; external perimeters extrusion width = 0.45mm
; perimeters extrusion width = 0.45mm
; infill extrusion width = 0.45mm
; solid infill extrusion width = 0.48mm
; top infill extrusion width = 0.42mm
; support material extrusion width = 0.45mm
; first layer extrusion width = 0.38mm

; external perimeters extrusion width = 0.45mm
; perimeters extrusion width = 0.45mm
; infill extrusion width = 0.45mm
; solid infill extrusion width = 0.48mm
; top infill extrusion width = 0.42mm
; support material extrusion width = 0.45mm
; first layer extrusion width = 0.38mm

; external perimeters extrusion width = 0.45mm
; perimeters extrusion width = 0.45mm
; infill extrusion width = 0.45mm
; solid infill extrusion width = 0.48mm
; top infill extrusion width = 0.42mm
; support material extrusion width = 0.45mm
; first layer extrusion width = 0.38mm

; object:{"name":"Dock_mount_variable_pt1_v2","id":"Dock_mount_variable_pt1_v2.stl id:0 copy 0","object_center":[161.775506,176.991134,0.000000],"boundingbox_center":[161.775506,176.991134,5.249931],"boundingbox_size":[43.279968,36.254997,10.499863]}
; object:{"name":"Dock_mount_variable_pt2_v2","id":"Dock_mount_variable_pt2_v2.stl id:1 copy 0","object_center":[203.675580,178.979700,0.000000],"boundingbox_center":[203.675580,178.979700,17.350296],"boundingbox_size":[36.255005,40.279968,34.700592]}
; object:{"name":"Dock_mount_variable_pt3_v2","id":"Dock_mount_variable_pt3_v2.stl id:2 copy 0","object_center":[165.052716,145.846120,0.000000],"boundingbox_center":[165.052716,145.846120,2.988495],"boundingbox_size":[47.724014,22.255005,5.976990]}
; plater:{"center":[180.969302,166.919151,0.000000],"boundingbox_center":[180.969302,166.919151,17.350296],"boundingbox_size":[81.667560,64.401067,34.700592]}

;TYPE:Custom
;  M190 S0
;  M109 S0 ; uncomment to remove set&wait temp gcode added automatically after this start gcode
;  PRINT_START EXTRUDER=235 BED=65 CHAMBER=0
;
PRINT_START EXTRUDER_TEMP=235 BED_TEMP=65
M107
G21 ; set units to millimeters
G90 ; use absolute coordinates
M83 ; use relative distances for extrusion
; Filament gcode
;SET_GCODE_OFFSET Z=0
;SET_PRESSURE_ADVANCE ADVANCE=0.05
;_TOOLCHANGE 0
M104 S235 ; set temperature
M109 S235 ; set temperature and wait for it to be reached
M190 S65 ; set bed temperature and wait for it to be reached
M107
;LAYER_CHANGE
;Z:0.25
;HEIGHT:0.25
;BEFORE_LAYER_CHANGE
;0.25


G1 E-1.2 F3000
G1 Z0.25 F30000
;AFTER_LAYER_CHANGE
;0.25
G92 E0
; printing object Dock_mount_variable_pt1_v2.stl id:0 copy 0
G1 X148.784 Y184.369
G1 E1.2 F1800
;TYPE:Internal perimeter
;WIDTH:0.38
G1 F4500
G1 X148.446 Y183.939 E0.01764
G1 X148.222 Y183.708 E0.01035
G1 X147.898 Y183.436 E0.01365
G1 X147.526 Y183.194 E0.0143
G1 X147.044 Y182.972 E0.01709
G1 X146.734 Y182.867 E0.01055
G1 X146.315 Y182.776 E0.01382
G1 X145.884 Y182.737 E0.01393
G1 X145.559 Y182.747 E0.01049
G1 X145.036 Y182.812 E0.01697
G1 X144.607 Y182.932 E0.01436
G1 X144.207 Y183.099 E0.01394
G1 X143.837 Y183.309 E0.01371
G1 X143.57 Y183.501 E0.01061
G1 X143.183 Y183.853 E0.01688
G1 X142.967 Y184.103 E0.01063
G1 X142.725 Y184.452 E0.01368
G1 X142.523 Y184.835 E0.01394
G1 X142.365 Y185.251 E0.01434
G1 X142.251 Y185.766 E0.01701
G1 X142.213 Y186.09 E0.01051
G1 X142.213 Y186.521 E0.0139
G1 X142.265 Y186.948 E0.01386
G1 X142.342 Y187.266 E0.01053
G1 X142.518 Y187.765 E0.01705
G1 X142.725 Y188.158 E0.01432
G1 X142.972 Y188.513 E0.01394
G1 X143.254 Y188.829 E0.01364
G1 X143.498 Y189.052 E0.01066
G1 X143.925 Y189.355 E0.01688
G1 X144.213 Y189.513 E0.01059
G1 X144.618 Y189.682 E0.01415
G1 X145.13 Y189.811 E0.01702
G1 X145.453 Y189.86 E0.01052
G1 X145.884 Y189.873 E0.01389
G1 X146.312 Y189.833 E0.01387
G1 X146.632 Y189.766 E0.01053
G1 X147.136 Y189.605 E0.01704
G1 X147.535 Y189.41 E0.01432
G1 X147.898 Y189.174 E0.01394
G1 X148.222 Y188.902 E0.01365
G1 X148.453 Y188.664 E0.01068
G1 X148.778 Y188.232 E0.01742
G1 X148.971 Y188.512 E0.01097
G1 X149.254 Y188.829 E0.01366
G1 X149.498 Y189.052 E0.01066
G1 X149.925 Y189.355 E0.01688
G1 X150.213 Y189.513 E0.01059
G1 X150.618 Y189.682 E0.01415
G1 X151.13 Y189.811 E0.01702
G1 X151.453 Y189.86 E0.01052
G1 X151.884 Y189.873 E0.01389
G1 X152.312 Y189.833 E0.01387
G1 X152.632 Y189.766 E0.01053
G1 X153.136 Y189.605 E0.01704
G1 X153.535 Y189.41 E0.01432
G1 X153.898 Y189.174 E0.01394
G1 X154.222 Y188.902 E0.01364
G1 X154.452 Y188.665 E0.01065
G1 X154.768 Y188.247 E0.01688
G1 X154.935 Y187.964 E0.0106
G1 X155.116 Y187.564 E0.01413
G1 X155.261 Y187.056 E0.01703
G1 X155.319 Y186.735 E0.01052
G1 X155.345 Y186.305 E0.01388
G1 X155.319 Y185.875 E0.01388
G1 X155.261 Y185.554 E0.01052
G1 X155.116 Y185.045 E0.01703
G1 X154.933 Y184.64 E0.01433
G1 X154.708 Y184.271 E0.01394
G1 X154.445 Y183.938 E0.01366
G1 X154.222 Y183.708 E0.01033
G1 X153.898 Y183.436 E0.01364
G1 X153.526 Y183.194 E0.0143
G1 X153.044 Y182.972 E0.01708
G1 X152.734 Y182.867 E0.01055
G1 X152.315 Y182.776 E0.01382
G1 X151.884 Y182.737 E0.01393
G1 X151.559 Y182.747 E0.01049
G1 X151.036 Y182.812 E0.01697
G1 X150.607 Y182.932 E0.01436
G1 X150.207 Y183.099 E0.01394
G1 X149.837 Y183.309 E0.01371
G1 X149.57 Y183.501 E0.01062
G1 X149.182 Y183.854 E0.01689
G1 X148.966 Y184.105 E0.01067
G1 X148.818 Y184.32 E0.00841
G1 X148.79 Y185.044 F30000
G1 F4500
G1 X148.44 Y184.459 E0.02195
G1 X148.2 Y184.154 E0.01253
G1 X148 Y183.947 E0.00927
G1 X147.703 Y183.698 E0.01247
G1 X147.368 Y183.48 E0.0129
G1 X146.923 Y183.275 E0.01576
G1 X146.647 Y183.182 E0.0094
G1 X146.265 Y183.1 E0.01259
G1 X145.874 Y183.064 E0.01266
G1 X145.584 Y183.072 E0.00936
G1 X145.101 Y183.133 E0.01569
G1 X144.714 Y183.241 E0.01294
G1 X144.351 Y183.392 E0.01266
G1 X144.013 Y183.584 E0.01251
G1 X143.776 Y183.755 E0.00944
G1 X143.417 Y184.081 E0.01563
G1 X143.226 Y184.304 E0.00945
G1 X143.005 Y184.622 E0.01249
G1 X142.821 Y184.969 E0.01266
G1 X142.678 Y185.344 E0.01292
G1 X142.573 Y185.82 E0.01571
G1 X142.539 Y186.109 E0.00937
G1 X142.539 Y186.501 E0.01264
G1 X142.586 Y186.89 E0.01261
G1 X142.655 Y187.173 E0.00939
G1 X142.818 Y187.633 E0.01574
G1 X143.005 Y187.988 E0.01291
G1 X143.229 Y188.31 E0.01266
G1 X143.486 Y188.599 E0.01246
G1 X143.703 Y188.797 E0.00947
G1 X144.099 Y189.078 E0.01563
G1 X144.355 Y189.219 E0.00942
G1 X144.721 Y189.371 E0.0128
G1 X145.194 Y189.491 E0.01572
G1 X145.482 Y189.534 E0.00937
G1 X145.874 Y189.546 E0.01263
G1 X146.264 Y189.51 E0.01261
G1 X146.549 Y189.45 E0.00938
G1 X147.014 Y189.302 E0.01573
G1 X147.374 Y189.126 E0.01291
G1 X147.703 Y188.911 E0.01266
G1 X147.999 Y188.663 E0.01247
G1 X148.204 Y188.451 E0.00948
G1 X148.497 Y188.062 E0.0157
G1 X148.785 Y187.564 E0.01854
G1 X149.004 Y187.985 E0.01529
G1 X149.228 Y188.31 E0.01272
G1 X149.486 Y188.599 E0.01248
G1 X149.703 Y188.797 E0.00947
G1 X150.099 Y189.078 E0.01563
G1 X150.355 Y189.219 E0.00942
G1 X150.721 Y189.372 E0.0128
G1 X151.194 Y189.491 E0.01572
G1 X151.482 Y189.534 E0.00937
G1 X151.874 Y189.546 E0.01263
G1 X152.264 Y189.51 E0.01262
G1 X152.549 Y189.45 E0.00938
G1 X153.014 Y189.302 E0.01573
G1 X153.374 Y189.126 E0.01291
G1 X153.703 Y188.911 E0.01266
G1 X153.999 Y188.663 E0.01247
G1 X154.204 Y188.452 E0.00946
G1 X154.496 Y188.065 E0.01563
G1 X154.645 Y187.813 E0.00943
G1 X154.809 Y187.452 E0.01279
G1 X154.943 Y186.982 E0.01573
G1 X154.994 Y186.696 E0.00938
G1 X155.018 Y186.305 E0.01262
G1 X154.994 Y185.914 E0.01262
G1 X154.943 Y185.627 E0.00938
G1 X154.809 Y185.158 E0.01572
G1 X154.643 Y184.793 E0.01292
G1 X154.439 Y184.457 E0.01266
G1 X154.2 Y184.153 E0.01248
G1 X153.999 Y183.947 E0.00926
G1 X153.703 Y183.698 E0.01247
G1 X153.368 Y183.48 E0.0129
G1 X152.923 Y183.275 E0.01576
G1 X152.647 Y183.182 E0.0094
G1 X152.265 Y183.1 E0.01259
G1 X151.874 Y183.064 E0.01266
G1 X151.584 Y183.072 E0.00936
G1 X151.101 Y183.133 E0.01569
G1 X150.714 Y183.241 E0.01294
G1 X150.351 Y183.392 E0.01266
G1 X150.014 Y183.584 E0.01251
G1 X149.775 Y183.755 E0.00944
G1 X149.417 Y184.082 E0.01564
G1 X149.225 Y184.304 E0.00947
G1 X149.003 Y184.626 E0.01259
G1 X148.817 Y184.991 E0.01319
G1 X149.981 Y184.009 F30000
;TYPE:External perimeter
G1 F4500
G1 X149.651 Y184.309 E0.01438
G1 X149.484 Y184.504 E0.00828
G1 X149.284 Y184.794 E0.01134
G1 X149.122 Y185.111 E0.01147
G1 X149.005 Y185.454 E0.01167
G1 X148.944 Y185.902 E0.0146
G1 X148.944 Y186.805 E0.02907
G1 X148.983 Y187.063 E0.00842
G1 X149.118 Y187.497 E0.01465
G1 X149.284 Y187.817 E0.0116
G1 X149.485 Y188.108 E0.0114
G1 X149.719 Y188.369 E0.0113
G1 X149.908 Y188.543 E0.00828
G1 X150.272 Y188.801 E0.01438
G1 X150.497 Y188.924 E0.00826
G1 X150.825 Y189.061 E0.01145
G1 X151.259 Y189.171 E0.01442
G1 X151.511 Y189.208 E0.00823
G1 X151.864 Y189.219 E0.01137
G1 X152.215 Y189.187 E0.01136
G1 X152.465 Y189.134 E0.00824
G1 X152.892 Y188.998 E0.01443
G1 X153.212 Y188.841 E0.0115
G1 X153.508 Y188.649 E0.01138
G1 X153.777 Y188.423 E0.01129
G1 X153.956 Y188.239 E0.00827
G1 X154.225 Y187.883 E0.01438
G1 X154.355 Y187.662 E0.00826
G1 X154.502 Y187.339 E0.01144
G1 X154.624 Y186.908 E0.01442
G1 X154.67 Y186.657 E0.00823
G1 X154.691 Y186.305 E0.01137
G1 X154.67 Y185.953 E0.01137
G1 X154.624 Y185.701 E0.00823
G1 X154.502 Y185.271 E0.01442
G1 X154.354 Y184.946 E0.01151
G1 X154.171 Y184.644 E0.01138
G1 X153.954 Y184.368 E0.0113
G1 X153.777 Y184.186 E0.00818
G1 X153.508 Y183.961 E0.01129
G1 X153.209 Y183.767 E0.01149
G1 X152.802 Y183.579 E0.01444
G1 X152.56 Y183.497 E0.00824
G1 X152.216 Y183.423 E0.01135
G1 X151.864 Y183.391 E0.01138
G1 X151.609 Y183.398 E0.00822
G1 X151.165 Y183.454 E0.01441
G1 X150.821 Y183.55 E0.01152
G1 X150.495 Y183.686 E0.01138
G1 X150.19 Y183.859 E0.01131
G1 X150.03 Y183.974 E0.00633
;WIPE_START
G1 X149.605 Y183.873 F30000
;WIPE_END
G1 X148.353 Y184.949
G1 F4500
G1 X148.171 Y184.645 E0.01143
G1 X147.954 Y184.369 E0.01132
G1 X147.777 Y184.186 E0.00818
G1 X147.508 Y183.961 E0.01129
G1 X147.209 Y183.767 E0.01149
G1 X146.802 Y183.579 E0.01444
G1 X146.56 Y183.497 E0.00824
G1 X146.216 Y183.423 E0.01135
G1 X145.864 Y183.391 E0.01138
G1 X145.609 Y183.398 E0.00822
G1 X145.165 Y183.454 E0.01441
G1 X144.821 Y183.55 E0.01152
G1 X144.495 Y183.686 E0.01138
G1 X144.19 Y183.859 E0.01131
G1 X143.981 Y184.009 E0.00826
G1 X143.651 Y184.309 E0.01438
G1 X143.484 Y184.504 E0.00827
G1 X143.284 Y184.792 E0.0113
G1 X143.119 Y185.104 E0.01138
G1 X142.992 Y185.438 E0.01151
G1 X142.896 Y185.875 E0.01442
G1 X142.865 Y186.129 E0.00823
G1 X142.865 Y186.482 E0.01137
G1 X142.908 Y186.831 E0.01136
G1 X142.968 Y187.08 E0.00824
G1 X143.117 Y187.502 E0.01443
G1 X143.284 Y187.818 E0.0115
G1 X143.485 Y188.108 E0.01138
G1 X143.719 Y188.369 E0.01129
G1 X143.908 Y188.543 E0.00828
G1 X144.272 Y188.801 E0.01438
G1 X144.497 Y188.924 E0.00826
G1 X144.825 Y189.061 E0.01145
G1 X145.259 Y189.171 E0.01442
G1 X145.511 Y189.208 E0.00823
G1 X145.864 Y189.219 E0.01137
G1 X146.215 Y189.187 E0.01136
G1 X146.465 Y189.134 E0.00824
G1 X146.892 Y188.998 E0.01443
G1 X147.212 Y188.841 E0.0115
G1 X147.508 Y188.649 E0.01138
G1 X147.777 Y188.423 E0.01129
G1 X147.956 Y188.239 E0.00828
G1 X148.225 Y187.882 E0.01441
G1 X148.354 Y187.659 E0.00831
G1 X148.495 Y187.329 E0.01156
G1 X148.597 Y186.881 E0.0148
G1 X148.612 Y185.978 E0.02909
G1 X148.596 Y185.724 E0.00819
G1 X148.495 Y185.281 E0.01466
G1 X148.376 Y185.004 E0.00969
;WIPE_START
G1 X148.563 Y184.609 F30000
;WIPE_END
;WIPE_START
G1 F24000
G1 X148.105 Y184.237 E-0.07011
G1 X147.913 Y184.04 E-0.0326
G1 X147.628 Y183.8 E-0.04428
G1 X147.306 Y183.591 E-0.04552
G1 X146.877 Y183.393 E-0.05621
G1 X146.613 Y183.304 E-0.03299
G1 X146.246 Y183.225 E-0.04462
G1 X145.87 Y183.19 E-0.04483
G1 X145.593 Y183.199 E-0.03287
G1 X145.126 Y183.257 E-0.05599
G1 X144.755 Y183.361 E-0.04565
G1 X144.407 Y183.506 E-0.04484
G1 X144.082 Y183.69 E-0.0444
G1 X143.855 Y183.853 E-0.03311
G1 X143.508 Y184.17 E-0.05581
G1 X143.326 Y184.381 E-0.03314
G1 X143.113 Y184.688 E-0.04434
G1 X142.936 Y185.022 E-0.04484
G1 X142.8 Y185.381 E-0.04561
G1 X142.698 Y185.842 E-0.05606
G1 X142.665 Y186.117 E-0.0329
G1 X142.665 Y186.494 E-0.04477
G1 X142.711 Y186.867 E-0.04468
G1 X142.776 Y187.137 E-0.03295
G1 X142.934 Y187.583 E-0.05614
G1 X143.015 Y187.737 E-0.02075
;WIPE_END
G1 E-0.06 F3000
G1 X151.099 Y171.176 F30000
G1 E1.2 F1800
;TYPE:Internal perimeter
G1 F4500
G1 X151.13 Y171.184 E0.00104
G1 X151.453 Y171.232 E0.01052
G1 X151.884 Y171.245 E0.01389
G1 X152.312 Y171.206 E0.01387
G1 X152.632 Y171.139 E0.01053
G1 X153.136 Y170.978 E0.01704
G1 X153.535 Y170.783 E0.01432
G1 X153.898 Y170.547 E0.01394
G1 X154.222 Y170.274 E0.01364
G1 X154.452 Y170.037 E0.01065
G1 X154.768 Y169.62 E0.01688
G1 X154.935 Y169.336 E0.01059
G1 X155.116 Y168.937 E0.01414
G1 X155.261 Y168.429 E0.01703
G1 X155.319 Y168.107 E0.01052
G1 X155.345 Y167.677 E0.01388
G1 X155.319 Y167.248 E0.01388
G1 X155.261 Y166.926 E0.01052
G1 X155.116 Y166.418 E0.01703
G1 X154.933 Y166.013 E0.01433
G1 X154.708 Y165.643 E0.01394
G1 X154.445 Y165.31 E0.01366
G1 X154.222 Y165.08 E0.01033
G1 X153.898 Y164.808 E0.01364
G1 X153.526 Y164.566 E0.0143
G1 X153.044 Y164.344 E0.01708
G1 X152.734 Y164.239 E0.01055
G1 X152.315 Y164.149 E0.01382
G1 X151.884 Y164.11 E0.01393
G1 X151.559 Y164.119 E0.01049
G1 X151.036 Y164.185 E0.01697
G1 X150.607 Y164.305 E0.01436
G1 X150.207 Y164.471 E0.01394
G1 X149.837 Y164.681 E0.01371
G1 X149.57 Y164.873 E0.01062
G1 X149.182 Y165.226 E0.01689
G1 X148.966 Y165.477 E0.01067
G1 X148.784 Y165.742 E0.01034
G1 X148.446 Y165.311 E0.01764
G1 X148.222 Y165.081 E0.01035
G1 X147.898 Y164.808 E0.01365
G1 X147.526 Y164.566 E0.0143
G1 X147.044 Y164.344 E0.01708
G1 X146.734 Y164.239 E0.01055
G1 X146.315 Y164.149 E0.01382
G1 X145.884 Y164.11 E0.01393
G1 X145.559 Y164.119 E0.01049
G1 X145.036 Y164.185 E0.01697
G1 X144.607 Y164.305 E0.01436
G1 X144.207 Y164.471 E0.01394
G1 X143.837 Y164.681 E0.01371
G1 X143.57 Y164.873 E0.01061
G1 X143.183 Y165.226 E0.01688
G1 X142.967 Y165.476 E0.01063
G1 X142.725 Y165.825 E0.01368
G1 X142.523 Y166.207 E0.01394
G1 X142.365 Y166.623 E0.01434
G1 X142.251 Y167.138 E0.01701
G1 X142.213 Y167.462 E0.01051
G1 X142.213 Y167.894 E0.0139
G1 X142.265 Y168.321 E0.01386
G1 X142.342 Y168.638 E0.01054
G1 X142.518 Y169.137 E0.01705
G1 X142.725 Y169.53 E0.01432
G1 X142.972 Y169.885 E0.01394
G1 X143.254 Y170.201 E0.01364
G1 X143.498 Y170.424 E0.01065
G1 X143.925 Y170.727 E0.01688
G1 X144.213 Y170.886 E0.01059
G1 X144.618 Y171.055 E0.01415
G1 X145.13 Y171.184 E0.01702
G1 X145.453 Y171.232 E0.01052
G1 X145.884 Y171.245 E0.01389
G1 X146.312 Y171.206 E0.01387
G1 X146.632 Y171.139 E0.01053
G1 X147.136 Y170.978 E0.01704
G1 X147.535 Y170.783 E0.01432
G1 X147.898 Y170.547 E0.01394
G1 X148.222 Y170.274 E0.01365
G1 X148.453 Y170.037 E0.01068
G1 X148.778 Y169.605 E0.01742
G1 X148.971 Y169.885 E0.01097
G1 X149.254 Y170.201 E0.01366
G1 X149.498 Y170.424 E0.01066
G1 X149.925 Y170.727 E0.01688
G1 X150.213 Y170.886 E0.01059
G1 X150.618 Y171.055 E0.01415
G1 X151.04 Y171.161 E0.01404
;WIPE_START
G1 F24000
G1 X151.13 Y171.184 E-0.01097
G1 X151.453 Y171.232 E-0.03875
G1 X151.884 Y171.245 E-0.05119
G1 X152.312 Y171.206 E-0.0511
G1 X152.632 Y171.139 E-0.0388
G1 X153.136 Y170.978 E-0.06279
G1 X153.535 Y170.783 E-0.05278
G1 X153.898 Y170.547 E-0.05137
G1 X154.222 Y170.274 E-0.05028
G1 X154.452 Y170.037 E-0.03924
G1 X154.768 Y169.62 E-0.06219
G1 X154.935 Y169.336 E-0.03904
G1 X155.116 Y168.937 E-0.05209
G1 X155.261 Y168.429 E-0.06274
G1 X155.319 Y168.107 E-0.03878
G1 X155.345 Y167.677 E-0.05115
G1 X155.319 Y167.248 E-0.05115
G1 X155.261 Y166.926 E-0.03878
G1 X155.116 Y166.418 E-0.06274
G1 X154.933 Y166.013 E-0.05281
G1 X154.708 Y165.643 E-0.05137
G1 X154.445 Y165.31 E-0.05033
G1 X154.222 Y165.08 E-0.03808
G1 X153.955 Y164.856 E-0.04145
;WIPE_END
G1 E-0.06 F3000
G1 X148.785 Y168.937 F30000
G1 E1.2 F1800
G1 F4500
G1 X149.004 Y169.358 E0.01529
G1 X149.228 Y169.683 E0.01272
G1 X149.486 Y169.972 E0.01248
G1 X149.703 Y170.17 E0.00947
G1 X150.099 Y170.45 E0.01563
G1 X150.355 Y170.591 E0.00942
G1 X150.721 Y170.744 E0.0128
G1 X151.194 Y170.864 E0.01572
G1 X151.482 Y170.907 E0.00937
G1 X151.874 Y170.918 E0.01263
G1 X152.264 Y170.883 E0.01262
G1 X152.549 Y170.823 E0.00938
G1 X153.014 Y170.674 E0.01573
