; generated by SuperSlicer 2.4 on 2022-09-14 at 06:41:09 UTC


;
;

;
;
; 

; external perimeters extrusion width = 0.45mm
; perimeters extrusion width = 0.45mm
; infill extrusion width = 0.45mm
; solid infill extrusion width = 0.48mm
; top infill extrusion width = 0.42mm
; support material extrusion width = 0.45mm
; first layer extrusion width = 0.38mm

; object:{"name":"dzwignia-test2","id":"dzwignia-test2.stl id:0 copy 0","object_center":[165.000000,162.500000,0.000000],"boundingbox_center":[165.000000,162.500000,4.250000],"boundingbox_size":[22.119361,11.575638,8.500000]}
; plater:{"center":[165.000000,162.500000,0.000000],"boundingbox_center":[165.000000,162.500000,4.250000],"boundingbox_size":[22.119361,11.575638,8.500000]}

M73 P0 R3
;TYPE:Custom
; custom gcode: start_gcode
M104 S0 ; Stops PS/SS from sending temp waits separately
M140 S0
PRINT_START EXTRUDER_TEMP=240 BED_TEMP=65
; custom gcode end: start_gcode
M107
G21 ; set units to millimeters
G90 ; use absolute coordinates
M83 ; use relative distances for extrusion
; custom gcode: start_filament_gcode
; Filament gcode
;SET_GCODE_OFFSET Z=0
;SET_PRESSURE_ADVANCE ADVANCE=0.05
; custom gcode end: start_filament_gcode
;_TOOLCHANGE 0
;LAYER_CHANGE
;Z:0.24
;HEIGHT:0.24
G1 E-1.2 F1800
M73 P11 R2
G1 Z0.24 F30000
G92 E0
M104 S240 ; set temperature
; printing object dzwignia-test2.stl id:0 copy 0
G1 X160.311 Y160.311
G1 E1.2 F1800
;TYPE:Support material
;WIDTH:0.38
G1 X168.561 Y152.062 E0.35945
G1 X172.702 Y156.203 E0.18044
G1 X172.616 Y156.21 E0.00266
G1 X171.671 Y156.289 E0.0292
G1 X171.18 Y156.33 E0.01519
G1 X170.689 Y156.371 E0.01519
G1 X170.198 Y156.412 E0.01518
G1 X170.044 Y156.425 E0.00476
G1 X169.654 Y156.457 E0.01205
G1 X169.594 Y156.472 E0.0019
G1 X169.519 Y156.491 E0.00237
G1 X169.265 Y156.6 E0.00853
G1 X169.213 Y156.622 E0.00174
G1 X169.17 Y156.645 E0.00149
G1 X169.158 Y156.651 E0.00041
G1 X168.899 Y156.81 E0.00939
G1 X168.85 Y156.845 E0.00184
G1 X168.518 Y157.119 E0.01326
G1 X168.493 Y157.143 E0.00106
G1 X168.476 Y157.16 E0.00076
G1 X168.15 Y157.515 E0.01484
G1 X168.067 Y157.649 E0.00486
G1 X167.992 Y157.841 E0.00635
G1 X167.879 Y158.129 E0.00952
G1 X167.853 Y158.232 E0.00327
G1 X167.794 Y158.704 E0.01466
G1 X167.793 Y158.742 E0.00119
G1 X167.791 Y158.781 E0.00119
G1 X167.799 Y158.928 E0.00453
G1 X167.807 Y159.066 E0.00428
G1 X167.821 Y159.152 E0.00266
G1 X167.882 Y159.382 E0.00732
G1 X167.903 Y159.464 E0.00263
G1 X167.938 Y159.554 E0.00296
G1 X168.074 Y159.814 E0.00904
G1 X168.102 Y159.859 E0.00163
G1 X168.28 Y160.115 E0.00962
G1 X168.386 Y160.351 E0.00797
G1 X168.437 Y160.593 E0.00763
G1 X168.436 Y160.806 E0.00656
G1 X168.435 Y161.162 E0.01095
G1 X168.448 Y161.265 E0.00321
G1 X168.514 Y161.536 E0.00861
G1 X168.549 Y161.631 E0.00311
G1 X168.691 Y161.904 E0.00948
G1 X168.789 Y162.031 E0.00495
G1 X169.027 Y162.239 E0.00975
G1 X169.134 Y162.308 E0.0039
G1 X169.372 Y162.415 E0.00807
G1 X169.44 Y162.439 E0.0022
G1 X169.776 Y162.527 E0.01071
G1 X169.903 Y162.541 E0.00394
G1 X170.14 Y162.531 E0.00731
G1 X170.166 Y162.529 E0.00079
G1 X170.56 Y162.488 E0.01222
G1 X170.669 Y162.477 E0.00336
G1 X171.159 Y162.433 E0.01517
G1 X171.655 Y162.39 E0.01533
M73 P12 R2
G1 X172.152 Y162.347 E0.01536
G1 X172.648 Y162.303 E0.01536
G1 X173.581 Y162.222 E0.02883
G1 X167.848 Y167.954 E0.24976
G1 X167.136 Y167.241 E0.03103
G1 X165 Y169.378 E0.09309
G1 X160.613 Y164.99 E0.19117
G1 X160.999 Y164.972 E0.01191
G1 X161.804 Y164.934 E0.02483
G1 X162.266 Y164.102 E0.0293
G1 X161.887 Y163.423 E0.02397
G1 X161.435 Y162.613 E0.02857
G1 X161.209 Y162.208 E0.01429
G1 X160.663 Y161.228 E0.03457
G1 X160.195 Y160.992 E0.01616
G1 X160.032 Y161.013 E0.00504
G1 X159.546 Y161.077 E0.01512
G1 X160.311 Y160.311 E0.03335
G1 X167.627 Y167.616 F30000
G1 F1800
G1 X172.722 Y162.521 E0.222
G1 X172.668 Y162.526 E0.00167
G1 X172.171 Y162.569 E0.01536
G1 X172.156 Y162.57 E0.00046
G1 X167.469 Y167.258 E0.20425
G1 X167.211 Y167 E0.01125
G1 X171.59 Y162.62 E0.19085
G1 X171.179 Y162.656 E0.01272
G1 X171.024 Y162.67 E0.00479
G1 X164.816 Y168.878 E0.27051
M73 P13 R2
G1 X164.558 Y168.62 E0.01125
G1 X170.454 Y162.724 E0.25691
G1 X170.185 Y162.752 E0.00832
G1 X170.153 Y162.754 E0.001
G1 X169.897 Y162.765 E0.0079
G1 X164.3 Y168.362 E0.24388
G1 X164.042 Y168.104 E0.01125
G1 X169.468 Y162.677 E0.23644
G1 X169.374 Y162.653 E0.003
G1 X169.289 Y162.623 E0.00278
G1 X169.095 Y162.535 E0.00658
G1 X163.784 Y167.846 E0.23141
G1 X163.526 Y167.588 E0.01125
G1 X168.787 Y162.326 E0.22927
G1 X168.626 Y162.185 E0.00659
G1 X168.532 Y162.065 E0.0047
G1 X163.268 Y167.329 E0.22941
M73 P14 R2
G1 X163.01 Y167.071 E0.01125
G1 X168.35 Y161.731 E0.23269
G1 X168.345 Y161.722 E0.00033
G1 X168.3 Y161.602 E0.00392
G1 X168.234 Y161.331 E0.00861
G1 X162.751 Y166.813 E0.23888
G1 X162.493 Y166.555 E0.01125
G1 X168.213 Y160.836 E0.24922
G1 X168.213 Y160.806 E0.00093
G1 X168.214 Y160.616 E0.00583
G1 X168.172 Y160.421 E0.00616
G1 X168.153 Y160.379 E0.00141
G1 X162.235 Y166.297 E0.25788
G1 X161.977 Y166.039 E0.01125
G1 X167.964 Y160.052 E0.26087
G1 X167.914 Y159.981 E0.00268
G1 X167.88 Y159.923 E0.00206
G1 X167.775 Y159.725 E0.00692
G1 X161.719 Y165.781 E0.2639
G1 X161.461 Y165.523 E0.01125
G1 X167.64 Y159.343 E0.26926
M73 P15 R2
G1 X167.602 Y159.198 E0.00464
G1 X167.585 Y159.09 E0.00336
G1 X167.576 Y158.94 E0.00462
G1 X167.574 Y158.894 E0.00144
G1 X162.466 Y164.002 E0.22258
G1 X162.281 Y163.671 E0.01169
G1 X167.785 Y158.166 E0.23984
;WIPE_START
G1 F24000
G1 X162.281 Y163.671 E-0.55462
G1 X162.466 Y164.002 E-0.02703
G1 X167.574 Y158.894 E-0.51472
G1 X167.576 Y158.94 E-0.00332
G1 X167.585 Y159.09 E-0.01069
G1 X167.602 Y159.198 E-0.00777
G1 X167.64 Y159.343 E-0.01072
G1 X167.53 Y159.454 E-0.01111
;WIPE_END
G1 E-0.06 F1800
G1 X171.822 Y156.194 F30000
G1 E1.2 F1800
G1 X172.1 Y155.917 E0.01208
G1 X171.842 Y155.658 E0.01125
G1 X171.414 Y156.086 E0.01864
G1 X171.161 Y156.107 E0.0078
G1 X170.85 Y156.133 E0.00961
G1 X171.583 Y155.4 E0.03194
G1 X171.325 Y155.142 E0.01125
G1 X170.287 Y156.18 E0.04523
G1 X170.179 Y156.189 E0.00334
G1 X170.025 Y156.202 E0.00476
G1 X169.724 Y156.227 E0.0093
G1 X171.067 Y154.884 E0.05851
G1 X170.809 Y154.626 E0.01125
G1 X162.096 Y163.339 E0.37966
G1 X162.082 Y163.314 E0.00089
G1 X161.911 Y163.008 E0.0108
G1 X170.551 Y154.368 E0.37646
M73 P16 R2
G1 X170.293 Y154.11 E0.01125
G1 X161.726 Y162.676 E0.37327
G1 X161.63 Y162.504 E0.00608
G1 X161.542 Y162.345 E0.00561
G1 X170.035 Y153.852 E0.37007
G1 X169.777 Y153.594 E0.01125
G1 X161.357 Y162.014 E0.36688
G1 X161.172 Y161.682 E0.01169
G1 X169.519 Y153.336 E0.36369
M73 P17 R2
G1 X169.261 Y153.078 E0.01125
G1 X160.987 Y161.351 E0.36049
G1 X160.825 Y161.059 E0.01029
G1 X160.783 Y161.039 E0.00142
G1 X169.003 Y152.819 E0.35813
G1 X168.744 Y152.561 E0.01125
G1 X160.335 Y160.971 E0.36643
;WIPE_START
G1 F24000
G1 X168.744 Y152.561 E-0.84736
G1 X169.003 Y152.819 E-0.02601
G1 X166.356 Y155.466 E-0.26663
;WIPE_END
G1 E-0.06 F1800
G1 X161.103 Y165.365 F30000
G1 E1.2 F1800
G1 X161.434 Y165.033 E0.01443
;WIPE_START
G1 F24000
G1 X161.103 Y165.365 E-0.03338
;WIPE_END
G1 E-1.16662 F1800
G1 X170.279 Y159.952 F30000
G1 E1.2 F1800
M73 P18 R2
G1 X170.27 Y159.847 E0.00324
G1 X170.231 Y159.398 E0.01386
G1 X170.219 Y159.265 E0.00414
G1 X170.325 Y159.249 E0.00329
G1 X170.342 Y159.247 E0.00053
G1 X170.763 Y159.206 E0.01303
G1 X171.115 Y159.175 E0.01088
G1 X171.222 Y159.165 E0.00331
G1 X171.685 Y159.125 E0.01433
G1 X172.149 Y159.084 E0.01434
G1 X172.612 Y159.044 E0.01434
G1 X173.076 Y159.003 E0.01434
G1 X173.226 Y158.99 E0.00465
G1 X173.467 Y159.487 E0.017
G1 X173.302 Y159.652 E0.00718
G1 X173.218 Y159.735 E0.00364
G1 X172.677 Y159.783 E0.01675
G1 X172.213 Y159.823 E0.01434
G1 X171.75 Y159.864 E0.01433
G1 X171.643 Y159.873 E0.00331
G1 X171.29 Y159.904 E0.01092
G1 X170.998 Y159.927 E0.00903
G1 X170.846 Y159.939 E0.0047
G1 X170.714 Y159.944 E0.00405
G1 X170.425 Y159.955 E0.00893
G1 X170.279 Y159.952 E0.0045
G1 X172.423 Y159.722 F30000
G1 F1800
G1 X172.903 Y159.243 E0.0209
G1 X172.632 Y159.266 E0.00839
G1 X172.337 Y159.292 E0.0091
G1 X172.013 Y159.616 E0.01413
G1 X171.731 Y159.641 E0.00874
G1 X171.623 Y159.65 E0.00331
G1 X171.448 Y159.666 E0.00544
G1 X171.772 Y159.342 E0.01412
G1 X171.704 Y159.347 E0.00208
G1 X171.241 Y159.388 E0.01433
G1 X171.206 Y159.391 E0.00108
G1 X170.886 Y159.711 E0.01395
G1 X170.833 Y159.716 E0.00164
G1 X170.706 Y159.721 E0.00391
G1 X170.484 Y159.73 E0.00684
G1 X170.473 Y159.608 E0.00377
G1 X170.795 Y159.286 E0.01404
;WIPE_START
G1 F24000
G1 X170.473 Y159.608 E-0.03247
G1 X170.484 Y159.73 E-0.00871
G1 X170.706 Y159.721 E-0.01581
G1 X170.833 Y159.716 E-0.00905
G1 X170.886 Y159.711 E-0.0038
G1 X171.206 Y159.391 E-0.03227
G1 X171.241 Y159.388 E-0.00251
G1 X171.704 Y159.347 E-0.03314
G1 X171.772 Y159.342 E-0.00481
G1 X171.448 Y159.666 E-0.03265
G1 X171.623 Y159.65 E-0.01258
G1 X171.731 Y159.641 E-0.00765
G1 X172.013 Y159.616 E-0.02021
G1 X172.337 Y159.292 E-0.03267
G1 X172.632 Y159.266 E-0.02105
G1 X172.903 Y159.243 E-0.01941
G1 X172.423 Y159.722 E-0.04833
;WIPE_END
G1 E-0.86286 F1800
G1 X160.428 Y163.625 F30000
G1 E1.2 F1800
;TYPE:Internal perimeter
G1 X155.988 Y163.837 E0.13696
G1 X155.69 Y163.885 E0.0093
G1 X155.28 Y164.077 E0.01393
G1 X154.735 Y164.607 E0.02342
G1 X154.614 Y163.757 E0.02644
G1 X154.561 Y163.154 E0.01867
G1 X154.714 Y163.09 E0.00511
G1 X159.763 Y162.433 E0.15688
G1 X160.01 Y162.876 E0.01566
G1 X160.428 Y163.625 E0.02641
G1 X160.973 Y163.928 F30000
;TYPE:External perimeter
G1 F1800
G1 X156.022 Y164.164 E0.15271
G1 X155.788 Y164.202 E0.00732
G1 X155.469 Y164.352 E0.01083
G1 X155.208 Y164.606 E0.01125
G1 X155.043 Y164.937 E0.01141
G1 X155 Y165.272 E0.01039
G1 X155.028 Y165.937 E0.02052
G1 X155.307 Y166.855 E0.02956
G1 X155.463 Y167.286 E0.01411
G1 X155.57 Y167.673 E0.01238
G1 X155.527 Y167.889 E0.00678
G1 X155.497 Y167.922 E0.00137
G1 X155.2 Y167.533 E0.01507
G1 X154.807 Y166.632 E0.03029
G1 X154.601 Y165.708 E0.02916
G1 X154.424 Y164.755 E0.02986
G1 X154.287 Y163.795 E0.02989
G1 X154.235 Y163.201 E0.01837
G1 X154.258 Y163.101 E0.00318
G1 X154.342 Y162.948 E0.00536
G1 X154.466 Y162.837 E0.00511
G1 X154.628 Y162.769 E0.00541
G1 X159.941 Y162.078 E0.1651
M73 P19 R2
G1 X160.297 Y162.716 E0.02252
G1 X160.973 Y163.928 E0.04273
;WIPE_START
G1 X160.593 Y163.801 F30000
;WIPE_END
G1 X159.116 Y162.616
;TYPE:Solid infill
;WIDTH:0.436136
G1 F3000
G1 X159.913 Y163.413 E0.03986
G1 X159.473 Y163.437 E0.0156
G1 X158.831 Y162.796 E0.03209
G1 X158.42 Y162.849 E0.01466
G1 X159.033 Y163.462 E0.03063
G1 X158.592 Y163.486 E0.0156
G1 X158.009 Y162.903 E0.02916
G1 X157.598 Y162.956 E0.01466
G1 X158.152 Y163.51 E0.0277
G1 X157.712 Y163.534 E0.0156
G1 X157.187 Y163.01 E0.02623
G1 X156.776 Y163.063 E0.01466
G1 X157.271 Y163.558 E0.02477
G1 X156.831 Y163.583 E0.0156
G1 X156.633 Y163.385 E0.00989
G1 X156.611 Y163.327 F30000
;TYPE:Gap fill
;WIDTH:0.714448
G1 F1800
G1 X156.453 Y163.341 E0.00989
;WIDTH:0.687915
G1 X156.295 Y163.355 E0.0095
G1 X156.126 Y163.37 E0.0101
;WIDTH:0.66028
G1 X155.949 Y163.386 E0.01017
;WIDTH:0.629224
G1 X155.92 Y163.388 E0.00157
;WIDTH:0.598757
G1 X155.781 Y163.403 E0.00719
G1 X155.641 Y163.419 E0.00719
G1 X155.641 Y163.799 F30000
;TYPE:Solid infill
;WIDTH:0.494
G1 F3000
G1 X155.12 Y163.278 E0.0295
G1 X154.822 Y163.317 E0.01205
G1 X154.839 Y163.462 E0.00583
G1 X155.219 Y163.841 E0.0215
G1 X155.142 Y163.877 E0.0034
G1 X154.964 Y164.051 E0.00996
G1 X154.741 Y163.828 E0.01261
G1 X154.922 Y164.633 F30000
;TYPE:Gap fill
;WIDTH:0.281219
G1 F1800
G1 X154.872 Y164.726 E0.00227
;WIDTH:0.254342
G1 X154.785 Y164.889 E0.00352
G1 X154.753 Y164.982 E0.00187
;WIDTH:0.303771
G1 X154.757 Y165.118 E0.00322
;WIDTH:0.246446
G1 X154.762 Y165.269 E0.00276
G1 X154.784 Y165.468 E0.00365
;WIDTH:0.174092
G1 X154.806 Y165.666 E0.0023
G1 X154.821 Y165.777 E0.00129
;WIDTH:0.133121
G1 X154.841 Y165.929 E0.00117
;WIPE_START
G1 F24000
G1 X154.821 Y165.777 E-0.01094
;WIPE_END
G1 E-1.18906 F1800
G1 X169.428 Y161.005 F30000
G1 E1.2 F1800
;TYPE:Thin wall
;WIDTH:0.078227
G1 X169.444 Y161.058 E0.00017
;WIDTH:0.008692
G1 X169.428 Y161.005 E0.00002
;WIDTH:0.014222
G1 X169.404 Y160.924 E0.00007
;WIDTH:0.018582
G1 X169.39 Y160.843 E0.0001
;WIDTH:0.032543
G1 X169.391 Y160.761 E0.00021
;WIDTH:0.04
G1 X169.381 Y160.506 E0.00083
G1 X169.379 Y160.487 E0.00006
G1 X169.315 Y160.061 E0.00141
G1 X169.31 Y160.037 E0.00008
G1 X169.284 Y159.934 E0.00035
G1 X169.249 Y159.802 E0.00044
G1 X169.234 Y159.744 E0.0002
;WIDTH:0.0346
G1 X169.221 Y159.695 E0.00014
;WIDTH:0.0148
G1 X169.199 Y159.609 E0.00008
G1 X169.201 Y159.609 F30000
;TYPE:External perimeter
;WIDTH:0.38
G1 F1800
G1 X169.202 Y159.618 E0.0003
G1 X168.981 Y159.294 E0.01207
G1 X168.895 Y159.13 E0.00572
G1 X168.846 Y158.946 E0.00588
G1 X168.837 Y158.778 E0.00516
G1 X168.88 Y158.438 E0.01058
G1 X168.998 Y158.136 E0.00998
G1 X169.217 Y157.897 E0.00999
G1 X169.482 Y157.677 E0.01061
G1 X169.667 Y157.564 E0.00668
G1 X169.84 Y157.489 E0.00581
G1 X175.43 Y157.013 E0.17286
G1 X175.437 Y157.053 E0.00124
G1 X175.542 Y157.511 E0.01449
G1 X175.828 Y160.78 E0.10109
G1 X175.816 Y161.003 E0.00687
G1 X175.044 Y161.046 E0.02383
G1 X169.947 Y161.493 E0.15765
G1 X169.755 Y161.443 E0.00612
G1 X169.647 Y161.394 E0.00364
G1 X169.565 Y161.322 E0.00335
G1 X169.511 Y161.217 E0.00365
G1 X169.48 Y161.008 E0.0065
G1 X170.906 Y160.981 E0.04395
G1 X174.628 Y160.655 E0.1151
G1 X175.102 Y160.584 E0.01477
G1 X175.728 Y160.438 E0.0198
G1 X175.503 Y157.868 E0.07947
M73 P20 R2
G1 X174.861 Y157.833 E0.0198
G1 X174.382 Y157.846 E0.01478
G1 X170.198 Y158.212 E0.1294
G1 X169.723 Y158.282 E0.01478
G1 X169.098 Y158.429 E0.0198
G1 X169.201 Y159.609 E0.03649
G1 X169.199 Y159.609 F30000
;TYPE:Thin wall
;WIDTH:0.1332
G1 F1800
G1 X169.221 Y159.695 E0.00073
;WIDTH:0.311399
G1 X169.234 Y159.744 E0.00127
;WIDTH:0.36
G1 X169.249 Y159.802 E0.00177
G1 X169.284 Y159.934 E0.00399
G1 X169.31 Y160.037 E0.00314
G1 X169.315 Y160.061 E0.00074
G1 X169.379 Y160.487 E0.01266
G1 X169.381 Y160.506 E0.00055
G1 X169.391 Y160.761 E0.00751
;WIDTH:0.292889
G1 X169.39 Y160.843 E0.00191
;WIDTH:0.167235
G1 X169.404 Y160.924 E0.00093
;WIDTH:0.128
G1 X169.428 Y161.005 E0.00064
G1 X169.677 Y161.183 F30000
;TYPE:Gap fill
;WIDTH:0.115175
G1 F1800
G1 X169.778 Y161.221 E0.00065
;WIDTH:0.176318
G1 X169.968 Y161.244 E0.00223
;WIDTH:0.244796
G1 X170.441 Y161.219 E0.0086
;WIDTH:0.179923
G1 X170.92 Y161.194 E0.00577
G1 X172.785 Y161.03 E0.02256
G1 X174.651 Y160.866 E0.02256
G1 X174.841 Y160.844 E0.0023
;WIDTH:0.213581
G1 X175.027 Y160.822 E0.00285
G1 X175.148 Y160.81 E0.00186
G1 X175.354 Y160.78 E0.00315
;WIDTH:0.294538
G1 X175.559 Y160.751 E0.00472
G1 X175.675 Y160.737 E0.00267
;WIPE_START
G1 F24000
G1 X175.559 Y160.751 E-0.00835
G1 X175.354 Y160.78 E-0.01476
;WIPE_END
G1 E-1.17689 F1800
G1 X175.376 Y157.455 F30000
G1 E1.2 F1800
;WIDTH:0.520585
G1 X175.226 Y157.446 E0.00664
G1 X175.114 Y157.444 E0.00492
;WIDTH:0.558573
G1 X174.995 Y157.446 E0.00564
;WIDTH:0.525183
G1 X174.857 Y157.448 E0.00614
G1 X174.612 Y157.462 E0.0109
;WIDTH:0.495247
G1 X174.367 Y157.476 E0.01021
G1 X174.354 Y157.477 E0.00055
G1 X172.257 Y157.658 E0.08758
G1 X170.161 Y157.839 E0.08758
G1 X170.147 Y157.84 E0.00056
G1 X170.041 Y157.853 E0.00446
;WIDTH:0.518287
G1 X169.934 Y157.865 E0.00469
G1 X169.838 Y157.892 E0.00441
;WIDTH:0.452906
G1 X169.655 Y157.961 E0.00736
;WIDTH:0.378211
G1 X169.501 Y158.037 E0.00525
;WIDTH:0.296646
G1 X169.399 Y158.088 E0.00263
;WIDTH:0.225484
G1 X169.228 Y158.188 E0.00323
;WIDTH:0.129144
G1 X169.149 Y158.234 E0.00066
;LAYER_CHANGE
;Z:0.44
;HEIGHT:0.2
;WIPE_START
G1 F24000
G1 X169.228 Y158.188 E-0.00647
;WIPE_END
G1 E-1.19353 F1800
; stop printing object dzwignia-test2.stl id:0 copy 0
G1 Z0.44 F30000
G92 E0
M104 S235 ; set temperature
M140 S65 ; set bed temperature
; printing object dzwignia-test2.stl id:0 copy 0
G1 X160.568 Y163.555
G1 E1.2 F1800
;TYPE:Internal perimeter
;WIDTH:0.45
G1 F4450.2568
G1 X155.98 Y163.774 E0.14614
G1 X155.666 Y163.826 E0.01014
G1 X155.249 Y164.022 E0.01466
G1 X154.782 Y164.47 E0.02059
G1 X154.61 Y163.167 E0.04181
G1 X159.963 Y162.471 E0.17178
G1 X160.568 Y163.555 E0.03948
G1 X161.243 Y163.93 F30000
;TYPE:External perimeter
