; generated by SuperSlicer 2.4 on 2022-11-03 at 17:29:40 UTC


;
;

;
;
; 

; external perimeters extrusion width = 0.45mm
; perimeters extrusion width = 0.45mm
; infill extrusion width = 0.45mm
; solid infill extrusion width = 0.48mm
; top infill extrusion width = 0.42mm
; support material extrusion width = 0.45mm
; first layer extrusion width = 0.38mm

; object:{"name":"Hose_cpap_clamp_No_Bltouch","id":"Hose_cpap_clamp_No_Bltouch.stl id:0 copy 0","object_center":[165.000000,162.500000,0.000000],"boundingbox_center":[165.000000,162.500000,9.000000],"boundingbox_size":[43.995258,10.000000,18.000000]}
; plater:{"center":[165.000000,162.500000,0.000000],"boundingbox_center":[165.000000,162.500000,9.000000],"boundingbox_size":[43.995258,10.000000,18.000000]}

M73 P0 R15
;TYPE:Custom
; custom gcode: start_gcode
M104 S0 ; Stops PS/SS from sending temp waits separately
M140 S0
PRINT_START EXTRUDER_TEMP=235 BED_TEMP=66
; custom gcode end: start_gcode
M107
G21 ; set units to millimeters
G90 ; use absolute coordinates
M83 ; use relative distances for extrusion
; custom gcode: start_filament_gcode
; Filament gcode
;SET_GCODE_OFFSET Z=0
;SET_PRESSURE_ADVANCE ADVANCE=0.05
; custom gcode end: start_filament_gcode
;_TOOLCHANGE 0
;LAYER_CHANGE
;Z:0.2
;HEIGHT:0.2
G1 E-1.2 F1800
M73 P2 R14
G1 Z0.2 F30000
G92 E0
M104 S235 ; set temperature
; printing object Hose_cpap_clamp_No_Bltouch.stl id:0 copy 0
G1 X156.041 Y156.041
G1 E1.2 F1800
;TYPE:Support material
;WIDTH:0.38
G1 F1500
G1 X160.015 Y152.068 E0.14806
G1 X160.727 Y152.78 E0.02653
G1 X161.439 Y152.068 E0.02653
G1 X162.152 Y152.78 E0.02653
G1 X162.864 Y152.068 E0.02653
G1 X165 Y154.204 E0.0796
G1 X167.136 Y152.068 E0.0796
G1 X167.848 Y152.78 E0.02653
G1 X168.561 Y152.068 E0.02653
G1 X169.273 Y152.78 E0.02653
G1 X169.985 Y152.068 E0.02653
G1 X174.7 Y156.783 E0.1757
G1 X174.239 Y157.244 E0.01718
G1 X174.239 Y167.756 E0.27694
G1 X174.7 Y168.217 E0.01718
G1 X169.985 Y172.932 E0.1757
G1 X169.273 Y172.22 E0.02653
G1 X168.561 Y172.932 E0.02653
G1 X167.848 Y172.22 E0.02653
G1 X167.136 Y172.932 E0.02653
G1 X165 Y170.796 E0.0796
G1 X162.864 Y172.932 E0.0796
G1 X162.152 Y172.22 E0.02653
G1 X161.439 Y172.932 E0.02653
G1 X160.727 Y172.22 E0.02653
G1 X160.015 Y172.932 E0.02653
G1 X155.3 Y168.217 E0.1757
G1 X155.761 Y167.756 E0.01718
G1 X155.761 Y157.244 E0.27694
G1 X155.3 Y156.783 E0.01718
G1 X156.041 Y156.041 E0.02764
G1 X169.751 Y172.58 F30000
G1 F1500
G1 X174.245 Y168.086 E0.16744
G1 X174.01 Y167.851 E0.00876
G1 X174.01 Y167.791 E0.00157
G1 X169.589 Y172.212 E0.16473
G1 X169.324 Y171.947 E0.00987
G1 X174.01 Y167.261 E0.1746
G1 X174.01 Y166.732 E0.01395
G1 X168.347 Y172.395 E0.211
G1 X168.082 Y172.13 E0.00987
G1 X174.01 Y166.202 E0.22087
G1 X174.01 Y165.672 E0.01395
G1 X167.105 Y172.577 E0.25727
G1 X166.84 Y172.312 E0.00987
G1 X174.01 Y165.143 E0.26714
G1 X174.01 Y164.613 E0.01395
G1 X166.576 Y172.047 E0.27701
G1 X166.311 Y171.783 E0.00987
G1 X174.01 Y164.083 E0.28687
M73 P3 R14
G1 X174.01 Y163.554 E0.01395
G1 X166.046 Y171.518 E0.29674
G1 X165.781 Y171.253 E0.00987
G1 X174.01 Y163.024 E0.30661
G1 X174.01 Y162.494 E0.01395
G1 X165.516 Y170.988 E0.31648
G1 X165.251 Y170.723 E0.00987
G1 X174.01 Y161.965 E0.32634
G1 X174.01 Y161.435 E0.01395
G1 X162.85 Y172.595 E0.41581
G1 X162.585 Y172.33 E0.00987
G1 X174.01 Y160.905 E0.42568
G1 X174.01 Y160.376 E0.01395
G1 X162.321 Y172.065 E0.43555
G1 X162.152 Y171.896 E0.0063
G1 X161.439 Y172.608 E0.02653
G1 X161.344 Y172.512 E0.00357
G1 X174.01 Y159.846 E0.47195
G1 X174.01 Y159.316 E0.01395
G1 X161.079 Y172.248 E0.48181
G1 X160.814 Y171.983 E0.00987
G1 X174.01 Y158.787 E0.49168
G1 X174.01 Y158.257 E0.01395
G1 X159.837 Y172.43 E0.52808
G1 X159.572 Y172.165 E0.00987
G1 X174.01 Y157.727 E0.53795
G1 X174.01 Y157.198 E0.01395
G1 X159.307 Y171.9 E0.54782
G1 X159.043 Y171.635 E0.00987
G1 X174.135 Y156.543 E0.56236
M73 P4 R14
G1 X173.871 Y156.278 E0.00987
G1 X158.778 Y171.371 E0.56236
G1 X158.513 Y171.106 E0.00987
G1 X173.606 Y156.013 E0.56236
G1 X173.341 Y155.748 E0.00987
G1 X158.248 Y170.841 E0.56236
G1 X157.983 Y170.576 E0.00987
G1 X173.076 Y155.483 E0.56236
G1 X172.811 Y155.218 E0.00987
G1 X157.718 Y170.311 E0.56236
G1 X157.454 Y170.046 E0.00987
G1 X172.546 Y154.954 E0.56236
G1 X172.282 Y154.689 E0.00987
G1 X157.189 Y169.782 E0.56236
G1 X156.924 Y169.517 E0.00987
G1 X172.017 Y154.424 E0.56236
G1 X171.752 Y154.159 E0.00987
G1 X156.659 Y169.252 E0.56236
G1 X156.394 Y168.987 E0.00987
G1 X171.487 Y153.894 E0.56236
M73 P5 R14
G1 X171.222 Y153.629 E0.00987
G1 X156.129 Y168.722 E0.56236
G1 X155.865 Y168.457 E0.00987
G1 X170.957 Y153.365 E0.56236
G1 X170.693 Y153.1 E0.00987
G1 X155.99 Y167.802 E0.54782
G1 X155.99 Y167.273 E0.01395
G1 X170.428 Y152.835 E0.53795
G1 X170.163 Y152.57 E0.00987
G1 X155.99 Y166.743 E0.52808
G1 X155.99 Y166.213 E0.01395
G1 X169.186 Y153.017 E0.49168
G1 X168.921 Y152.752 E0.00987
G1 X155.99 Y165.684 E0.48181
G1 X155.99 Y165.154 E0.01395
G1 X168.656 Y152.488 E0.47195
G1 X168.561 Y152.392 E0.00357
G1 X167.848 Y153.104 E0.02653
G1 X167.679 Y152.935 E0.0063
G1 X155.99 Y164.624 E0.43555
G1 X155.99 Y164.095 E0.01395
G1 X167.415 Y152.67 E0.42568
G1 X167.15 Y152.405 E0.00987
G1 X155.99 Y163.565 E0.41581
G1 X155.99 Y163.035 E0.01395
G1 X164.749 Y154.277 E0.32634
M73 P6 R14
G1 X164.484 Y154.012 E0.00987
G1 X155.99 Y162.506 E0.31648
G1 X155.99 Y161.976 E0.01395
G1 X164.219 Y153.747 E0.30661
G1 X163.954 Y153.482 E0.00987
G1 X155.99 Y161.446 E0.29674
G1 X155.99 Y160.917 E0.01395
G1 X163.689 Y153.217 E0.28687
G1 X163.424 Y152.953 E0.00987
G1 X155.99 Y160.387 E0.27701
G1 X155.99 Y159.857 E0.01395
G1 X163.16 Y152.688 E0.26714
G1 X162.895 Y152.423 E0.00987
G1 X155.99 Y159.328 E0.25727
G1 X155.99 Y158.798 E0.01395
G1 X161.918 Y152.87 E0.22087
G1 X161.653 Y152.605 E0.00987
G1 X155.99 Y158.268 E0.211
G1 X155.99 Y157.739 E0.01395
G1 X160.676 Y153.053 E0.1746
G1 X160.411 Y152.788 E0.00987
G1 X155.99 Y157.209 E0.16473
G1 X155.99 Y157.149 E0.00157
G1 X155.755 Y156.914 E0.00876
G1 X160.249 Y152.42 E0.16744
;WIPE_START
G1 F24000
G1 X155.755 Y156.914 E-0.45282
G1 X155.99 Y157.149 E-0.02368
G1 X155.99 Y157.209 E-0.00425
G1 X160.411 Y152.788 E-0.4455
G1 X160.676 Y153.053 E-0.02669
G1 X158.819 Y154.909 E-0.18707
;WIPE_END
G1 E-0.06 F1800
G1 X179.91 Y161.517 F30000
G1 E1.2 F1800
;TYPE:Internal perimeter
G1 F1500
G1 X179.842 Y161.663 E0.00426
G1 X179.72 Y162.217 E0.01493
G1 X179.72 Y162.783 E0.01493
G1 X179.842 Y163.337 E0.01493
G1 X180.069 Y163.827 E0.01423
G1 X180.257 Y164.105 E0.00884
G1 X180.61 Y164.478 E0.01354
G1 X180.878 Y164.681 E0.00884
G1 X181.355 Y164.934 E0.01423
G1 X181.901 Y165.085 E0.01493
G1 X182.44 Y165.115 E0.01423
G1 X182.774 Y165.078 E0.00884
G1 X183.294 Y164.934 E0.01423
G1 X183.795 Y164.668 E0.01493
G1 X184.227 Y164.302 E0.01493
G1 X184.569 Y163.851 E0.01493
G1 X184.796 Y163.36 E0.01423
G1 X184.886 Y163.037 E0.00884
G1 X184.944 Y162.5 E0.01423
G1 X184.886 Y161.963 E0.01423
G1 X184.796 Y161.64 E0.00884
G1 X184.569 Y161.149 E0.01423
G1 X184.227 Y160.698 E0.01493
G1 X183.795 Y160.332 E0.01493
G1 X183.294 Y160.066 E0.01493
G1 X182.748 Y159.915 E0.01493
G1 X182.209 Y159.885 E0.01423
G1 X181.875 Y159.922 E0.00884
G1 X181.355 Y160.066 E0.01423
G1 X180.854 Y160.332 E0.01493
G1 X180.423 Y160.698 E0.01493
G1 X180.08 Y161.149 E0.01493
G1 X179.91 Y161.517 E0.01066
G1 X180.216 Y161.658 F30000
G1 F1500
G1 X180.163 Y161.772 E0.0033
G1 X180.057 Y162.253 E0.01299
G1 X180.057 Y162.747 E0.01299
G1 X180.163 Y163.228 E0.01299
G1 X180.363 Y163.66 E0.01254
G1 X180.521 Y163.893 E0.0074
G1 X180.836 Y164.226 E0.01209
G1 X181.06 Y164.396 E0.0074
G1 X181.48 Y164.619 E0.01254
G1 X181.956 Y164.751 E0.01299
G1 X182.431 Y164.776 E0.01254
G1 X182.71 Y164.746 E0.0074
G1 X183.169 Y164.619 E0.01254
G1 X183.604 Y164.388 E0.01299
G1 X183.98 Y164.068 E0.01299
G1 X184.279 Y163.676 E0.01299
G1 X184.479 Y163.244 E0.01254
G1 X184.554 Y162.973 E0.0074
G1 X184.605 Y162.5 E0.01254
G1 X184.554 Y162.027 E0.01254
G1 X184.479 Y161.756 E0.0074
G1 X184.279 Y161.324 E0.01254
G1 X183.98 Y160.932 E0.01299
G1 X183.604 Y160.612 E0.01299
G1 X183.169 Y160.381 E0.01299
G1 X182.694 Y160.249 E0.01299
G1 X182.218 Y160.223 E0.01254
G1 X181.939 Y160.254 E0.0074
G1 X181.48 Y160.381 E0.01254
G1 X181.045 Y160.612 E0.01299
G1 X180.669 Y160.932 E0.01299
G1 X180.37 Y161.324 E0.01299
G1 X180.216 Y161.658 E0.0097
G1 X180.522 Y161.8 F30000
;TYPE:External perimeter
G1 F1500
G1 X180.484 Y161.88 E0.00233
G1 X180.394 Y162.29 E0.01106
G1 X180.394 Y162.71 E0.01106
G1 X180.484 Y163.12 E0.01106
G1 X180.657 Y163.494 E0.01085
G1 X180.784 Y163.681 E0.00595
G1 X181.062 Y163.974 E0.01064
G1 X181.242 Y164.111 E0.00595
G1 X181.606 Y164.304 E0.01085
G1 X182.01 Y164.416 E0.01106
G1 X182.422 Y164.438 E0.01085
G1 X182.646 Y164.414 E0.00595
G1 X183.043 Y164.304 E0.01085
G1 X183.414 Y164.107 E0.01106
G1 X183.734 Y163.835 E0.01106
G1 X183.988 Y163.501 E0.01106
G1 X184.161 Y163.127 E0.01085
G1 X184.222 Y162.91 E0.00595
G1 X184.266 Y162.5 E0.01085
G1 X184.222 Y162.09 E0.01085
G1 X184.161 Y161.873 E0.00595
G1 X183.988 Y161.499 E0.01085
G1 X183.734 Y161.165 E0.01106
G1 X183.414 Y160.893 E0.01106
G1 X183.043 Y160.696 E0.01106
G1 X182.639 Y160.584 E0.01106
G1 X182.227 Y160.562 E0.01085
G1 X182.003 Y160.586 E0.00595
G1 X181.606 Y160.696 E0.01085
G1 X181.235 Y160.893 E0.01106
G1 X180.915 Y161.165 E0.01106
G1 X180.661 Y161.499 E0.01106
G1 X180.522 Y161.8 E0.00873
;WIPE_START
G1 X180.123 Y161.836 F30000
;WIPE_END
;WIPE_START
G1 F24000
G1 X180.194 Y162.268 E-0.03123
G1 X180.194 Y162.732 E-0.03302
G1 X180.294 Y163.184 E-0.03301
G1 X180.483 Y163.593 E-0.03206
G1 X180.628 Y163.807 E-0.01842
G1 X180.928 Y164.124 E-0.03111
G1 X181.134 Y164.28 E-0.01842
G1 X181.531 Y164.491 E-0.03206
G1 X181.978 Y164.615 E-0.03301
G1 X182.427 Y164.639 E-0.03206
G1 X182.684 Y164.611 E-0.01842
G1 X183.118 Y164.491 E-0.03206
G1 X183.527 Y164.274 E-0.03302
G1 X183.88 Y163.974 E-0.03302
G1 X184.161 Y163.605 E-0.03302
G1 X184.35 Y163.196 E-0.03206
G1 X184.419 Y162.947 E-0.01841
G1 X184.467 Y162.5 E-0.03206
G1 X184.419 Y162.053 E-0.03206
G1 X184.35 Y161.804 E-0.01841
G1 X184.161 Y161.395 E-0.03206
G1 X183.88 Y161.026 E-0.03302
G1 X183.527 Y160.726 E-0.03301
G1 X183.118 Y160.509 E-0.03302
G1 X182.671 Y160.385 E-0.03301
G1 X182.222 Y160.361 E-0.03206
G1 X181.965 Y160.389 E-0.01842
G1 X181.531 Y160.509 E-0.03206
G1 X181.122 Y160.726 E-0.03302
G1 X180.769 Y161.026 E-0.03301
G1 X180.488 Y161.395 E-0.03302
;WIPE_END
G1 E-0.27736 F1800
G1 X175.962 Y158.464 F30000
G1 E1.2 F1800
;TYPE:Internal perimeter
G1 F1500
G1 X181.975 Y158.464 E0.15843
G1 X182.51 Y158.497 E0.01413
G1 X182.727 Y158.531 E0.00577
G1 X183.223 Y158.656 E0.01348
G1 X183.686 Y158.835 E0.01309
G1 X184.137 Y159.077 E0.01348
G1 X184.319 Y159.198 E0.00577
G1 X184.718 Y159.519 E0.01348
G1 X185.063 Y159.875 E0.01309
G1 X185.363 Y160.272 E0.01309
G1 X185.611 Y160.702 E0.01309
M73 P6 R13
G1 X185.805 Y161.159 E0.01309
G1 X185.941 Y161.637 E0.01309
G1 X186.017 Y162.128 E0.01309
G1 X186.032 Y162.624 E0.01309
G1 X185.986 Y163.119 E0.01309
G1 X185.877 Y163.619 E0.01348
G1 X185.81 Y163.827 E0.00576
G1 X185.611 Y164.298 E0.01348
G1 X185.363 Y164.728 E0.01309
G1 X185.054 Y165.136 E0.01348
G1 X184.897 Y165.309 E0.00616
G1 X184.729 Y165.472 E0.00616
G1 X184.331 Y165.793 E0.01348
G1 X183.896 Y166.062 E0.01348
G1 X183.7 Y166.159 E0.00576
G1 X183.223 Y166.344 E0.01348
G1 X182.727 Y166.469 E0.01348
G1 X182.511 Y166.503 E0.00576
G1 X181.97 Y166.536 E0.01426
G1 X175.962 Y166.536 E0.1583
G1 X175.962 Y158.464 E0.21266
G1 X175.625 Y158.127 F30000
G1 F1500
G1 X181.986 Y158.127 E0.16759
M73 P7 R13
G1 X182.547 Y158.162 E0.01481
G1 X182.794 Y158.2 E0.00659
G1 X183.325 Y158.334 E0.01444
G1 X183.827 Y158.528 E0.01418
G1 X184.31 Y158.788 E0.01444
G1 X184.518 Y158.926 E0.00659
G1 X184.945 Y159.269 E0.01444
G1 X185.32 Y159.656 E0.01418
G1 X185.644 Y160.085 E0.01418
G1 X185.913 Y160.551 E0.01418
G1 X186.123 Y161.047 E0.01418
G1 X186.271 Y161.565 E0.01418
G1 X186.353 Y162.097 E0.01418
G1 X186.37 Y162.635 E0.01418
G1 X186.32 Y163.171 E0.01418
G1 X186.203 Y163.706 E0.01444
G1 X186.127 Y163.944 E0.00659
G1 X185.913 Y164.449 E0.01444
G1 X185.644 Y164.915 E0.01418
G1 X185.314 Y165.352 E0.01444
G1 X185.139 Y165.544 E0.00684
G1 X184.953 Y165.725 E0.00684
G1 X184.526 Y166.068 E0.01444
G1 X184.06 Y166.357 E0.01444
G1 X183.836 Y166.468 E0.00659
G1 X183.325 Y166.666 E0.01444
G1 X182.794 Y166.8 E0.01444
G1 X182.547 Y166.838 E0.00659
G1 X181.981 Y166.873 E0.01495
G1 X175.625 Y166.873 E0.16745
G1 X175.625 Y158.127 E0.23042
G1 X175.465 Y157.79 F30000
;TYPE:External perimeter
G1 F1500
G1 X181.996 Y157.79 E0.17207
G1 X182.583 Y157.827 E0.0155
G1 X182.861 Y157.87 E0.00741
G1 X183.428 Y158.012 E0.01539
G1 X183.968 Y158.222 E0.01528
G1 X184.483 Y158.498 E0.01539
G1 X184.718 Y158.653 E0.00741
G1 X185.173 Y159.02 E0.01539
G1 X185.576 Y159.436 E0.01528
G1 X185.926 Y159.899 E0.01528
G1 X186.216 Y160.401 E0.01528
G1 X186.442 Y160.935 E0.01528
G1 X186.6 Y161.492 E0.01528
G1 X186.689 Y162.065 E0.01528
G1 X186.707 Y162.645 E0.01528
G1 X186.654 Y163.222 E0.01528
G1 X186.529 Y163.793 E0.01539
G1 X186.443 Y164.061 E0.00741
G1 X186.216 Y164.599 E0.01539
G1 X185.926 Y165.101 E0.01528
G1 X185.574 Y165.568 E0.01539
G1 X185.381 Y165.779 E0.00753
G1 X185.176 Y165.978 E0.00752
G1 X184.721 Y166.344 E0.01539
G1 X184.224 Y166.651 E0.01539
G1 X183.973 Y166.777 E0.00741
G1 X183.428 Y166.988 E0.0154
G1 X182.861 Y167.13 E0.01539
G1 X182.583 Y167.173 E0.00741
G1 X181.991 Y167.21 E0.01563
G1 X175.288 Y167.21 E0.17661
G1 X175.288 Y157.79 E0.24818
G1 X175.465 Y157.79 E0.00467
;WIPE_START
G1 X175.665 Y158.136 F30000
;WIPE_END
;WIPE_START
G1 F24000
G1 X181.99 Y157.99 E-0.45078
G1 X182.562 Y158.026 E-0.04081
G1 X182.821 Y158.066 E-0.01872
G1 X183.367 Y158.203 E-0.04009
G1 X183.885 Y158.404 E-0.03956
G1 X184.38 Y158.67 E-0.04009
G1 X184.599 Y158.815 E-0.01871
G1 X185.038 Y159.168 E-0.04009
G1 X185.424 Y159.566 E-0.03956
G1 X185.759 Y160.009 E-0.03955
G1 X186.036 Y160.49 E-0.03956
G1 X186.253 Y161.001 E-0.03956
G1 X186.405 Y161.535 E-0.03955
G1 X186.49 Y162.084 E-0.03956
G1 X186.507 Y162.639 E-0.03956
G1 X186.456 Y163.192 E-0.03955
G1 X186.335 Y163.741 E-0.0401
G1 X186.256 Y163.992 E-0.01871
G1 X186.036 Y164.51 E-0.0401
G1 X185.785 Y164.945 E-0.0358
;WIPE_END
G1 E-0.06 F1800
G1 X183.917 Y159.087 F30000
G1 E1.2 F1800
;TYPE:Solid infill
;WIDTH:0.382428
G1 F2100
G1 X184.893 Y160.063 E0.03659
G1 X185.389 Y160.812 E0.02384
G1 X185.511 Y161.158 E0.00972
G1 X183.328 Y158.975 E0.08185
G1 X183.151 Y158.894 E0.00517
G1 X182.701 Y158.825 E0.01209
G1 X185.712 Y161.836 E0.11291
G1 X185.761 Y162.361 E0.01399
G1 X185.015 Y161.615 E0.02797
G1 X185.127 Y161.904 E0.00822
G1 X185.164 Y162.241 E0.00898
G1 X185.745 Y162.823 E0.02181
G1 X185.671 Y163.225 E0.01085
G1 X185.168 Y162.722 E0.01888
G1 X185.127 Y163.096 E0.00998
G1 X185.11 Y163.14 E0.00127
G1 X185.597 Y163.628 E0.01827
G1 X185.575 Y163.748 E0.00326
G1 X185.464 Y163.971 E0.0066
G1 X184.976 Y163.484 E0.01829
G1 X184.843 Y163.827 E0.00976
G1 X185.306 Y164.29 E0.01737
G1 X185.154 Y164.595 E0.00904
G1 X185.145 Y164.606 E0.00038
G1 X184.667 Y164.128 E0.01792
G1 X184.462 Y164.399 E0.00902
G1 X184.933 Y164.871 E0.01769
G1 X184.721 Y165.135 E0.00899
G1 X184.218 Y164.632 E0.01887
G1 X183.96 Y164.851 E0.00897
G1 X184.464 Y165.355 E0.01891
G1 X184.207 Y165.575 E0.00897
G1 X183.654 Y165.022 E0.02074
G1 X183.386 Y165.164 E0.00805
G1 X183.334 Y165.178 E0.00143
G1 X183.909 Y165.753 E0.02156
G1 X183.608 Y165.928 E0.00925
G1 X182.961 Y165.282 E0.02425
G1 X182.808 Y165.324 E0.0042
G1 X182.529 Y165.326 E0.00741
G1 X183.248 Y166.045 E0.02695
G1 X182.886 Y166.16 E0.01006
G1 X181.912 Y165.186 E0.03652
;WIPE_START
G1 F24000
G1 X182.886 Y166.16 E-0.09813
G1 X183.248 Y166.045 E-0.02704
G1 X182.529 Y165.326 E-0.07243
G1 X182.808 Y165.324 E-0.01992
G1 X182.961 Y165.282 E-0.01128
G1 X183.608 Y165.928 E-0.06517
G1 X183.909 Y165.753 E-0.02484
G1 X183.334 Y165.178 E-0.05795
G1 X183.386 Y165.164 E-0.00384
G1 X183.654 Y165.022 E-0.02162
G1 X184.207 Y165.575 E-0.05573
G1 X184.464 Y165.355 E-0.02409
G1 X183.96 Y164.851 E-0.05081
G1 X184.218 Y164.632 E-0.0241
G1 X184.721 Y165.135 E-0.05072
