; generated by SuperSlicer 2.4 on 2022-11-03 at 17:37:01 UTC


;
;

;
;
; 

; external perimeters extrusion width = 0.45mm
; perimeters extrusion width = 0.45mm
; infill extrusion width = 0.45mm
; solid infill extrusion width = 0.48mm
; top infill extrusion width = 0.42mm
; support material extrusion width = 0.45mm
; first layer extrusion width = 0.38mm

; object:{"name":"Hose_Clamp","id":"Hose_Clamp.stl id:0 copy 0","object_center":[163.043491,160.267216,0.000000],"boundingbox_center":[163.043491,160.267216,5.000000],"boundingbox_size":[44.000000,12.997696,10.000000]}
; plater:{"center":[163.043491,160.267216,0.000000],"boundingbox_center":[163.043491,160.267216,5.000000],"boundingbox_size":[44.000000,12.997696,10.000000]}

M73 P0 R5
;TYPE:Custom
; custom gcode: start_gcode
M104 S0 ; Stops PS/SS from sending temp waits separately
M140 S0
PRINT_START EXTRUDER_TEMP=235 BED_TEMP=66
; custom gcode end: start_gcode
M107
G21 ; set units to millimeters
G90 ; use absolute coordinates
M83 ; use relative distances for extrusion
; custom gcode: start_filament_gcode
; Filament gcode
;SET_GCODE_OFFSET Z=0
;SET_PRESSURE_ADVANCE ADVANCE=0.05
; custom gcode end: start_filament_gcode
;_TOOLCHANGE 0
;LAYER_CHANGE
;Z:0.2
;HEIGHT:0.2
G1 E-1.2 F1800
M73 P6 R5
G1 Z0.2 F30000
G92 E0
M104 S235 ; set temperature
; printing object Hose_Clamp.stl id:0 copy 0
G1 X143.601 Y156.872
G1 E1.2 F1800
;TYPE:Support material interface
;WIDTH:0.38
G1 F1500
G1 X144.116 Y157.387 E0.01917
G1 X144.61 Y157.387 E0.01302
G1 X143.816 Y158.18 E0.02956
G1 X143.055 Y157.419 E0.02838
G1 X143.478 Y156.995 E0.01578
G1 X143.601 Y156.872 E0.00458
G1 X143.881 Y157.271 F30000
G1 F1500
G1 X143.527 Y157.271 E0.00932
G1 X143.379 Y157.419 E0.00551
G1 X143.606 Y157.645 E0.00845
G1 X144.232 Y157.645 E0.0165
G1 X143.724 Y156.664 F30000
G1 F1500
G1 X143.389 Y156.329 E0.01247
G1 X143.055 Y155.995 E0.01247
G1 X143.389 Y155.66 E0.01247
G1 X143.724 Y155.325 E0.01247
G1 X143.724 Y156.664 E0.03527
G1 X143.724 Y155.24 F30000
G1 F1500
G1 X143.501 Y155.016 E0.00831
G1 X143.055 Y154.57 E0.01663
G1 X143.389 Y154.236 E0.01247
G1 X143.724 Y153.901 E0.01247
G1 X143.724 Y155.24 E0.03527
G1 X143.64 Y154.649 F30000
G1 F1500
G1 X143.253 Y154.649 E0.01019
G1 X143.587 Y153.678 F30000
G1 F1500
G1 X143.055 Y153.146 E0.01983
G1 X143.816 Y152.384 E0.02838
G1 X144.582 Y153.15 E0.02852
G1 X144.116 Y153.15 E0.01228
G1 X143.587 Y153.678 E0.01969
G1 X144.089 Y152.777 F30000
G1 F1500
G1 X143.749 Y152.777 E0.00898
G1 X143.379 Y153.146 E0.01377
G1 X143.384 Y153.151 E0.00019
G1 X143.995 Y153.151 E0.01611
;WIPE_START
G1 F24000
G1 X143.384 Y153.151 E-0.04355
G1 X143.379 Y153.146 E-0.00051
G1 X143.749 Y152.777 E-0.03723
G1 X144.089 Y152.777 E-0.02429
;WIPE_END
G1 E-1.09442 F1800
G1 X181.477 Y157.387 F30000
G1 E1.2 F1800
G1 F1500
G1 X181.971 Y157.387 E0.01302
G1 X182.486 Y156.872 E0.01917
G1 X183.032 Y157.419 E0.02036
G1 X182.271 Y158.18 E0.02838
G1 X181.477 Y157.387 E0.02956
G1 X182.765 Y157.271 F30000
G1 F1500
G1 X182.411 Y157.271 E0.00932
G1 X182.066 Y157.616 E0.01286
G1 X182.03 Y157.616 E0.00094
G1 X182.06 Y157.645 E0.00109
G1 X182.686 Y157.645 E0.0165
G1 X182.363 Y156.664 F30000
G1 F1500
G1 X182.363 Y155.325 E0.03527
G1 X182.697 Y155.66 E0.01247
G1 X183.032 Y155.995 E0.01247
G1 X182.697 Y156.329 E0.01247
G1 X182.363 Y156.664 E0.01247
G1 X182.363 Y155.24 F30000
G1 F1500
G1 X182.363 Y153.901 E0.03527
G1 X182.697 Y154.236 E0.01247
G1 X183.032 Y154.57 E0.01247
G1 X182.586 Y155.016 E0.01663
G1 X182.363 Y155.24 E0.00831
G1 X182.834 Y154.649 F30000
G1 F1500
G1 X182.447 Y154.649 E0.01019
G1 X182.5 Y153.678 F30000
G1 F1500
G1 X181.971 Y153.15 E0.01969
G1 X181.505 Y153.15 E0.01228
G1 X182.271 Y152.384 E0.02852
G1 X183.032 Y153.146 E0.02838
G1 X182.5 Y153.678 E0.01983
G1 X182.543 Y152.777 F30000
G1 F1500
G1 X182.203 Y152.777 E0.00898
G1 X182.062 Y152.917 E0.00522
G1 X182.297 Y153.151 E0.00873
G1 X182.908 Y153.151 E0.01611
;WIPE_START
G1 F24000
G1 X182.297 Y153.151 E-0.04355
G1 X182.062 Y152.917 E-0.02361
G1 X182.203 Y152.777 E-0.01413
G1 X182.543 Y152.777 E-0.02429
;WIPE_END
G1 E-1.09442 F1800
G1 X146.416 Y153.01 F30000
M73 P7 R5
G1 E1.2 F1800
;TYPE:Support material
G1 F1500
G1 X145.187 Y153.01 E0.03236
G1 X143.816 Y151.639 E0.05108
G1 X142.309 Y153.146 E0.05616
G1 X143.021 Y153.858 E0.02653
G1 X142.309 Y154.57 E0.02653
G1 X143.021 Y155.282 E0.02653
G1 X142.309 Y155.995 E0.02653
G1 X143.021 Y156.707 E0.02653
G1 X142.309 Y157.419 E0.02653
G1 X143.816 Y158.926 E0.05616
G1 X145.215 Y157.527 E0.05213
G1 X146.444 Y157.527 E0.03236
G1 X142.817 Y161.154 E0.13515
G1 X138.369 Y156.707 E0.16571
G1 X139.081 Y155.995 E0.02653
G1 X138.369 Y155.282 E0.02653
G1 X139.081 Y154.57 E0.02653
G1 X138.369 Y153.858 E0.02653
G1 X142.817 Y149.411 E0.16571
G1 X146.416 Y153.01 E0.1341
;WIPE_START
G1 F24000
G1 X145.187 Y153.01 E-0.08752
G1 X143.816 Y151.639 E-0.13814
G1 X142.309 Y153.146 E-0.15187
G1 X142.309 Y153.146 E-0
G1 X143.021 Y153.858 E-0.07175
G1 X142.309 Y154.57 E-0.07175
G1 X142.309 Y154.57 E-0
G1 X143.021 Y155.282 E-0.07175
G1 X143.021 Y155.282 E-0
G1 X142.309 Y155.995 E-0.07175
G1 X143.021 Y156.707 E-0.07175
G1 X142.309 Y157.419 E-0.07175
G1 X143.816 Y158.926 E-0.15187
G1 X145.215 Y157.527 E-0.14097
G1 X145.765 Y157.527 E-0.03912
;WIPE_END
G1 E-0.06 F1800
G1 X145.572 Y157.611 F30000
G1 E1.2 F1800
G1 F1500
G1 X142.585 Y160.598 E0.1113
G1 X142.32 Y160.334 E0.00987
G1 X143.61 Y159.044 E0.04806
G1 X143.345 Y158.779 E0.00987
G1 X142.055 Y160.069 E0.04806
G1 X141.79 Y159.804 E0.00987
G1 X143.08 Y158.514 E0.04806
G1 X142.816 Y158.249 E0.00987
G1 X141.526 Y159.539 E0.04806
G1 X141.261 Y159.274 E0.00987
G1 X142.551 Y157.984 E0.04806
G1 X142.286 Y157.719 E0.00987
G1 X140.996 Y159.009 E0.04806
G1 X140.731 Y158.745 E0.00987
G1 X142.021 Y157.455 E0.04806
G1 X141.985 Y157.419 E0.00134
G1 X142.697 Y156.707 E0.02653
G1 X142.468 Y156.478 E0.00853
G1 X140.466 Y158.48 E0.0746
G1 X140.201 Y158.215 E0.00987
G1 X142.203 Y156.213 E0.0746
M73 P8 R5
G1 X141.985 Y155.995 E0.00813
G1 X142.697 Y155.282 E0.02653
G1 X142.651 Y155.236 E0.00173
G1 X139.937 Y157.95 E0.10113
G1 X139.672 Y157.685 E0.00987
G1 X142.386 Y154.971 E0.10113
G1 X142.121 Y154.706 E0.00987
G1 X139.407 Y157.42 E0.10113
G1 X139.142 Y157.156 E0.00987
G1 X142.568 Y153.729 E0.12766
G1 X142.304 Y153.464 E0.00987
G1 X138.877 Y156.891 E0.12766
G1 X138.693 Y156.707 E0.00686
G1 X139.405 Y155.995 E0.02653
G1 X139.324 Y155.914 E0.00301
G1 X144.16 Y151.078 E0.18017
M73 P8 R4
G1 X144.425 Y151.343 E0.00987
G1 X144.135 Y151.633 E0.01081
G1 X144.4 Y151.898 E0.00987
G1 X144.69 Y151.608 E0.01081
G1 X144.955 Y151.873 E0.00987
G1 X144.665 Y152.163 E0.01081
G1 X144.929 Y152.428 E0.00987
G1 X145.219 Y152.138 E0.01081
G1 X145.484 Y152.402 E0.00987
G1 X145.194 Y152.692 E0.01081
G1 X145.282 Y152.781 E0.00328
G1 X145.636 Y152.781 E0.00931
G1 X145.851 Y152.565 E0.00804
;WIPE_START
G1 F24000
G1 X145.636 Y152.781 E-0.02175
G1 X145.282 Y152.781 E-0.02518
G1 X145.194 Y152.692 E-0.00888
G1 X145.484 Y152.402 E-0.02922
G1 X145.219 Y152.138 E-0.02669
G1 X144.929 Y152.428 E-0.02922
G1 X144.665 Y152.163 E-0.02669
G1 X144.955 Y151.873 E-0.02922
G1 X144.69 Y151.608 E-0.02669
G1 X144.4 Y151.898 E-0.02922
G1 X144.135 Y151.633 E-0.02669
G1 X144.425 Y151.343 E-0.02922
G1 X144.16 Y151.078 E-0.02669
G1 X139.324 Y155.914 E-0.48724
G1 X139.405 Y155.995 E-0.00813
G1 X138.693 Y156.707 E-0.07175
G1 X138.877 Y156.891 E-0.01855
G1 X141.051 Y154.717 E-0.21899
;WIPE_END
G1 E-0.06 F1800
G1 X138.957 Y155.751 F30000
G1 E1.2 F1800
G1 F1500
G1 X143.895 Y150.813 E0.18399
G1 X143.63 Y150.549 E0.00987
G1 X138.795 Y155.384 E0.18017
G1 X138.693 Y155.282 E0.00379
G1 X139.405 Y154.57 E0.02653
G1 X139.242 Y154.407 E0.00608
G1 X143.365 Y150.284 E0.15364
G1 X143.101 Y150.019 E0.00987
G1 X138.977 Y154.142 E0.15364
G1 X138.712 Y153.878 E0.00987
G1 X142.938 Y149.652 E0.15746
;WIPE_START
M73 P9 R4
G1 F24000
G1 X138.712 Y153.878 E-0.42581
G1 X138.977 Y154.142 E-0.02669
G1 X143.101 Y150.019 E-0.41548
G1 X143.365 Y150.284 E-0.02669
G1 X140.931 Y152.719 E-0.24533
;WIPE_END
G1 E-0.06 F1800
G1 X179.671 Y153.01 F30000
G1 E1.2 F1800
G1 F1500
G1 X183.27 Y149.411 E0.1341
G1 X187.718 Y153.858 E0.16571
G1 X187.006 Y154.57 E0.02653
G1 X187.718 Y155.282 E0.02653
G1 X187.006 Y155.995 E0.02653
G1 X187.718 Y156.707 E0.02653
G1 X183.27 Y161.154 E0.16571
G1 X179.643 Y157.527 E0.13515
G1 X180.872 Y157.527 E0.03236
G1 X182.271 Y158.926 E0.05213
G1 X183.778 Y157.419 E0.05616
G1 X183.066 Y156.707 E0.02653
G1 X183.778 Y155.995 E0.02653
G1 X183.066 Y155.282 E0.02653
G1 X183.778 Y154.57 E0.02653
G1 X183.066 Y153.858 E0.02653
G1 X183.778 Y153.146 E0.02653
G1 X182.271 Y151.639 E0.05616
G1 X180.9 Y153.01 E0.05108
G1 X179.671 Y153.01 E0.03236
;WIPE_START
G1 F24000
G1 X183.27 Y149.411 E-0.36266
G1 X187.718 Y153.858 E-0.44815
G1 X187.006 Y154.57 E-0.07175
G1 X187.718 Y155.282 E-0.07175
G1 X187.006 Y155.995 E-0.07175
G1 X187.718 Y156.707 E-0.07175
G1 X187.3 Y157.125 E-0.04217
;WIPE_END
G1 E-0.06 F1800
G1 X183.102 Y160.866 F30000
G1 E1.2 F1800
G1 F1500
G1 X187.328 Y156.64 E0.15746
G1 X187.063 Y156.375 E0.00987
G1 X182.939 Y160.499 E0.15364
G1 X182.674 Y160.234 E0.00987
G1 X186.798 Y156.111 E0.15364
G1 X186.682 Y155.995 E0.00433
G1 X187.394 Y155.282 E0.02653
M73 P10 R4
G1 X187.245 Y155.134 E0.00554
G1 X182.41 Y159.969 E0.18017
G1 X182.145 Y159.704 E0.00987
G1 X186.98 Y154.869 E0.18017
G1 X186.715 Y154.604 E0.00987
G1 X181.88 Y159.439 E0.18017
G1 X181.615 Y159.175 E0.00987
G1 X181.905 Y158.885 E0.01081
G1 X181.64 Y158.62 E0.00987
G1 X181.35 Y158.91 E0.01081
G1 X181.085 Y158.645 E0.00987
G1 X181.375 Y158.355 E0.01081
G1 X181.111 Y158.09 E0.00987
G1 X180.821 Y158.38 E0.01081
G1 X180.556 Y158.115 E0.00987
G1 X180.846 Y157.825 E0.01081
G1 X180.777 Y157.756 E0.00258
G1 X180.385 Y157.756 E0.01031
G1 X180.188 Y157.953 E0.00733
;WIPE_START
G1 F24000
G1 X180.385 Y157.756 E-0.01984
G1 X180.777 Y157.756 E-0.02788
G1 X180.846 Y157.825 E-0.00697
G1 X180.556 Y158.115 E-0.02922
G1 X180.821 Y158.38 E-0.02669
G1 X181.111 Y158.09 E-0.02922
G1 X181.375 Y158.355 E-0.02669
G1 X181.085 Y158.645 E-0.02922
G1 X181.35 Y158.91 E-0.02669
G1 X181.64 Y158.62 E-0.02922
G1 X181.905 Y158.885 E-0.02669
G1 X181.615 Y159.175 E-0.02922
G1 X181.88 Y159.439 E-0.02669
G1 X186.715 Y154.604 E-0.48724
G1 X186.98 Y154.869 E-0.02669
G1 X184.084 Y157.765 E-0.29186
;WIPE_END
G1 E-0.06 F1800
G1 X183.634 Y157.156 F30000
G1 E1.2 F1800
G1 F1500
G1 X187.163 Y153.627 E0.13148
G1 X186.898 Y153.362 E0.00987
G1 X183.472 Y156.789 E0.12766
G1 X183.39 Y156.707 E0.00305
G1 X184.102 Y155.995 E0.02653
G1 X183.919 Y155.812 E0.00682
G1 X186.633 Y153.097 E0.10113
G1 X186.368 Y152.833 E0.00987
G1 X183.654 Y155.547 E0.10113
G1 X183.39 Y155.282 E0.00985
G1 X184.101 Y154.57 E0.02653
G1 X186.103 Y152.568 E0.0746
G1 X185.839 Y152.303 E0.00987
G1 X183.836 Y154.305 E0.0746
G1 X183.572 Y154.04 E0.00987
G1 X185.574 Y152.038 E0.0746
G1 X185.309 Y151.773 E0.00987
G1 X184.019 Y153.063 E0.04806
G1 X183.754 Y152.798 E0.00987
G1 X185.044 Y151.508 E0.04806
G1 X184.779 Y151.244 E0.00987
G1 X183.489 Y152.534 E0.04806
G1 X183.224 Y152.269 E0.00987
G1 X184.514 Y150.979 E0.04806
G1 X184.25 Y150.714 E0.00987
G1 X182.96 Y152.004 E0.04806
G1 X182.695 Y151.739 E0.00987
G1 X183.985 Y150.449 E0.04806
G1 X183.72 Y150.184 E0.00987
G1 X182.43 Y151.474 E0.04806
G1 X182.271 Y151.315 E0.00594
M73 P11 R4
G1 X180.805 Y152.781 E0.05462
G1 X180.594 Y152.781 E0.00556
G1 X183.558 Y149.817 E0.11043
;WIPE_START
G1 F24000
G1 X180.594 Y152.781 E-0.29863
G1 X180.805 Y152.781 E-0.01502
G1 X182.271 Y151.315 E-0.1477
G1 X182.43 Y151.474 E-0.01606
G1 X183.72 Y150.184 E-0.12998
G1 X183.985 Y150.449 E-0.02669
G1 X182.695 Y151.739 E-0.12998
G1 X182.96 Y152.004 E-0.02669
G1 X184.25 Y150.714 E-0.12998
G1 X184.514 Y150.979 E-0.02669
G1 X183.224 Y152.269 E-0.12998
G1 X183.489 Y152.534 E-0.02669
G1 X183.846 Y152.177 E-0.03591
;WIPE_END
G1 E-0.06 F1800
G1 X174.959 Y155.804 F30000
G1 E1.2 F1800
;TYPE:Internal perimeter
G1 F1500
G1 X174.509 Y157.428 E0.04441
G1 X174.369 Y157.841 E0.01147
G1 X174.026 Y158.69 E0.02413
G1 X173.62 Y159.511 E0.02413
G1 X173.406 Y159.89 E0.01147
G1 X172.91 Y160.66 E0.02413
G1 X172.363 Y161.384 E0.02389
G1 X171.763 Y162.064 E0.0239
G1 X171.113 Y162.697 E0.02389
G1 X170.414 Y163.283 E0.02405
G1 X169.686 Y163.805 E0.02358
G1 X168.906 Y164.279 E0.02405
G1 X168.09 Y164.695 E0.02413
G1 X167.691 Y164.87 E0.01147
G1 X166.833 Y165.191 E0.02414
G1 X165.962 Y165.444 E0.0239
G1 X165.075 Y165.631 E0.02389
G1 X164.176 Y165.75 E0.0239
G1 X163.261 Y165.802 E0.02413
G1 X162.826 Y165.802 E0.01147
G1 X161.911 Y165.75 E0.02414
G1 X161.012 Y165.631 E0.0239
G1 X160.125 Y165.444 E0.02389
G1 X159.254 Y165.191 E0.0239
G1 X158.404 Y164.873 E0.0239
G1 X157.573 Y164.489 E0.02413
G1 X157.189 Y164.284 E0.01147
G1 X156.406 Y163.808 E0.02413
G1 X155.669 Y163.279 E0.02389
G1 X154.974 Y162.697 E0.0239
G1 X154.324 Y162.064 E0.02389
G1 X153.724 Y161.384 E0.0239
G1 X153.177 Y160.66 E0.02389
G1 X152.686 Y159.898 E0.02389
G1 X152.254 Y159.101 E0.0239
G1 X151.883 Y158.273 E0.02389
G1 X151.576 Y157.42 E0.0239
G1 X151.128 Y155.804 E0.04417
G1 X146.022 Y155.804 E0.13451
G1 X146.022 Y154.733 E0.02824
G1 X152.131 Y154.733 E0.16095
G1 X152.17 Y155.18 E0.01184
G1 X152.331 Y156.11 E0.02486
G1 X152.572 Y157.022 E0.02486
G1 X152.891 Y157.91 E0.02486
G1 X153.284 Y158.767 E0.02486
G1 X153.75 Y159.588 E0.02486
G1 X154.285 Y160.365 E0.02486
G1 X154.884 Y161.094 E0.02486
G1 X155.544 Y161.768 E0.02486
G1 X156.26 Y162.383 E0.02486
G1 X157.025 Y162.934 E0.02486
G1 X157.836 Y163.418 E0.02486
G1 X158.684 Y163.83 E0.02486
G1 X159.565 Y164.167 E0.02486
G1 X160.472 Y164.428 E0.02486
G1 X161.388 Y164.607 E0.02458
G1 X161.876 Y164.671 E0.01298
G1 X162.797 Y164.73 E0.02431
G1 X163.29 Y164.73 E0.01298
G1 X164.211 Y164.671 E0.02431
G1 X164.699 Y164.607 E0.01298
G1 X165.615 Y164.428 E0.02458
M73 P12 R4
G1 X166.522 Y164.167 E0.02486
G1 X167.403 Y163.83 E0.02486
G1 X168.242 Y163.422 E0.02458
G1 X168.67 Y163.179 E0.01298
G1 X169.45 Y162.667 E0.02458
G1 X170.183 Y162.09 E0.02458
G1 X170.55 Y161.761 E0.01298
G1 X171.203 Y161.094 E0.02458
G1 X171.802 Y160.365 E0.02486
G1 X172.337 Y159.588 E0.02486
G1 X172.798 Y158.776 E0.02458
G1 X173.008 Y158.343 E0.0127
G1 X173.2 Y157.9 E0.01271
G1 X173.515 Y157.022 E0.02458
G1 X173.756 Y156.11 E0.02486
G1 X173.918 Y155.177 E0.02494
G1 X173.952 Y154.733 E0.01174
G1 X180.065 Y154.733 E0.16106
G1 X180.065 Y155.804 E0.02824
G1 X174.959 Y155.804 E0.13451
G1 X175.216 Y156.141 F30000
G1 F1500
G1 X174.831 Y157.528 E0.03791
G1 X174.685 Y157.958 E0.01197
G1 X174.334 Y158.828 E0.02472
G1 X173.918 Y159.669 E0.02472
G1 X173.694 Y160.065 E0.01197
G1 X173.186 Y160.854 E0.02472
G1 X172.624 Y161.597 E0.02456
G1 X172.007 Y162.297 E0.02457
G1 X171.34 Y162.947 E0.02456
G1 X170.62 Y163.55 E0.02472
G1 X170.251 Y163.825 E0.01213
G1 X169.872 Y164.086 E0.01213
G1 X169.07 Y164.574 E0.02472
G1 X168.234 Y165 E0.02472
G1 X167.818 Y165.183 E0.01197
G1 X166.94 Y165.511 E0.02472
G1 X166.044 Y165.771 E0.02457
G1 X165.132 Y165.963 E0.02456
G1 X164.208 Y166.086 E0.02456
G1 X163.271 Y166.139 E0.02472
G1 X162.816 Y166.139 E0.01197
G1 X161.879 Y166.086 E0.02472
G1 X160.955 Y165.963 E0.02456
G1 X160.043 Y165.771 E0.02456
G1 X159.147 Y165.511 E0.02457
G1 X158.274 Y165.185 E0.02456
G1 X157.423 Y164.791 E0.02472
G1 X157.022 Y164.577 E0.01197
G1 X156.22 Y164.089 E0.02472
G1 X155.462 Y163.546 E0.02456
G1 X154.747 Y162.947 E0.02457
G1 X154.08 Y162.297 E0.02456
G1 X153.463 Y161.597 E0.02457
G1 X152.901 Y160.854 E0.02456
G1 X152.396 Y160.07 E0.02456
G1 X151.952 Y159.25 E0.02457
G1 X151.57 Y158.399 E0.02456
G1 X151.254 Y157.522 E0.02456
G1 X150.871 Y156.141 E0.03775
G1 X145.685 Y156.141 E0.13664
G1 X145.685 Y154.395 E0.046
G1 X152.44 Y154.395 E0.17798
G1 X152.504 Y155.137 E0.0196
G1 X152.661 Y156.038 E0.02409
G1 X152.894 Y156.922 E0.02409
G1 X153.203 Y157.783 E0.02409
G1 X153.585 Y158.614 E0.02409
G1 X154.036 Y159.409 E0.02409
G1 X154.554 Y160.162 E0.02409
G1 X155.135 Y160.868 E0.02409
G1 X155.775 Y161.522 E0.02409
M73 P13 R4
G1 X156.468 Y162.118 E0.02409
G1 X157.211 Y162.652 E0.02409
G1 X157.996 Y163.121 E0.02409
G1 X158.819 Y163.52 E0.02409
