; generated by SuperSlicer 2.4 on 2022-10-23 at 07:27:48 UTC


;
;

;
;
; 

; external perimeters extrusion width = 0.45mm
; perimeters extrusion width = 0.45mm
; infill extrusion width = 0.45mm
; solid infill extrusion width = 0.48mm
; top infill extrusion width = 0.42mm
; first layer extrusion width = 0.38mm

; object:{"name":"Klickymount_EVA_fanduct","id":"Klickymount_EVA_fanduct.stl id:0 copy 0","object_center":[165.000000,162.500000,0.000000],"boundingbox_center":[165.000000,162.500000,6.849998],"boundingbox_size":[44.041824,19.224823,13.699997]}
; plater:{"center":[165.000000,162.500000,0.000000],"boundingbox_center":[165.000000,162.500000,6.849998],"boundingbox_size":[44.041824,19.224823,13.699997]}

M73 P0 R12
;TYPE:Custom
; custom gcode: start_gcode
M104 S0 ; Stops PS/SS from sending temp waits separately
M140 S0
PRINT_START EXTRUDER_TEMP=235 BED_TEMP=65
; custom gcode end: start_gcode
M107
G21 ; set units to millimeters
G90 ; use absolute coordinates
M83 ; use relative distances for extrusion
; custom gcode: start_filament_gcode
; Filament gcode
;SET_GCODE_OFFSET Z=0
;SET_PRESSURE_ADVANCE ADVANCE=0.05
; custom gcode end: start_filament_gcode
;_TOOLCHANGE 0
;LAYER_CHANGE
;Z:0.2
;HEIGHT:0.2
G1 E-1.2 F1800
M73 P2 R12
G1 Z0.2 F30000
G92 E0
M104 S235 ; set temperature
; printing object Klickymount_EVA_fanduct.stl id:0 copy 0
G1 X169.675 Y156.19
G1 E1.2 F1800
;TYPE:Internal perimeter
;WIDTH:0.38
G1 F1500
G1 X169.108 Y156.19 E0.01496
G1 X168.743 Y155.916 E0.01201
G1 X168.291 Y155.703 E0.01316
G1 X167.806 Y155.585 E0.01316
G1 X167.307 Y155.569 E0.01314
G1 X166.898 Y155.638 E0.01093
G1 X166.363 Y155.827 E0.01495
G1 X165.94 Y156.103 E0.01333
G1 X165.644 Y156.383 E0.01073
G1 X165.355 Y156.774 E0.0128
G1 X165.202 Y157.107 E0.00967
G1 X164.785 Y156.48 E0.01984
G1 X164.493 Y156.176 E0.01112
G1 X164.03 Y155.861 E0.01475
G1 X163.648 Y155.694 E0.011
G1 X163.165 Y155.586 E0.01302
G1 X162.666 Y155.578 E0.01317
G1 X162.182 Y155.67 E0.01296
G1 X161.803 Y155.819 E0.01073
G1 X161.381 Y156.075 E0.01301
G1 X161.317 Y156.137 E0.00235
G1 X160.752 Y156.137 E0.01488
G1 X160.494 Y155.673 E0.01398
G1 X160.212 Y155.284 E0.01267
G1 X159.817 Y154.859 E0.01527
G1 X159.409 Y154.535 E0.01374
G1 X159.488 Y154.309 E0.00631
G1 X171.309 Y154.314 E0.31144
G1 X170.659 Y154.851 E0.0222
G1 X170.201 Y155.334 E0.01754
G1 X169.867 Y155.816 E0.01546
G1 X169.675 Y156.19 E0.01107
;WIPE_START
G1 F24000
G1 X169.108 Y156.19 E-0.04045
G1 X168.743 Y155.916 E-0.03248
G1 X168.291 Y155.703 E-0.03559
G1 X167.806 Y155.585 E-0.0356
G1 X167.307 Y155.569 E-0.03553
G1 X166.898 Y155.638 E-0.02956
G1 X166.363 Y155.827 E-0.04043
G1 X165.94 Y156.103 E-0.03605
G1 X165.644 Y156.383 E-0.02902
G1 X165.355 Y156.774 E-0.03461
G1 X165.202 Y157.107 E-0.02614
G1 X164.785 Y156.48 E-0.05364
G1 X164.493 Y156.176 E-0.03007
G1 X164.03 Y155.861 E-0.03989
G1 X163.648 Y155.694 E-0.02974
G1 X163.165 Y155.586 E-0.03521
G1 X162.666 Y155.578 E-0.0356
G1 X162.182 Y155.67 E-0.03505
G1 X161.803 Y155.819 E-0.02903
G1 X161.381 Y156.075 E-0.03519
G1 X161.317 Y156.137 E-0.00635
G1 X160.752 Y156.137 E-0.04025
G1 X160.494 Y155.673 E-0.03781
G1 X160.212 Y155.284 E-0.03427
G1 X159.817 Y154.859 E-0.04129
G1 X159.409 Y154.535 E-0.03717
G1 X159.488 Y154.309 E-0.01706
G1 X162.673 Y154.31 E-0.2269
;WIPE_END
G1 E-0.06 F1800
G1 X170.895 Y164.901 F30000
G1 E1.2 F1800
G1 F1500
G1 X176.423 Y164.901 E0.14565
G1 X176.423 Y161.266 E0.09578
G1 X176.48 Y161.221 E0.0019
G1 X176.881 Y160.802 E0.01529
G1 X177.22 Y160.335 E0.01522
G1 X177.495 Y159.826 E0.01522
G1 X177.698 Y159.285 E0.01522
G1 X177.828 Y158.722 E0.01522
G1 X177.881 Y158.147 E0.01522
G1 X177.857 Y157.577 E0.01502
G1 X177.78 Y157.105 E0.0126
G1 X177.619 Y156.548 E0.0153
G1 X177.338 Y155.944 E0.01753
G1 X177.084 Y155.534 E0.01272
G1 X176.72 Y155.088 E0.01517
G1 X176.298 Y154.693 E0.01522
G1 X176.097 Y154.551 E0.00649
G1 X176.172 Y154.316 E0.00649
G1 X178.39 Y154.317 E0.05844
G1 X178.493 Y154.337 E0.00276
G1 X178.703 Y154.424 E0.00601
G1 X178.865 Y154.55 E0.00539
G1 X179.033 Y154.774 E0.00737
G1 X185.609 Y166.164 E0.34652
M73 P3 R12
G1 X185.609 Y170.695 E0.11937
G1 X144.397 Y170.695 E1.08581
G1 X144.397 Y166.121 E0.12049
G1 X150.948 Y154.774 E0.34523
G1 X151.124 Y154.541 E0.00768
G1 X151.194 Y154.478 E0.00247
G1 X151.274 Y154.424 E0.00256
G1 X151.483 Y154.339 E0.00592
G1 X151.76 Y154.305 E0.00735
G1 X154.244 Y154.306 E0.06545
G1 X154.321 Y154.535 E0.00637
G1 X154.027 Y154.76 E0.00975
G1 X153.623 Y155.164 E0.01504
G1 X153.323 Y155.548 E0.01286
G1 X152.99 Y156.117 E0.01736
G1 X152.8 Y156.565 E0.01283
G1 X152.642 Y157.125 E0.01532
G1 X152.56 Y157.782 E0.01746
G1 X152.558 Y158.267 E0.01278
G1 X152.631 Y158.838 E0.01516
G1 X152.779 Y159.395 E0.0152
G1 X152.964 Y159.843 E0.01275
G1 X153.286 Y160.42 E0.01742
G1 X153.645 Y160.881 E0.01539
G1 X153.991 Y161.225 E0.01286
G1 X154.103 Y161.31 E0.00369
G1 X154.103 Y164.93 E0.09537
G1 X159.011 Y164.93 E0.12932
G1 X158.979 Y165.122 E0.00513
G1 X158.954 Y165.613 E0.01297
G1 X158.995 Y166.102 E0.01291
G1 X159.108 Y166.67 E0.01526
G1 X159.337 Y167.317 E0.01809
G1 X159.621 Y167.843 E0.01575
G1 X159.968 Y168.318 E0.01551
G1 X160.373 Y168.737 E0.01534
G1 X160.755 Y169.045 E0.01291
G1 X161.249 Y169.352 E0.01532
G1 X161.794 Y169.595 E0.01572
G1 X162.446 Y169.773 E0.01783
G1 X162.937 Y169.842 E0.01304
G1 X163.522 Y169.848 E0.01542
G1 X164.106 Y169.773 E0.01551
G1 X164.674 Y169.62 E0.01551
G1 X165.215 Y169.392 E0.01547
G1 X165.64 Y169.141 E0.01301
G1 X166.176 Y168.73 E0.01778
G1 X166.631 Y168.254 E0.01735
G1 X170.217 Y168.254 E0.09449
G1 X170.217 Y162.726 E0.14565
G1 X166.537 Y162.726 E0.09695
G1 X166.493 Y162.668 E0.00193
G1 X166.07 Y162.254 E0.01557
G1 X165.597 Y161.904 E0.01551
G1 X165.081 Y161.621 E0.01551
G1 X164.531 Y161.411 E0.01551
G1 X163.958 Y161.278 E0.01551
G1 X163.374 Y161.224 E0.01544
G1 X162.88 Y161.243 E0.01303
G1 X162.213 Y161.354 E0.01781
G1 X161.646 Y161.54 E0.01573
G1 X161.123 Y161.796 E0.01534
G1 X160.712 Y162.064 E0.01291
G1 X160.268 Y162.439 E0.01533
G1 X159.631 Y163.145 E0.02505
G1 X159.631 Y161.312 E0.04828
G1 X159.704 Y161.257 E0.00241
G1 X160.001 Y160.976 E0.01076
G1 X160.338 Y160.574 E0.01383
G1 X160.624 Y160.133 E0.01386
G1 X160.749 Y159.865 E0.00777
G1 X161.228 Y159.865 E0.01262
G1 X161.619 Y160.144 E0.01266
G1 X162.075 Y160.36 E0.01328
G1 X162.631 Y160.474 E0.01498
G1 X163.047 Y160.486 E0.01094
G1 X163.537 Y160.402 E0.01311
G1 X164.002 Y160.219 E0.01317
G1 X164.411 Y159.952 E0.01287
G1 X164.707 Y159.672 E0.01073
G1 X164.995 Y159.281 E0.0128
G1 X165.149 Y158.948 E0.00966
G1 X165.566 Y159.575 E0.01984
G1 X165.858 Y159.879 E0.01112
G1 X166.321 Y160.194 E0.01475
G1 X166.703 Y160.362 E0.011
G1 X167.186 Y160.469 E0.01302
G1 X167.685 Y160.477 E0.01317
G1 X168.169 Y160.386 E0.01296
G1 X168.548 Y160.236 E0.01073
G1 X168.97 Y159.98 E0.01301
G1 X169.034 Y159.918 E0.00235
G1 X169.699 Y159.918 E0.01753
G1 X169.848 Y160.225 E0.00899
G1 X170.147 Y160.669 E0.01412
G1 X170.499 Y161.072 E0.01408
G1 X170.83 Y161.369 E0.01172
G1 X170.895 Y161.415 E0.0021
G1 X170.895 Y164.901 E0.09186
;WIPE_START
G1 F24000
G1 X176.423 Y164.901 E-0.39389
G1 X176.423 Y161.266 E-0.25902
G1 X176.48 Y161.221 E-0.00514
G1 X176.881 Y160.802 E-0.04134
G1 X177.22 Y160.335 E-0.04117
G1 X177.495 Y159.826 E-0.04117
G1 X177.698 Y159.285 E-0.04117
G1 X177.828 Y158.722 E-0.04116
G1 X177.881 Y158.147 E-0.04116
G1 X177.857 Y157.577 E-0.04063
G1 X177.78 Y157.105 E-0.03407
G1 X177.619 Y156.548 E-0.04137
G1 X177.338 Y155.944 E-0.04741
G1 X177.084 Y155.534 E-0.03439
G1 X176.756 Y155.133 E-0.03691
;WIPE_END
G1 E-0.06 F1800
G1 X169.88 Y163.063 F30000
G1 E1.2 F1800
G1 F1500
G1 X166.371 Y163.063 E0.09245
G1 X166.24 Y162.892 E0.00567
G1 X165.851 Y162.511 E0.01434
G1 X165.415 Y162.188 E0.01429
G1 X164.939 Y161.927 E0.01429
G1 X164.433 Y161.734 E0.01429
G1 X163.904 Y161.611 E0.01429
G1 X163.366 Y161.562 E0.01425
G1 X162.914 Y161.579 E0.0119
G1 X162.294 Y161.682 E0.01658
G1 X161.773 Y161.853 E0.01444
G1 X161.29 Y162.09 E0.01418
G1 X160.914 Y162.335 E0.01182
G1 X160.503 Y162.681 E0.01417
G1 X160.139 Y163.084 E0.01429
G1 X159.831 Y163.538 E0.01445
G1 X159.557 Y164.117 E0.01688
G1 X159.294 Y164.058 E0.00711
G1 X159.294 Y161.145 E0.07674
G1 X159.486 Y161 E0.00634
G1 X159.755 Y160.745 E0.00976
G1 X160.066 Y160.374 E0.01276
G1 X160.328 Y159.969 E0.0127
G1 X160.495 Y159.637 E0.0098
G1 X160.534 Y159.528 E0.00303
G1 X161.391 Y159.528 E0.02258
G1 X161.501 Y159.646 E0.00425
G1 X161.79 Y159.853 E0.00935
G1 X162.182 Y160.038 E0.01143
G1 X162.671 Y160.138 E0.01314
G1 X163.023 Y160.148 E0.00928
G1 X163.446 Y160.075 E0.01131
G1 X163.847 Y159.918 E0.01135
G1 X164.202 Y159.687 E0.01116
G1 X164.453 Y159.448 E0.00915
G1 X164.704 Y159.108 E0.01111
G1 X164.884 Y158.717 E0.01135
G1 X164.982 Y158.298 E0.01135
G1 X164.992 Y157.867 E0.01135
G1 X164.916 Y157.443 E0.01135
G1 X164.755 Y157.044 E0.01135
G1 X164.521 Y156.692 E0.01113
G1 X164.274 Y156.435 E0.0094
G1 X163.866 Y156.157 E0.01299
G1 X163.542 Y156.015 E0.00932
G1 X163.125 Y155.922 E0.01126
G1 X162.695 Y155.915 E0.01135
G1 X162.276 Y155.995 E0.01122
G1 X161.953 Y156.122 E0.00915
G1 X161.588 Y156.343 E0.01125
G1 X161.454 Y156.474 E0.00494
G1 X160.525 Y156.474 E0.02447
G1 X160.469 Y156.321 E0.0043
G1 X160.209 Y155.855 E0.01406
G1 X159.951 Y155.498 E0.0116
G1 X159.588 Y155.107 E0.01406
G1 X159.104 Y154.723 E0.01627
G1 X158.726 Y154.492 E0.01168
G1 X158.156 Y154.238 E0.01645
G1 X158.213 Y153.971 E0.00719
G1 X172.281 Y153.977 E0.37066
M73 P4 R12
G1 X172.324 Y154.265 E0.00766
G1 X172.163 Y154.314 E0.00441
G1 X171.679 Y154.534 E0.01403
G1 X171.229 Y154.817 E0.01399
G1 X170.89 Y155.098 E0.01161
G1 X170.463 Y155.547 E0.01632
G1 X170.156 Y155.989 E0.01418
G1 X169.882 Y156.527 E0.0159
G1 X168.967 Y156.527 E0.02409
G1 X168.911 Y156.464 E0.00224
G1 X168.568 Y156.206 E0.01129
G1 X168.179 Y156.022 E0.01135
G1 X167.76 Y155.921 E0.01135
G1 X167.33 Y155.907 E0.01133
G1 X166.983 Y155.966 E0.00927
G1 X166.514 Y156.131 E0.01312
G1 X166.149 Y156.369 E0.01146
G1 X165.898 Y156.608 E0.00914
G1 X165.647 Y156.947 E0.01111
G1 X165.462 Y157.348 E0.01165
G1 X165.367 Y157.837 E0.01311
G1 X165.359 Y158.188 E0.00926
G1 X165.435 Y158.612 E0.01134
G1 X165.596 Y159.011 E0.01135
G1 X165.83 Y159.363 E0.01113
G1 X166.077 Y159.621 E0.0094
G1 X166.485 Y159.898 E0.01299
G1 X166.809 Y160.04 E0.00932
G1 X167.225 Y160.133 E0.01126
G1 X167.656 Y160.14 E0.01135
G1 X168.074 Y160.06 E0.01122
G1 X168.397 Y159.933 E0.00914
G1 X168.763 Y159.712 E0.01125
G1 X168.897 Y159.581 E0.00494
G1 X169.911 Y159.581 E0.02671
G1 X169.953 Y159.696 E0.00324
G1 X170.141 Y160.057 E0.0107
G1 X170.415 Y160.463 E0.01292
G1 X170.739 Y160.835 E0.01298
G1 X171.041 Y161.105 E0.01067
G1 X171.232 Y161.241 E0.00618
G1 X171.232 Y164.564 E0.08757
G1 X176.086 Y164.564 E0.12789
G1 X176.086 Y161.103 E0.0912
G1 X176.252 Y160.971 E0.00558
G1 X176.621 Y160.585 E0.01407
G1 X176.935 Y160.155 E0.01403
G1 X177.187 Y159.686 E0.01403
G1 X177.375 Y159.188 E0.01403
G1 X177.494 Y158.669 E0.01403
G1 X177.543 Y158.139 E0.01403
G1 X177.521 Y157.611 E0.0139
G1 X177.451 Y157.18 E0.01153
G1 X177.302 Y156.666 E0.01408
G1 X177.041 Y156.105 E0.01632
G1 X176.809 Y155.73 E0.01161
G1 X176.473 Y155.319 E0.01399
G1 X176.084 Y154.955 E0.01403
G1 X175.652 Y154.648 E0.01397
G1 X175.263 Y154.44 E0.01162
G1 X174.778 Y154.254 E0.01368
G1 X174.829 Y153.978 E0.00739
G1 X178.422 Y153.98 E0.09467
G1 X178.59 Y154.012 E0.00451
G1 X178.875 Y154.131 E0.00813
G1 X178.996 Y154.212 E0.00383
G1 X179.107 Y154.312 E0.00394
G1 X179.315 Y154.587 E0.00908
G1 X185.946 Y166.073 E0.34944
G1 X185.946 Y171.032 E0.13063
G1 X144.06 Y171.032 E1.10357
G1 X144.06 Y166.031 E0.13175
G1 X150.667 Y154.587 E0.34816
G1 X150.874 Y154.312 E0.00908
G1 X150.986 Y154.212 E0.00394
G1 X151.115 Y154.125 E0.0041
G1 X151.255 Y154.057 E0.0041
G1 X151.397 Y154.01 E0.00394
G1 X151.739 Y153.968 E0.00908
G1 X155.542 Y153.97 E0.10019
G1 X155.594 Y154.243 E0.00732
G1 X155.135 Y154.428 E0.01305
G1 X154.673 Y154.691 E0.01402
G1 X154.25 Y155.014 E0.01402
G1 X153.876 Y155.388 E0.01391
G1 X153.602 Y155.738 E0.01172
G1 X153.292 Y156.268 E0.01618
G1 X153.119 Y156.677 E0.0117
G1 X152.973 Y157.192 E0.01409
G1 X152.897 Y157.804 E0.01625
G1 X152.896 Y158.246 E0.01167
G1 X152.962 Y158.773 E0.01399
G1 X153.099 Y159.287 E0.01401
G1 X153.268 Y159.696 E0.01165
G1 X153.568 Y160.234 E0.01622
G1 X153.897 Y160.657 E0.01414
G1 X154.213 Y160.97 E0.01172
G1 X154.44 Y161.143 E0.0075
G1 X154.44 Y164.593 E0.09088
G1 X159.41 Y164.593 E0.13094
G1 X159.315 Y165.158 E0.01512
G1 X159.292 Y165.608 E0.01185
G1 X159.33 Y166.055 E0.01182
G1 X159.434 Y166.581 E0.01413
G1 X159.646 Y167.18 E0.01675
G1 X159.906 Y167.663 E0.01445
G1 X160.227 Y168.101 E0.01429
G1 X160.601 Y168.488 E0.01418
G1 X160.95 Y168.769 E0.01182
G1 X161.407 Y169.053 E0.01417
G1 X161.907 Y169.276 E0.01443
G1 X162.515 Y169.442 E0.01659
G1 X162.962 Y169.505 E0.0119
G1 X163.502 Y169.51 E0.01424
G1 X164.04 Y169.442 E0.01429
G1 X164.564 Y169.301 E0.01429
G1 X165.063 Y169.09 E0.01427
G1 X165.452 Y168.861 E0.01188
G1 X165.951 Y168.479 E0.01655
G1 X166.33 Y168.081 E0.0145
G1 X166.447 Y167.917 E0.0053
G1 X169.88 Y167.917 E0.09045
G1 X169.88 Y163.063 E0.12789
G1 X169.543 Y163.4 F30000
;TYPE:External perimeter
G1 F1500
G1 X166.205 Y163.4 E0.08795
G1 X165.987 Y163.116 E0.00942
G1 X165.632 Y162.768 E0.0131
G1 X165.233 Y162.473 E0.01308
G1 X164.798 Y162.234 E0.01308
G1 X164.334 Y162.057 E0.01308
G1 X163.85 Y161.945 E0.01308
G1 X163.357 Y161.899 E0.01306
G1 X162.949 Y161.915 E0.01076
G1 X162.374 Y162.01 E0.01534
G1 X161.9 Y162.166 E0.01314
G1 X161.456 Y162.383 E0.01303
G1 X161.115 Y162.606 E0.01072
G1 X160.738 Y162.924 E0.01302
G1 X160.405 Y163.293 E0.01308
G1 X160.125 Y163.706 E0.01315
G1 X159.876 Y164.232 E0.01533
G1 X159.746 Y164.622 E0.01084
G1 X159.65 Y165.195 E0.0153
G1 X159.63 Y165.602 E0.01074
G1 X159.664 Y166.008 E0.01072
G1 X159.76 Y166.491 E0.01299
G1 X159.955 Y167.043 E0.01542
G1 X160.192 Y167.482 E0.01315
G1 X160.485 Y167.883 E0.01308
G1 X160.829 Y168.238 E0.01303
G1 X161.146 Y168.494 E0.01072
G1 X161.565 Y168.755 E0.01302
G1 X162.021 Y168.958 E0.01314
G1 X162.583 Y169.111 E0.01534
M73 P5 R12
G1 X162.987 Y169.168 E0.01076
G1 X163.483 Y169.173 E0.01305
G1 X163.975 Y169.11 E0.01308
G1 X164.454 Y168.981 E0.01308
G1 X164.911 Y168.788 E0.01307
G1 X165.263 Y168.581 E0.01075
G1 X165.725 Y168.227 E0.01533
G1 X166.07 Y167.865 E0.01317
G1 X166.273 Y167.58 E0.00924
G1 X169.543 Y167.58 E0.08614
G1 X169.543 Y163.4 E0.11013
;WIPE_START
G1 X169.543 Y163 F30000
;WIPE_END
;WIPE_START
G1 F24000
G1 X166.303 Y163.2 E-0.23126
G1 X166.137 Y162.983 E-0.01947
G1 X165.762 Y162.616 E-0.03741
G1 X165.341 Y162.304 E-0.03732
G1 X164.882 Y162.052 E-0.03732
G1 X164.392 Y161.865 E-0.03732
G1 X163.882 Y161.747 E-0.03732
G1 X163.362 Y161.699 E-0.03722
G1 X162.928 Y161.716 E-0.03092
G1 X162.327 Y161.815 E-0.04346
G1 X161.825 Y161.981 E-0.03762
G1 X161.357 Y162.209 E-0.03708
G1 X160.996 Y162.445 E-0.03076
G1 X160.598 Y162.78 E-0.03706
G1 X160.247 Y163.169 E-0.03731
G1 X159.95 Y163.606 E-0.03764
G1 X159.69 Y164.157 E-0.04344
G1 X159.552 Y164.574 E-0.03128
G1 X159.451 Y165.173 E-0.0433
G1 X159.429 Y165.605 E-0.03083
G1 X159.466 Y166.035 E-0.03075
G1 X159.566 Y166.544 E-0.03696
G1 X159.771 Y167.125 E-0.04384
G1 X160.023 Y167.589 E-0.03765
G1 X160.332 Y168.012 E-0.03731
G1 X160.694 Y168.386 E-0.03708
G1 X160.705 Y168.395 E-0.00105
;WIPE_END
G1 E-0.06 F1800
G1 X158.957 Y164.255 F30000
G1 E1.2 F1800
G1 F1500
G1 X158.957 Y160.977 E0.08637
G1 X159.268 Y160.742 E0.01027
G1 X159.509 Y160.513 E0.00876
G1 X159.795 Y160.173 E0.0117
G1 X160.035 Y159.801 E0.01167
G1 X160.185 Y159.503 E0.00878
G1 X160.297 Y159.191 E0.00874
G1 X161.538 Y159.191 E0.0327
G1 X161.725 Y159.392 E0.00722
G1 X161.961 Y159.561 E0.00765
G1 X162.289 Y159.716 E0.00957
G1 X162.71 Y159.802 E0.01131
G1 X162.999 Y159.81 E0.00762
G1 X163.355 Y159.749 E0.00952
G1 X163.692 Y159.617 E0.00953
G1 X163.992 Y159.421 E0.00944
G1 X164.2 Y159.224 E0.00756
G1 X164.412 Y158.936 E0.00942
G1 X164.564 Y158.607 E0.00953
G1 X164.646 Y158.255 E0.00953
G1 X164.655 Y157.893 E0.00953
G1 X164.59 Y157.537 E0.00953
G1 X164.455 Y157.202 E0.00953
