; generated by SuperSlicer 2.4 on 2022-10-18 at 13:38:59 UTC


;
;

;
;
; 

; external perimeters extrusion width = 0.45mm
; perimeters extrusion width = 0.45mm
; infill extrusion width = 0.45mm
; solid infill extrusion width = 0.48mm
; top infill extrusion width = 0.42mm
; first layer extrusion width = 0.38mm

; object:{"name":"libra mini 11","id":"libra mini 11.stl id:0 copy 0","object_center":[164.998857,162.502787,0.000000],"boundingbox_center":[164.998857,162.502787,4.661034],"boundingbox_size":[38.763126,21.601896,9.322067]}
; plater:{"center":[164.998857,162.502787,0.000000],"boundingbox_center":[164.998857,162.502787,4.661034],"boundingbox_size":[38.763126,21.601896,9.322067]}

M73 P0 R11
;TYPE:Custom
; custom gcode: start_gcode
M104 S0 ; Stops PS/SS from sending temp waits separately
M140 S0
PRINT_START EXTRUDER_TEMP=240 BED_TEMP=65
; custom gcode end: start_gcode
M107
G21 ; set units to millimeters
G90 ; use absolute coordinates
M83 ; use relative distances for extrusion
; custom gcode: start_filament_gcode
; Filament gcode
;SET_GCODE_OFFSET Z=0
;SET_PRESSURE_ADVANCE ADVANCE=0.05
; custom gcode end: start_filament_gcode
;_TOOLCHANGE 0
;LAYER_CHANGE
;Z:0.2
;HEIGHT:0.2
G1 E-1.2 F1800
M73 P2 R11
G1 Z0.2 F30000
G92 E0
M104 S240 ; set temperature
; printing object libra mini 11.stl id:0 copy 0
G1 X167.009 Y156.789
G1 E1.2 F1800
;TYPE:Internal perimeter
;WIDTH:0.38
G1 X167.036 Y156.032 E0.02018
G1 X167.083 Y155.843 E0.00518
G1 X167.609 Y155.906 E0.01409
G1 X170.034 Y156.194 E0.06502
G1 X170.83 Y156.244 E0.02126
G1 X172.015 Y156.262 E0.03155
G1 X172.178 Y156.294 E0.00441
G1 X172.179 Y157.317 E0.02722
G1 X171.729 Y157.011 E0.01449
G1 X171.388 Y156.837 E0.0102
G1 X171.017 Y156.713 E0.01041
G1 X170.625 Y156.645 E0.01059
G1 X167.847 Y156.641 E0.07398
G1 X167.476 Y156.673 E0.0099
G1 X167.009 Y156.789 E0.01283
;WIPE_START
G1 F24000
G1 X167.036 Y156.032 E-0.05401
G1 X167.083 Y155.843 E-0.01386
G1 X167.609 Y155.906 E-0.03771
G1 X170.034 Y156.194 E-0.17399
G1 X170.83 Y156.244 E-0.05689
G1 X172.015 Y156.262 E-0.08443
G1 X172.178 Y156.294 E-0.01179
G1 X172.179 Y157.317 E-0.07283
G1 X171.729 Y157.011 E-0.03877
G1 X171.388 Y156.837 E-0.0273
G1 X171.017 Y156.713 E-0.02785
G1 X170.625 Y156.645 E-0.02833
G1 X167.847 Y156.641 E-0.19796
G1 X167.476 Y156.673 E-0.0265
G1 X167.009 Y156.789 E-0.03433
;WIPE_END
G1 E-0.31344 F1800
G1 X154.655 Y159.269 F30000
G1 E1.2 F1800
G1 X154.634 Y159.289 E0.00077
G1 X154.366 Y159.652 E0.01201
G1 X154.174 Y160.06 E0.01201
M73 P3 R11
G1 X154.078 Y160.406 E0.00957
G1 X154.037 Y160.825 E0.0112
G1 X154.047 Y164.585 E0.10012
G1 X154.137 Y165.034 E0.01219
G1 X154.312 Y165.458 E0.01221
G1 X154.562 Y165.833 E0.01201
G1 X154.805 Y166.088 E0.00937
G1 X155.082 Y166.305 E0.00937
G1 X155.48 Y166.518 E0.01201
G1 X155.912 Y166.649 E0.01202
G1 X156.253 Y166.692 E0.00917
G1 X162.414 Y166.701 E0.16405
G1 X162.94 Y166.637 E0.01411
G1 X163.382 Y166.479 E0.01249
G1 X163.779 Y166.242 E0.01229
G1 X164.115 Y165.937 E0.01209
G1 X164.338 Y165.652 E0.00964
G1 X164.548 Y165.259 E0.01188
G1 X164.66 Y164.922 E0.00943
G1 X164.72 Y164.574 E0.00941
G1 X164.727 Y160.82 E0.09996
G1 X164.684 Y160.39 E0.01149
G1 X164.55 Y159.949 E0.0123
G1 X164.328 Y159.535 E0.0125
G1 X163.965 Y159.116 E0.01474
G1 X163.674 Y158.889 E0.00984
G1 X163.273 Y158.676 E0.01208
G1 X162.839 Y158.545 E0.01208
G1 X162.495 Y158.503 E0.00921
G1 X161.989 Y158.504 E0.01349
G1 X156.349 Y158.514 E0.15017
G1 X156.021 Y158.539 E0.00876
G1 X155.591 Y158.648 E0.01181
G1 X155.262 Y158.794 E0.00958
G1 X154.894 Y159.041 E0.01181
G1 X154.655 Y159.269 E0.0088
G1 X154.888 Y159.513 F30000
;TYPE:External perimeter
G1 F1800
G1 X154.657 Y159.826 E0.01035
G1 X154.491 Y160.177 E0.01035
G1 X154.411 Y160.468 E0.00803
G1 X154.374 Y160.841 E0.00998
G1 X154.384 Y164.551 E0.0988
G1 X154.461 Y164.936 E0.01044
G1 X154.611 Y165.298 E0.01045
G1 X154.827 Y165.622 E0.01035
G1 X155.032 Y165.838 E0.00794
G1 X155.267 Y166.021 E0.00794
G1 X155.61 Y166.205 E0.01036
G1 X155.982 Y166.318 E0.01036
G1 X156.274 Y166.355 E0.00785
G1 X162.394 Y166.364 E0.16295
G1 X162.862 Y166.306 E0.01256
G1 X163.238 Y166.173 E0.01061
G1 X163.577 Y165.97 E0.01052
G1 X163.867 Y165.707 E0.01043
G1 X164.054 Y165.468 E0.00809
G1 X164.237 Y165.125 E0.01034
G1 X164.332 Y164.84 E0.00799
G1 X164.383 Y164.545 E0.00799
G1 X164.39 Y160.836 E0.09874
G1 X164.352 Y160.457 E0.01016
G1 X164.237 Y160.078 E0.01053
G1 X164.048 Y159.727 E0.01062
G1 X163.732 Y159.362 E0.01286
G1 X163.49 Y159.173 E0.00818
G1 X163.144 Y158.989 E0.01042
G1 X162.769 Y158.876 E0.01042
G1 X162.475 Y158.841 E0.00789
G1 X161.99 Y158.841 E0.01294
G1 X156.362 Y158.851 E0.14984
G1 X156.075 Y158.873 E0.00766
G1 X155.702 Y158.967 E0.01027
G1 X155.426 Y159.09 E0.00804
G1 X155.106 Y159.305 E0.01026
G1 X154.888 Y159.513 E0.00803
;WIPE_START
G1 X154.494 Y159.445 F30000
;WIPE_END
;WIPE_START
G1 F24000
G1 X154.484 Y159.723 E-0.01977
G1 X154.303 Y160.108 E-0.03033
G1 X154.213 Y160.431 E-0.02393
G1 X154.174 Y160.831 E-0.02864
G1 X154.184 Y164.571 E-0.26646
G1 X154.268 Y164.994 E-0.03071
G1 X154.434 Y165.393 E-0.03076
G1 X154.67 Y165.747 E-0.03033
G1 X154.897 Y165.986 E-0.02351
G1 X155.157 Y166.189 E-0.02351
G1 X155.533 Y166.39 E-0.03035
G1 X155.94 Y166.514 E-0.03036
G1 X156.262 Y166.555 E-0.0231
G1 X162.406 Y166.564 E-0.43778
G1 X162.909 Y166.502 E-0.03608
G1 X163.324 Y166.354 E-0.03139
G1 X163.697 Y166.131 E-0.03096
G1 X163.822 Y166.018 E-0.01205
;WIPE_END
G1 E-0.06 F1800
G1 X164.628 Y158.777 F30000
G1 E1.2 F1800
;TYPE:Internal perimeter
G1 X164.042 Y158.321 E0.01977
G1 X163.693 Y158.136 E0.01052
G1 X163.761 Y157.878 E0.0071
G1 X164.357 Y157.892 E0.01589
G1 X164.873 Y157.949 E0.01383
G1 X164.758 Y158.203 E0.00742
G1 X164.628 Y158.777 E0.01568
;WIPE_START
G1 F24000
G1 X164.042 Y158.321 E-0.05289
G1 X163.693 Y158.136 E-0.02815
G1 X163.761 Y157.878 E-0.01899
G1 X164.357 Y157.892 E-0.04251
G1 X164.873 Y157.949 E-0.03701
G1 X164.758 Y158.203 E-0.01987
G1 X164.628 Y158.777 E-0.04196
;WIPE_END
G1 E-0.95862 F1800
G1 X162.163 Y157.83 F30000
G1 E1.2 F1800
G1 X156.323 Y157.84 E0.15551
G1 X155.912 Y157.871 E0.01097
G1 X155.37 Y158.008 E0.0149
G1 X154.935 Y158.202 E0.01267
G1 X154.47 Y158.513 E0.01489
G1 X154.126 Y158.842 E0.01266
G1 X153.784 Y159.304 E0.01532
G1 X153.539 Y159.825 E0.01532
G1 X153.385 Y160.384 E0.01545
G1 X153.145 Y160.399 E0.0064
G1 X152.949 Y159.927 E0.0136
G1 X152.74 Y159.537 E0.01178
G1 X152.485 Y159.156 E0.01221
G1 X152.071 Y158.679 E0.01682
G1 X151.731 Y158.371 E0.01221
G1 X151.375 Y158.108 E0.01178
G1 X150.995 Y157.882 E0.01178
G1 X150.45 Y157.625 E0.01605
G1 X150.509 Y157.361 E0.00719
G1 X161.848 Y157.374 E0.30191
G1 X162.227 Y157.574 E0.0114
G1 X162.163 Y157.83 E0.00702
;WIPE_START
G1 F24000
G1 X156.323 Y157.84 E-0.41612
G1 X155.912 Y157.871 E-0.02936
G1 X155.37 Y158.008 E-0.03988
G1 X154.935 Y158.202 E-0.0339
G1 X154.47 Y158.513 E-0.03985
G1 X154.126 Y158.842 E-0.03389
G1 X153.784 Y159.304 E-0.04099
G1 X153.539 Y159.825 E-0.04098
G1 X153.385 Y160.384 E-0.04133
G1 X153.145 Y160.399 E-0.01713
G1 X152.949 Y159.927 E-0.0364
G1 X152.74 Y159.537 E-0.03153
G1 X152.485 Y159.156 E-0.03267
G1 X152.071 Y158.679 E-0.045
G1 X151.731 Y158.371 E-0.03267
G1 X151.375 Y158.108 E-0.03152
G1 X150.995 Y157.882 E-0.03152
G1 X150.45 Y157.625 E-0.04295
G1 X150.509 Y157.361 E-0.01925
G1 X151.955 Y157.363 E-0.10305
;WIPE_END
G1 E-0.06 F1800
G1 X153.106 Y164.413 F30000
G1 E1.2 F1800
G1 X153.373 Y164.469 E0.00726
G1 X153.373 Y164.652 E0.00488
G1 X153.488 Y165.231 E0.0157
G1 X153.715 Y165.777 E0.01574
G1 X154.034 Y166.255 E0.01532
G1 X154.351 Y166.588 E0.01223
G1 X154.713 Y166.871 E0.01224
G1 X155.113 Y167.086 E0.01211
G1 X155.05 Y167.341 E0.00699
G1 X150.495 Y167.351 E0.12129
G1 X150.44 Y167.08 E0.00738
G1 X150.817 Y166.924 E0.01084
G1 X151.38 Y166.606 E0.01724
G1 X151.891 Y166.208 E0.01724
G1 X152.227 Y165.873 E0.01263
G1 X152.616 Y165.375 E0.01682
G1 X152.86 Y164.968 E0.01264
G1 X153.106 Y164.413 E0.01616
;WIPE_START
G1 F24000
G1 X153.373 Y164.469 E-0.01944
G1 X153.373 Y164.652 E-0.01305
G1 X153.488 Y165.231 E-0.04201
G1 X153.715 Y165.777 E-0.04212
G1 X154.034 Y166.255 E-0.04099
G1 X154.351 Y166.588 E-0.03274
G1 X154.713 Y166.871 E-0.03275
G1 X155.113 Y167.086 E-0.0324
G1 X155.05 Y167.341 E-0.01871
G1 X150.495 Y167.351 E-0.32456
G1 X150.44 Y167.08 E-0.01974
G1 X150.817 Y166.924 E-0.029
G1 X151.38 Y166.606 E-0.04613
G1 X151.891 Y166.208 E-0.04613
G1 X152.227 Y165.873 E-0.03381
G1 X152.616 Y165.375 E-0.045
G1 X152.86 Y164.968 E-0.03382
G1 X153.106 Y164.413 E-0.04324
;WIPE_END
G1 E-0.30437 F1800
G1 X165.4 Y161.433 F30000
G1 E1.2 F1800
G1 X165.89 Y161.867 E0.01744
G1 X166.302 Y162.133 E0.01307
G1 X166.75 Y162.335 E0.01307
G1 X167.206 Y162.465 E0.01264
G1 X167.577 Y162.521 E0.00997
G1 X170.535 Y162.532 E0.07878
G1 X170.879 Y162.498 E0.00921
G1 X171.359 Y162.389 E0.0131
G1 X171.949 Y162.141 E0.01704
G1 X172.492 Y161.772 E0.01748
G1 X172.95 Y161.302 E0.01748
G1 X173.307 Y160.751 E0.01748
G1 X173.547 Y160.139 E0.01749
G1 X173.661 Y159.492 E0.01749
G1 X173.644 Y158.836 E0.01749
G1 X173.599 Y158.638 E0.00541
G1 X178.846 Y158.644 E0.13972
G1 X179.272 Y158.666 E0.01134
G1 X179.661 Y158.725 E0.01048
G1 X180.042 Y158.822 E0.01047
G1 X180.403 Y158.954 E0.01023
G1 X180.946 Y159.234 E0.01627
G1 X181.261 Y159.448 E0.01014
G1 X181.562 Y159.701 E0.01047
G1 X181.836 Y159.983 E0.01047
G1 X182.081 Y160.29 E0.01047
G1 X182.294 Y160.621 E0.01047
G1 X182.473 Y160.971 E0.01047
G1 X182.617 Y161.336 E0.01046
G1 X182.723 Y161.715 E0.01046
G1 X182.791 Y162.102 E0.01046
G1 X182.821 Y162.494 E0.01046
G1 X182.811 Y162.886 E0.01046
G1 X182.763 Y163.276 E0.01046
G1 X182.676 Y163.66 E0.01046
G1 X182.551 Y164.032 E0.01046
G1 X182.389 Y164.391 E0.01047
G1 X182.2 Y164.721 E0.01014
G1 X181.832 Y165.208 E0.01626
G1 X181.564 Y165.483 E0.01022
G1 X181.263 Y165.737 E0.01047
G1 X180.947 Y165.953 E0.01022
G1 X180.403 Y166.233 E0.01627
G1 X180.045 Y166.364 E0.01015
G1 X179.664 Y166.462 E0.01048
G1 X179.275 Y166.521 E0.01048
G1 X178.85 Y166.543 E0.01135
G1 X171.61 Y166.558 E0.19277
G1 X170.734 Y166.578 E0.02334
G1 X169.846 Y166.635 E0.0237
G1 X168.974 Y166.727 E0.02334
G1 X164.505 Y167.294 E0.11995
G1 X164.187 Y167.32 E0.00848
G1 X163.771 Y167.321 E0.01109
G1 X163.702 Y167.073 E0.00684
G1 X164.182 Y166.786 E0.01488
G1 X164.611 Y166.398 E0.0154
G1 X164.905 Y166.021 E0.01273
G1 X165.17 Y165.525 E0.01498
G1 X165.315 Y165.087 E0.01231
G1 X165.394 Y164.633 E0.01227
G1 X165.4 Y161.433 E0.0852
;WIPE_START
G1 F24000
G1 X165.89 Y161.867 E-0.04665
G1 X166.302 Y162.133 E-0.03496
G1 X166.75 Y162.335 E-0.03497
G1 X167.206 Y162.465 E-0.03382
G1 X167.577 Y162.521 E-0.02668
G1 X170.535 Y162.532 E-0.21081
G1 X170.879 Y162.498 E-0.02464
G1 X171.359 Y162.389 E-0.03505
G1 X171.949 Y162.141 E-0.04559
G1 X172.492 Y161.772 E-0.04677
G1 X172.95 Y161.302 E-0.04678
G1 X173.307 Y160.751 E-0.04679
G1 X173.547 Y160.139 E-0.04679
G1 X173.661 Y159.492 E-0.0468
G1 X173.644 Y158.836 E-0.0468
G1 X173.599 Y158.638 E-0.01448
G1 X178.534 Y158.643 E-0.35163
;WIPE_END
G1 E-0.06 F1800
G1 X164.925 Y159.413 F30000
G1 E1.2 F1800
G1 X164.675 Y159.469 E0.00682
G1 X164.607 Y159.342 E0.00383
G1 X164.199 Y158.87 E0.01662
G1 X163.858 Y158.605 E0.0115
G1 X163.402 Y158.363 E0.01374
G1 X162.908 Y158.214 E0.01374
G1 X162.515 Y158.166 E0.01053
G1 X161.988 Y158.167 E0.01404
G1 X156.336 Y158.177 E0.1505
G1 X155.967 Y158.205 E0.00987
M73 P4 R11
G1 X155.48 Y158.328 E0.01336
G1 X155.099 Y158.498 E0.01113
G1 X154.682 Y158.777 E0.01335
G1 X154.38 Y159.066 E0.01112
G1 X154.075 Y159.478 E0.01366
G1 X153.856 Y159.942 E0.01366
G1 X153.745 Y160.345 E0.01111
G1 X153.7 Y160.809 E0.01242
G1 X153.71 Y164.619 E0.10144
G1 X153.812 Y165.132 E0.01395
G1 X154.013 Y165.617 E0.01398
G1 X154.298 Y166.044 E0.01366
G1 X154.578 Y166.338 E0.0108
G1 X154.897 Y166.588 E0.0108
G1 X155.35 Y166.83 E0.01367
G1 X155.841 Y166.98 E0.01367
G1 X156.232 Y167.029 E0.01049
G1 X162.435 Y167.038 E0.16515
G1 X163.018 Y166.967 E0.01566
G1 X163.527 Y166.785 E0.01437
G1 X163.98 Y166.514 E0.01406
G1 X164.363 Y166.168 E0.01374
G1 X164.621 Y165.837 E0.01118
G1 X164.859 Y165.392 E0.01343
G1 X164.987 Y165.004 E0.01087
G1 X165.057 Y164.603 E0.01084
G1 X165.064 Y160.755 E0.10248
G1 X165.31 Y160.686 E0.00679
G1 X165.482 Y160.968 E0.00882
G1 X165.765 Y161.306 E0.01172
G1 X166.095 Y161.597 E0.01172
G1 X166.464 Y161.836 E0.01172
G1 X166.866 Y162.018 E0.01172
G1 X167.278 Y162.134 E0.01141
G1 X167.603 Y162.184 E0.00875
G1 X170.519 Y162.195 E0.07766
G1 X170.825 Y162.165 E0.00819
G1 X171.256 Y162.067 E0.01175
G1 X171.787 Y161.843 E0.01535
G1 X172.274 Y161.512 E0.01568
G1 X172.686 Y161.091 E0.01568
G1 X173.005 Y160.596 E0.01569
G1 X173.221 Y160.048 E0.01569
G1 X173.323 Y159.467 E0.01569
G1 X173.308 Y158.878 E0.01569
G1 X173.176 Y158.3 E0.01579
G1 X178.855 Y158.307 E0.15122
G1 X179.306 Y158.33 E0.01202
G1 X179.728 Y158.394 E0.01137
G1 X180.142 Y158.5 E0.01137
G1 X180.538 Y158.645 E0.01124
G1 X181.119 Y158.943 E0.01739
G1 X181.465 Y159.18 E0.01115
G1 X181.791 Y159.454 E0.01136
G1 X182.089 Y159.76 E0.01136
G1 X182.355 Y160.094 E0.01136
G1 X182.586 Y160.452 E0.01136
G1 X182.781 Y160.832 E0.01136
G1 X182.937 Y161.229 E0.01136
G1 X183.052 Y161.64 E0.01136
G1 X183.126 Y162.06 E0.01136
G1 X183.158 Y162.485 E0.01136
G1 X183.148 Y162.911 E0.01136
G1 X183.095 Y163.335 E0.01136
G1 X183.001 Y163.751 E0.01136
G1 X182.865 Y164.155 E0.01136
G1 X182.69 Y164.544 E0.01136
G1 X182.481 Y164.907 E0.01114
G1 X182.088 Y165.428 E0.01738
G1 X181.794 Y165.73 E0.01123
G1 X181.468 Y166.005 E0.01136
G1 X181.12 Y166.244 E0.01123
G1 X180.539 Y166.542 E0.01739
G1 X180.145 Y166.686 E0.01115
G1 X179.732 Y166.793 E0.01137
G1 X179.31 Y166.857 E0.01137
G1 X178.859 Y166.88 E0.01202
G1 X171.614 Y166.895 E0.1929
G1 X170.748 Y166.915 E0.02306
G1 X169.874 Y166.971 E0.02333
G1 X169.013 Y167.062 E0.02306
G1 X164.54 Y167.629 E0.12005
G1 X164.202 Y167.657 E0.00904
G1 X149.173 Y167.692 E0.40018
G1 X149.172 Y167.025 E0.01776
G1 X149.877 Y166.903 E0.01903
G1 X150.28 Y166.781 E0.01121
G1 X150.669 Y166.621 E0.01121
G1 X151.193 Y166.325 E0.01602
G1 X151.667 Y165.955 E0.01603
G1 X151.974 Y165.649 E0.01153
G1 X152.337 Y165.184 E0.01571
G1 X152.56 Y164.812 E0.01153
G1 X152.799 Y164.273 E0.01572
G1 X152.922 Y163.869 E0.01122
G1 X153.002 Y163.468 E0.0109
G1 X153.041 Y163.062 E0.01086
G1 X153.045 Y161.833 E0.03271
G1 X153.025 Y161.435 E0.01063
G1 X152.924 Y160.853 E0.01572
G1 X152.801 Y160.45 E0.01122
G1 X152.644 Y160.072 E0.0109
G1 X152.451 Y159.711 E0.0109
G1 X152.216 Y159.361 E0.01122
G1 X151.83 Y158.915 E0.01571
G1 X151.517 Y158.632 E0.01121
G1 X151.188 Y158.389 E0.0109
G1 X150.837 Y158.18 E0.0109
G1 X150.456 Y158 E0.01121
G1 X149.896 Y157.816 E0.0157
G1 X149.483 Y157.735 E0.01121
G1 X149.168 Y157.705 E0.00841
G1 X149.168 Y157.023 E0.01816
G1 X161.931 Y157.037 E0.33984
G1 X162.398 Y157.283 E0.01406
G1 X162.784 Y157.415 E0.01086
G1 X163.15 Y157.495 E0.00997
G1 X163.51 Y157.535 E0.00964
G1 X164.379 Y157.555 E0.02316
G1 X165.372 Y157.664 E0.02659
G1 X165.08 Y158.311 E0.01889
G1 X164.952 Y158.872 E0.01532
G1 X164.925 Y159.413 E0.01442
G1 X165.27 Y159.34 F30000
G1 F1800
G1 X165.306 Y159.702 E0.0097
G1 X165.402 Y160.08 E0.01037
G1 X165.554 Y160.439 E0.01037
G1 X165.757 Y160.771 E0.01037
G1 X166.007 Y161.07 E0.01038
G1 X166.299 Y161.328 E0.01038
G1 X166.626 Y161.54 E0.01038
G1 X166.981 Y161.7 E0.01038
G1 X167.349 Y161.804 E0.01017
G1 X167.629 Y161.847 E0.00753
G1 X170.503 Y161.858 E0.07654
G1 X170.771 Y161.831 E0.00717
G1 X171.152 Y161.745 E0.01041
G1 X171.626 Y161.546 E0.01367
G1 X172.057 Y161.252 E0.01388
G1 X172.421 Y160.879 E0.01388
G1 X172.704 Y160.441 E0.01389
G1 X172.895 Y159.956 E0.01389
G1 X172.985 Y159.442 E0.01389
G1 X172.972 Y158.921 E0.01389
G1 X172.855 Y158.412 E0.01389
G1 X172.652 Y157.963 E0.01314
G1 X178.864 Y157.97 E0.1654
G1 X179.34 Y157.994 E0.01269
G1 X179.795 Y158.063 E0.01227
G1 X180.241 Y158.177 E0.01227
G1 X180.674 Y158.335 E0.01225
G1 X181.292 Y158.653 E0.01851
G1 X181.669 Y158.911 E0.01215
G1 X182.021 Y159.207 E0.01226
G1 X182.342 Y159.537 E0.01226
G1 X182.629 Y159.897 E0.01226
G1 X182.879 Y160.283 E0.01226
G1 X183.088 Y160.693 E0.01225
