; generated by SuperSlicer 2.4 on 2022-10-17 at 07:16:20 UTC


;
;

;
;
; 

; external perimeters extrusion width = 0.45mm
; perimeters extrusion width = 0.45mm
; infill extrusion width = 0.45mm
; solid infill extrusion width = 0.48mm
; top infill extrusion width = 0.42mm
; first layer extrusion width = 0.38mm

; object:{"name":"libra mini 11","id":"libra mini 11.stl id:0 copy 0","object_center":[164.998857,162.502787,0.000000],"boundingbox_center":[164.998857,162.502787,4.661034],"boundingbox_size":[38.763126,21.601896,9.322067]}
; plater:{"center":[164.998857,162.502787,0.000000],"boundingbox_center":[164.998857,162.502787,4.661034],"boundingbox_size":[38.763126,21.601896,9.322067]}

M73 P0 R11
;TYPE:Custom
; custom gcode: start_gcode
M104 S0 ; Stops PS/SS from sending temp waits separately
M140 S0
PRINT_START EXTRUDER_TEMP=210 BED_TEMP=55
; custom gcode end: start_gcode
M107
G21 ; set units to millimeters
G90 ; use absolute coordinates
M83 ; use relative distances for extrusion
; custom gcode: start_filament_gcode
; Filament gcode
SET_GCODE_OFFSET Z=0
SET_PRESSURE_ADVANCE ADVANCE=0.05
; custom gcode end: start_filament_gcode
;_TOOLCHANGE 0
;LAYER_CHANGE
;Z:0.24
;HEIGHT:0.24
G1 Z0.24 F30000
G92 E0
M104 S210 ; set temperature
M73 P2 R11
G1 E-0.6 F1800
; printing object libra mini 11.stl id:0 copy 0
G1 X167.005 Y156.809 F30000
G1 E0.6 F1800
;TYPE:Internal perimeter
;WIDTH:0.38
G1 X167.011 Y156.02 E0.023
G1 X167.054 Y155.847 E0.0052
G1 X167.203 Y155.829 E0.00441
G1 X168.092 Y155.934 E0.02611
G1 X170.036 Y156.166 E0.05711
G1 X170.832 Y156.216 E0.02325
G1 X172.017 Y156.233 E0.03459
G1 X172.09 Y156.248 E0.00217
G1 X172.189 Y156.312 E0.00342
G1 X172.206 Y156.412 E0.00297
G1 X172.208 Y157.371 E0.02797
G1 X171.714 Y157.035 E0.01741
G1 X171.376 Y156.863 E0.01106
G1 X171.01 Y156.741 E0.01128
G1 X170.622 Y156.673 E0.01147
G1 X167.849 Y156.669 E0.0809
G1 X167.486 Y156.697 E0.01062
G1 X167.005 Y156.809 E0.01441
G1 E-0.6
G1 X154.676 Y159.289 F30000
G1 E0.6 F1800
G1 X154.655 Y159.308 E0.00082
G1 X154.39 Y159.667 E0.013
G1 X154.2 Y160.07 E0.01299
G1 X154.106 Y160.412 E0.01036
G1 X154.066 Y160.825 E0.01212
G1 X154.076 Y164.582 E0.10959
M73 P3 R11
G1 X154.164 Y165.026 E0.01319
G1 X154.337 Y165.444 E0.01322
G1 X154.585 Y165.815 E0.01299
G1 X154.829 Y166.072 E0.01036
G1 X155.181 Y166.333 E0.01278
G1 X155.498 Y166.493 E0.01037
G1 X155.917 Y166.621 E0.01278
G1 X156.255 Y166.663 E0.00992
G1 X162.414 Y166.672 E0.17967
G1 X162.934 Y166.609 E0.01528
G1 X163.37 Y166.453 E0.01352
G1 X163.761 Y166.219 E0.0133
G1 X164.094 Y165.918 E0.01308
G1 X164.314 Y165.636 E0.01043
G1 X164.522 Y165.248 E0.01286
G1 X164.632 Y164.915 E0.01021
G1 X164.691 Y164.571 E0.01019
G1 X164.698 Y160.82 E0.10942
G1 X164.656 Y160.396 E0.01244
G1 X164.523 Y159.96 E0.01331
G1 X164.304 Y159.551 E0.01353
G1 X163.946 Y159.137 E0.01596
G1 X163.658 Y158.913 E0.01065
G1 X163.269 Y158.706 E0.01285
G1 X162.93 Y158.595 E0.01042
G1 X162.502 Y158.532 E0.01262
G1 X161.988 Y158.533 E0.01498
G1 X156.35 Y158.543 E0.16449
G1 X156.025 Y158.567 E0.00949
G1 X155.6 Y158.675 E0.01278
G1 X155.276 Y158.819 E0.01037
G1 X154.912 Y159.063 E0.01278
G1 X154.676 Y159.289 E0.00954
G1 X154.903 Y159.527 F30000
;TYPE:External perimeter
G1 F1800
G1 X154.674 Y159.836 E0.01123
G1 X154.51 Y160.184 E0.01123
G1 X154.43 Y160.472 E0.00871
G1 X154.394 Y160.841 E0.01082
G1 X154.404 Y164.549 E0.10818
G1 X154.48 Y164.93 E0.01132
G1 X154.628 Y165.289 E0.01133
G1 X154.842 Y165.609 E0.01123
G1 X155.048 Y165.825 E0.00871
G1 X155.354 Y166.053 E0.01113
G1 X155.621 Y166.187 E0.00872
G1 X155.986 Y166.299 E0.01113
G1 X156.275 Y166.335 E0.00851
G1 X162.394 Y166.344 E0.17849
G1 X162.858 Y166.287 E0.01362
G1 X163.229 Y166.154 E0.01151
G1 X163.565 Y165.954 E0.01141
G1 X163.853 Y165.694 E0.01131
G1 X164.038 Y165.456 E0.00877
G1 X164.219 Y165.118 E0.01121
G1 X164.312 Y164.835 E0.00867
G1 X164.363 Y164.543 E0.00866
G1 X164.37 Y160.836 E0.10812
G1 X164.332 Y160.461 E0.01101
G1 X164.218 Y160.086 E0.01142
G1 X164.032 Y159.738 E0.01152
G1 X163.719 Y159.376 E0.01395
G1 X163.479 Y159.19 E0.00888
G1 X163.14 Y159.009 E0.0112
G1 X162.854 Y158.916 E0.00877
G1 X162.478 Y158.861 E0.01109
G1 X161.989 Y158.861 E0.01427
G1 X156.362 Y158.871 E0.16413
G1 X156.078 Y158.893 E0.00831
G1 X155.708 Y158.986 E0.01113
G1 X155.435 Y159.108 E0.00872
G1 X155.119 Y159.32 E0.01113
G1 X154.903 Y159.527 E0.00871
;WIPE_START
G1 X154.508 Y159.459 F30000
;WIPE_END
G1 E-0.6 F1800
G1 X164.938 Y157.916 F30000
G1 E0.6 F1800
;TYPE:Internal perimeter
G1 X164.808 Y158.204 E0.0092
G1 X164.627 Y158.919 E0.02153
G1 X164.401 Y158.658 E0.01008
G1 X164.017 Y158.36 E0.01419
G1 X163.487 Y158.078 E0.01749
G1 X163.553 Y157.827 E0.00758
G1 X164.357 Y157.846 E0.02345
G1 X164.938 Y157.916 E0.01706
G1 E-0.6
G1 X162.398 Y157.875 F30000
G1 E0.6 F1800
G1 X156.324 Y157.886 E0.17719
G1 X155.919 Y157.916 E0.01184
G1 X155.385 Y158.051 E0.01608
G1 X154.957 Y158.242 E0.01366
G1 X154.499 Y158.549 E0.01607
G1 X154.161 Y158.872 E0.01366
G1 X153.824 Y159.328 E0.01653
G1 X153.582 Y159.84 E0.01653
G1 X153.458 Y160.292 E0.01365
G1 X153.429 Y160.589 E0.00871
G1 X153.171 Y160.624 E0.00757
G1 X152.915 Y159.961 E0.02074
G1 X152.7 Y159.561 E0.01324
G1 X152.448 Y159.184 E0.01324
G1 X152.039 Y158.711 E0.01825
G1 X151.702 Y158.407 E0.01323
G1 X151.35 Y158.146 E0.01277
G1 X150.974 Y157.922 E0.01277
G1 X150.564 Y157.729 E0.01323
G1 X150.146 Y157.592 E0.01282
G1 X150.19 Y157.315 E0.00818
G1 X161.865 Y157.329 E0.34056
G1 X162.291 Y157.548 E0.01398
G1 X162.444 Y157.601 E0.00473
G1 X162.398 Y157.875 E0.0081
G1 E-0.6
G1 X153.418 Y164.202 F30000
G1 E0.6 F1800
G1 X153.419 Y164.648 E0.013
G1 X153.532 Y165.217 E0.01694
G1 X153.755 Y165.755 E0.01698
G1 X154.07 Y166.227 E0.01653
G1 X154.392 Y166.566 E0.01366
G1 X154.834 Y166.894 E0.01607
G1 X155.309 Y167.134 E0.01552
G1 X155.25 Y167.386 E0.00756
G1 X150.218 Y167.398 E0.14679
G1 X150.176 Y167.117 E0.00828
G1 X150.378 Y167.056 E0.00615
G1 X150.797 Y166.883 E0.01323
G1 X151.355 Y166.568 E0.0187
G1 X151.86 Y166.174 E0.0187
G1 X152.193 Y165.842 E0.01369
G1 X152.578 Y165.349 E0.01825
G1 X152.819 Y164.946 E0.0137
G1 X153.073 Y164.375 E0.01825
G1 X153.138 Y164.161 E0.00651
G1 X153.418 Y164.202 E0.00825
G1 E-0.6
G1 X165.354 Y161.332 F30000
G1 E0.6 F1800
G1 X165.918 Y161.83 E0.02195
G1 X166.324 Y162.093 E0.01412
G1 X166.751 Y162.286 E0.01365
G1 X167.089 Y162.391 E0.01034
G1 X167.565 Y162.475 E0.01408
G1 X170.533 Y162.486 E0.0866
G1 X170.872 Y162.453 E0.00995
G1 X171.345 Y162.345 E0.01415
G1 X171.927 Y162.101 E0.01841
G1 X172.462 Y161.737 E0.01888
G1 X172.914 Y161.273 E0.01889
G1 X173.266 Y160.73 E0.01889
G1 X173.503 Y160.127 E0.01889
G1 X173.615 Y159.489 E0.01889
G1 X173.598 Y158.842 E0.01889
G1 X173.541 Y158.592 E0.00747
G1 X178.847 Y158.598 E0.15477
G1 X179.276 Y158.62 E0.01254
G1 X179.67 Y158.68 E0.01161
G1 X180.055 Y158.778 E0.01161
G1 X180.421 Y158.912 E0.01135
G1 X180.97 Y159.194 E0.01801
G1 X181.288 Y159.412 E0.01125
G1 X181.593 Y159.668 E0.0116
G1 X181.87 Y159.953 E0.0116
G1 X182.118 Y160.264 E0.0116
G1 X182.333 Y160.598 E0.0116
G1 X182.515 Y160.952 E0.0116
G1 X182.66 Y161.322 E0.0116
G1 X182.768 Y161.704 E0.0116
G1 X182.837 Y162.096 E0.0116
G1 X182.867 Y162.492 E0.0116
G1 X182.857 Y162.89 E0.0116
G1 X182.808 Y163.284 E0.0116
G1 X182.72 Y163.672 E0.0116
G1 X182.593 Y164.049 E0.0116
G1 X182.43 Y164.411 E0.0116
G1 X182.232 Y164.756 E0.0116
G1 X182.007 Y165.069 E0.01125
G1 X181.588 Y165.523 E0.018
G1 X181.291 Y165.773 E0.01134
G1 X180.97 Y165.993 E0.01134
G1 X180.421 Y166.275 E0.01801
G1 X180.059 Y166.408 E0.01126
G1 X179.673 Y166.507 E0.01161
G1 X179.28 Y166.567 E0.01161
G1 X178.85 Y166.589 E0.01254
G1 X171.61 Y166.604 E0.21121
G1 X170.736 Y166.624 E0.02552
G1 X169.849 Y166.681 E0.02591
G1 X168.979 Y166.773 E0.02552
G1 X164.504 Y167.34 E0.13158
G1 X164.189 Y167.366 E0.00924
G1 X163.575 Y167.367 E0.01789
G1 X163.528 Y167.094 E0.00808
G1 X163.652 Y167.05 E0.00384
G1 X164.154 Y166.75 E0.01708
G1 X164.577 Y166.367 E0.01662
G1 X164.867 Y165.996 E0.01373
G1 X165.128 Y165.508 E0.01617
G1 X165.271 Y165.075 E0.01328
G1 X165.348 Y164.628 E0.01324
G1 X165.354 Y161.332 E0.09617
G1 X165.256 Y160.526 F30000
G1 F1800
G1 X165.512 Y160.947 E0.01438
G1 X165.792 Y161.28 E0.01268
G1 X166.117 Y161.568 E0.01268
G1 X166.482 Y161.804 E0.01268
G1 X166.867 Y161.978 E0.01234
G1 X167.167 Y162.071 E0.00915
G1 X167.594 Y162.147 E0.01265
G1 X170.517 Y162.158 E0.08528
G1 X170.82 Y162.128 E0.00886
G1 X171.245 Y162.031 E0.01271
G1 X171.769 Y161.811 E0.01661
G1 X172.25 Y161.484 E0.01696
G1 X172.656 Y161.068 E0.01697
G1 X172.972 Y160.579 E0.01697
G1 X173.185 Y160.037 E0.01697
G1 X173.286 Y159.465 E0.01697
G1 X173.271 Y158.883 E0.01697
G1 X173.129 Y158.263 E0.01855
G1 X178.855 Y158.27 E0.16705
G1 X179.309 Y158.293 E0.01326
G1 X179.735 Y158.357 E0.01257
G1 X180.153 Y158.464 E0.01257
G1 X180.553 Y158.61 E0.01242
G1 X181.138 Y158.912 E0.0192
G1 X181.487 Y159.15 E0.01233
G1 X181.817 Y159.427 E0.01256
G1 X182.117 Y159.735 E0.01256
G1 X182.385 Y160.072 E0.01256
G1 X182.618 Y160.434 E0.01255
G1 X182.815 Y160.816 E0.01255
G1 X182.972 Y161.217 E0.01255
G1 X183.088 Y161.631 E0.01255
G1 X183.163 Y162.055 E0.01255
G1 X183.195 Y162.484 E0.01255
G1 X183.185 Y162.914 E0.01255
G1 X183.132 Y163.341 E0.01255
G1 X183.036 Y163.761 E0.01255
G1 X182.9 Y164.169 E0.01255
G1 X182.723 Y164.561 E0.01255
G1 X182.508 Y164.934 E0.01255
G1 X182.262 Y165.277 E0.01232
G1 X181.816 Y165.761 E0.01919
G1 X181.49 Y166.035 E0.01242
G1 X181.139 Y166.275 E0.01242
G1 X180.553 Y166.576 E0.0192
G1 X180.156 Y166.722 E0.01233
G1 X179.739 Y166.829 E0.01257
G1 X179.313 Y166.894 E0.01257
G1 X178.859 Y166.918 E0.01326
G1 X171.614 Y166.933 E0.21135
M73 P4 R11
G1 X170.75 Y166.952 E0.02523
G1 X169.877 Y167.008 E0.02551
G1 X169.017 Y167.099 E0.02523
G1 X164.539 Y167.667 E0.1317
G1 X164.203 Y167.694 E0.00983
G1 X149.117 Y167.729 E0.44008
G1 X149.117 Y166.971 E0.0221
G1 X149.276 Y166.969 E0.00465
G1 X149.868 Y166.867 E0.01752
G1 X150.267 Y166.746 E0.01217
G1 X150.653 Y166.587 E0.01217
G1 X151.172 Y166.294 E0.0174
G1 X151.643 Y165.927 E0.0174
G1 X151.946 Y165.624 E0.01251
G1 X152.306 Y165.163 E0.01707
G1 X152.527 Y164.795 E0.01252
G1 X152.764 Y164.26 E0.01707
G1 X152.886 Y163.86 E0.01218
G1 X152.965 Y163.462 E0.01184
G1 X153.004 Y163.06 E0.01179
G1 X153.008 Y161.834 E0.03577
G1 X152.989 Y161.45 E0.0112
G1 X152.929 Y161.049 E0.01184
G1 X152.827 Y160.644 E0.01218
G1 X152.616 Y160.098 E0.01707
G1 X152.419 Y159.73 E0.01218
G1 X152.186 Y159.383 E0.01218
G1 X151.803 Y158.941 E0.01707
G1 X151.494 Y158.661 E0.01217
G1 X151.168 Y158.42 E0.01183
G1 X150.819 Y158.212 E0.01183
G1 X150.442 Y158.035 E0.01217
G1 X149.886 Y157.852 E0.01705
G1 X149.477 Y157.772 E0.01216
G1 X149.112 Y157.737 E0.01069
G1 X149.112 Y156.985 E0.02192
G1 X161.945 Y157 E0.37435
G1 X162.42 Y157.246 E0.01562
G1 X162.789 Y157.374 E0.01138
G1 X163.15 Y157.455 E0.0108
G1 X163.509 Y157.497 E0.01053
G1 X164.381 Y157.518 E0.02544
G1 X165.421 Y157.644 E0.03056
G1 X165.119 Y158.313 E0.0214
G1 X165.01 Y158.745 E0.01302
G1 X164.967 Y159.178 E0.01267
G1 X164.987 Y159.587 E0.01196
G1 X164.734 Y159.657 E0.00767
G1 X164.576 Y159.363 E0.00973
G1 X164.173 Y158.898 E0.01797
G1 X163.837 Y158.636 E0.01242
G1 X163.398 Y158.403 E0.0145
G1 X163.005 Y158.274 E0.01207
G1 X162.525 Y158.203 E0.01415
G1 X161.987 Y158.204 E0.01569
G1 X156.337 Y158.214 E0.16484
G1 X155.972 Y158.242 E0.01066
G1 X155.493 Y158.363 E0.01443
G1 X155.116 Y158.531 E0.01202
G1 X154.706 Y158.806 E0.01443
G1 X154.408 Y159.09 E0.01201
G1 X154.107 Y159.497 E0.01476
G1 X153.891 Y159.955 E0.01476
G1 X153.782 Y160.352 E0.01201
G1 X153.737 Y160.81 E0.01343
G1 X153.747 Y164.615 E0.11101
G1 X153.848 Y165.122 E0.01507
G1 X154.046 Y165.6 E0.0151
G1 X154.327 Y166.021 E0.01476
G1 X154.611 Y166.319 E0.01201
G1 X155.008 Y166.614 E0.01442
G1 X155.375 Y166.799 E0.01202
G1 X155.849 Y166.944 E0.01443
G1 X156.234 Y166.992 E0.01133
G1 X162.434 Y167.001 E0.18085
G1 X163.01 Y166.93 E0.01693
G1 X163.511 Y166.752 E0.01553
G1 X163.958 Y166.484 E0.01519
G1 X164.335 Y166.143 E0.01485
G1 X164.59 Y165.816 E0.01208
G1 X164.825 Y165.378 E0.01451
G1 X164.951 Y164.995 E0.01174
G1 X165.02 Y164.6 E0.01171
G1 X165.027 Y160.804 E0.11072
G1 X165.007 Y160.609 E0.00572
G1 X165.256 Y160.526 E0.00764
G1 X165.298 Y159.161 F30000
G1 F1800
G1 X165.296 Y159.186 E0.00072
G1 X165.316 Y159.578 E0.01146
G1 X165.427 Y160.064 E0.01453
G1 X165.579 Y160.426 E0.01146
G1 X165.78 Y160.755 E0.01124
G1 X166.027 Y161.05 E0.01124
G1 X166.316 Y161.305 E0.01124
G1 X166.64 Y161.515 E0.01125
G1 X166.984 Y161.67 E0.01102
G1 X167.245 Y161.751 E0.00795
G1 X167.624 Y161.818 E0.01123
G1 X170.502 Y161.829 E0.08396
G1 X170.767 Y161.803 E0.00777
G1 X171.144 Y161.717 E0.01128
G1 X171.612 Y161.521 E0.01481
G1 X172.038 Y161.231 E0.01504
G1 X172.398 Y160.862 E0.01505
G1 X172.678 Y160.428 E0.01505
G1 X172.867 Y159.948 E0.01505
G1 X172.957 Y159.44 E0.01505
G1 X172.943 Y158.924 E0.01505
G1 X172.828 Y158.421 E0.01505
G1 X172.608 Y157.934 E0.0156
G1 X178.864 Y157.941 E0.18251
G1 X179.342 Y157.966 E0.01398
G1 X179.801 Y158.035 E0.01353
G1 X180.25 Y158.15 E0.01352
G1 X180.685 Y158.309 E0.0135
G1 X181.306 Y158.629 E0.0204
G1 X181.686 Y158.888 E0.0134
G1 X182.04 Y159.186 E0.01351
G1 X182.364 Y159.518 E0.01351
G1 X182.652 Y159.88 E0.01351
G1 X182.903 Y160.269 E0.01351
G1 X183.114 Y160.681 E0.01351
G1 X183.284 Y161.112 E0.01351
G1 X183.409 Y161.558 E0.01351
G1 X183.489 Y162.014 E0.01351
G1 X183.524 Y162.476 E0.01351
G1 X183.513 Y162.939 E0.01351
G1 X183.456 Y163.398 E0.01351
G1 X183.353 Y163.849 E0.01351
G1 X183.206 Y164.289 E0.01351
G1 X183.016 Y164.711 E0.01351
G1 X182.785 Y165.112 E0.01351
G1 X182.517 Y165.485 E0.01339
G1 X182.043 Y165.999 E0.02039
G1 X181.689 Y166.297 E0.0135
G1 X181.307 Y166.558 E0.0135
G1 X180.685 Y166.878 E0.0204
G1 X180.254 Y167.036 E0.0134
G1 X179.805 Y167.151 E0.01352
G1 X179.347 Y167.221 E0.01352
G1 X178.868 Y167.246 E0.01398
G1 X171.619 Y167.261 E0.21149
G1 X170.764 Y167.281 E0.02493
G1 X169.905 Y167.336 E0.02512
G1 X169.055 Y167.425 E0.02493
G1 X164.573 Y167.993 E0.13181
G1 X164.216 Y168.023 E0.01042
G1 X148.789 Y168.058 E0.45006
G1 X148.788 Y166.647 E0.04116
G1 X149.246 Y166.641 E0.01335
G1 X149.792 Y166.547 E0.01618
G1 X150.157 Y166.437 E0.01111
G1 X150.509 Y166.291 E0.01111
G1 X150.989 Y166.02 E0.0161
G1 X151.425 Y165.68 E0.01611
G1 X151.7 Y165.406 E0.01133
G1 X152.035 Y164.976 E0.01589
G1 X152.235 Y164.643 E0.01134
G1 X152.456 Y164.145 E0.01589
G1 X152.567 Y163.78 E0.01112
G1 X152.639 Y163.414 E0.0109
G1 X152.676 Y163.043 E0.01087
G1 X152.679 Y161.841 E0.03506
G1 X152.661 Y161.483 E0.01048
G1 X152.606 Y161.113 E0.0109
G1 X152.513 Y160.744 E0.01112
G1 X152.317 Y160.235 E0.01589
G1 X152.137 Y159.9 E0.01112
G1 X151.925 Y159.583 E0.01112
G1 X151.568 Y159.171 E0.01589
G1 X151.286 Y158.916 E0.01111
G1 X150.985 Y158.694 E0.01089
G1 X150.665 Y158.503 E0.01089
G1 X150.32 Y158.341 E0.01111
G1 X149.803 Y158.171 E0.01588
G1 X149.43 Y158.097 E0.0111
G1 X149.06 Y158.062 E0.01084
G1 X148.784 Y158.061 E0.00804
G1 X148.784 Y156.657 E0.04097
G1 X162.025 Y156.672 E0.38627
G1 X162.55 Y156.943 E0.01725
G1 X162.88 Y157.057 E0.01017
G1 X163.206 Y157.131 E0.00975
G1 X163.532 Y157.169 E0.00958
G1 X164.404 Y157.19 E0.02546
G1 X166.088 Y157.393 E0.04946
G1 X165.857 Y157.642 E0.00989
G1 X165.635 Y157.967 E0.01147
G1 X165.431 Y158.421 E0.01454
G1 X165.334 Y158.802 E0.01147
G1 X165.298 Y159.161 E0.01052
G1 X165.625 Y159.194 F30000
;TYPE:External perimeter
G1 F1800
G1 X165.642 Y159.533 E0.00991
G1 X165.74 Y159.962 E0.01285
G1 X165.872 Y160.276 E0.00991
G1 X166.047 Y160.562 E0.00981
G1 X166.263 Y160.82 E0.00981
G1 X166.515 Y161.043 E0.00981
G1 X166.798 Y161.225 E0.00981
G1 X167.101 Y161.363 E0.00971
G1 X167.322 Y161.431 E0.00676
G1 X167.653 Y161.49 E0.00981
G1 X170.486 Y161.501 E0.08265
G1 X170.714 Y161.478 E0.00668
G1 X171.043 Y161.403 E0.00984
G1 X171.454 Y161.23 E0.01301
G1 X171.826 Y160.977 E0.01312
G1 X172.14 Y160.656 E0.01313
G1 X172.385 Y160.278 E0.01313
G1 X172.549 Y159.859 E0.01313
G1 X172.627 Y159.415 E0.01313
G1 X172.616 Y158.965 E0.01313
G1 X172.515 Y158.527 E0.01313
G1 X172.33 Y158.117 E0.01313
