; generated by SuperSlicer 2.4 on 2022-11-04 at 09:04:20 UTC


;
;

;
;
; 

; external perimeters extrusion width = 0.45mm
; perimeters extrusion width = 0.45mm
; infill extrusion width = 0.45mm
; solid infill extrusion width = 0.48mm
; top infill extrusion width = 0.42mm
; first layer extrusion width = 0.38mm

; object:{"name":"libra mini 13","id":"libra mini 13.stl id:0 copy 0","object_center":[165.000000,162.500000,0.000000],"boundingbox_center":[165.000000,162.500000,8.750000],"boundingbox_size":[51.263294,32.576488,17.500000]}
; plater:{"center":[165.000000,162.500000,0.000000],"boundingbox_center":[165.000000,162.500000,8.750000],"boundingbox_size":[51.263294,32.576488,17.500000]}

;TYPE:Custom
; M190 S0
; M109 S0 ; uncomment to remove set&wait temp gcode added automatically after this start gcode
PRINT_START EXTRUDER_TEMP=260 BED_TEMP=100
M107
G21 ; set units to millimeters
G90 ; use absolute coordinates
M83 ; use relative distances for extrusion
;_TOOLCHANGE 0
M104 S260 ; set temperature
M109 S260 ; set temperature and wait for it to be reached
M190 S100 ; set bed temperature and wait for it to be reached
M107
;LAYER_CHANGE
;Z:0.2
;HEIGHT:0.2
;BEFORE_LAYER_CHANGE
;0.2


G1 Z0.2 F30000
;AFTER_LAYER_CHANGE
;0.2
G92 E0
G1 E-0.75 F3000
G1 Z0.6 F30000
; printing object libra mini 13.stl id:0 copy 0
G1 X171.467 Y167.436
G1 Z0.2
G1 E0.75 F1800
;TYPE:Internal perimeter
;WIDTH:0.38
G1 F1500
G1 X171.102 Y167.678 E0.01228
G1 X170.714 Y168.254 E0.01945
G1 X170.589 Y168.799 E0.01568
G1 X170.588 Y175.25 E0.18082
G1 X170.639 Y175.622 E0.01051
G1 X170.881 Y176.221 E0.0181
G1 X161.277 Y176.221 E0.26919
G1 X161.593 Y175.659 E0.01805
G1 X161.69 Y175.161 E0.01422
G1 X161.69 Y173.954 E0.03383
G1 X161.66 Y173.552 E0.01129
G1 X161.48 Y172.912 E0.01865
G1 X161.139 Y172.322 E0.01911
G1 X160.749 Y171.9 E0.01609
G1 X160.31 Y171.583 E0.01519
G1 X159.931 Y171.4 E0.01178
G1 X159.42 Y171.229 E0.01512
G1 X159.174 Y171.12 E0.00755
G1 X158.942 Y170.988 E0.00747
G1 X158.725 Y170.834 E0.00747
G1 X158.523 Y170.659 E0.00747
G1 X158.34 Y170.466 E0.00747
G1 X158.177 Y170.255 E0.00747
G1 X158.044 Y170.043 E0.00702
G1 X157.862 Y169.652 E0.0121
G1 X157.785 Y169.414 E0.00702
G1 X157.731 Y169.165 E0.00714
G1 X157.641 Y168.243 E0.02595
G1 X157.503 Y167.49 E0.02146
G1 X158.137 Y167.703 E0.01874
G1 X158.943 Y167.888 E0.02319
G1 X159.764 Y167.991 E0.02319
G1 X160.575 Y168.012 E0.02274
G1 X161.021 Y167.99 E0.01251
G1 X161.826 Y167.889 E0.02273
G1 X162.632 Y167.706 E0.02319
G1 X163.417 Y167.443 E0.02319
G1 X164.171 Y167.103 E0.02319
G1 X164.888 Y166.69 E0.02319
G1 X165.561 Y166.207 E0.02319
G1 X166.181 Y165.66 E0.02319
G1 X166.41 Y165.415 E0.0094
G1 X166.909 Y165.673 E0.01575
G1 X167.515 Y165.914 E0.0183
G1 X168.139 Y166.093 E0.01819
G1 X168.518 Y166.157 E0.01076
G1 X168.638 Y166.307 E0.00539
G1 X169.706 Y166.572 E0.03083
G1 X170.551 Y166.731 E0.02411
G1 X170.845 Y167.274 E0.0173
G1 X171.409 Y167.421 E0.01632
G1 X172.16 Y167.268 F30000
G1 F1500
G1 X172.155 Y167.534 E0.00744
G1 X171.815 Y167.609 E0.00977
G1 X171.344 Y167.922 E0.01585
G1 X171.028 Y168.39 E0.01583
G1 X170.926 Y168.837 E0.01286
G1 X170.925 Y175.227 E0.1791
G1 X170.967 Y175.534 E0.00868
G1 X171.103 Y175.871 E0.01018
G1 X171.318 Y176.164 E0.01017
G1 X171.792 Y176.558 E0.01728
G1 X160.667 Y176.558 E0.31183
G1 X160.605 Y176.298 E0.00747
G1 X160.738 Y176.231 E0.00418
G1 X161.053 Y175.931 E0.01219
G1 X161.273 Y175.541 E0.01254
G1 X161.353 Y175.129 E0.01178
G1 X161.353 Y173.967 E0.03257
G1 X161.327 Y173.611 E0.00999
G1 X161.167 Y173.044 E0.01652
G1 X160.866 Y172.523 E0.01686
G1 X160.525 Y172.154 E0.01409
G1 X160.136 Y171.874 E0.01342
G1 X159.804 Y171.713 E0.01036
G1 X159.298 Y171.543 E0.01496
G1 X159.022 Y171.421 E0.00846
G1 X158.761 Y171.273 E0.0084
G1 X158.516 Y171.1 E0.0084
G1 X158.29 Y170.903 E0.0084
G1 X158.084 Y170.685 E0.0084
G1 X157.9 Y170.448 E0.0084
G1 X157.747 Y170.204 E0.00807
G1 X157.547 Y169.775 E0.01326
G1 X157.459 Y169.501 E0.00807
G1 X157.397 Y169.217 E0.00816
G1 X157.307 Y168.29 E0.0261
G1 X157.208 Y167.753 E0.01532
G1 X156.967 Y166.896 E0.02495
G1 X157.476 Y167.125 E0.01564
G1 X158.228 Y167.378 E0.02225
G1 X159.002 Y167.555 E0.02225
G1 X159.79 Y167.655 E0.02225
G1 X160.571 Y167.674 E0.02191
G1 X160.992 Y167.654 E0.0118
G1 X161.767 Y167.557 E0.02191
G1 X162.541 Y167.381 E0.02225
G1 X163.294 Y167.129 E0.02225
G1 X164.018 Y166.803 E0.02225
G1 X164.705 Y166.406 E0.02225
G1 X165.35 Y165.943 E0.02225
G1 X165.946 Y165.419 E0.02225
G1 X166.35 Y164.984 E0.01663
G1 X166.499 Y165.081 E0.005
G1 X167.049 Y165.366 E0.01735
G1 X167.624 Y165.595 E0.01735
G1 X168.214 Y165.764 E0.01719
G1 X168.7 Y165.846 E0.01382
G1 X168.83 Y166.007 E0.00579
G1 X169.778 Y166.242 E0.02738
G1 X170.771 Y166.43 E0.02834
G1 X171.072 Y166.985 E0.01769
G1 X172.102 Y167.253 E0.02984
G1 X171.642 Y168.129 F30000
G1 F1500
G1 X171.586 Y168.166 E0.00187
G1 X171.343 Y168.527 E0.0122
G1 X171.263 Y168.876 E0.01003
G1 X171.262 Y175.204 E0.17738
G1 X171.295 Y175.447 E0.00686
G1 X171.4 Y175.706 E0.00783
G1 X171.565 Y175.931 E0.00782
G1 X171.78 Y176.109 E0.00782
G1 X172.039 Y176.233 E0.00806
G1 X172.321 Y176.282 E0.00801
G1 X183.011 Y176.337 E0.29961
G1 X183.286 Y176.297 E0.00781
G1 X183.547 Y176.182 E0.00798
G1 X183.766 Y176.013 E0.00776
G1 X183.942 Y175.789 E0.00798
G1 X184.07 Y175.482 E0.00932
G1 X184.1 Y175.102 E0.0107
G1 X183.948 Y174.552 E0.01599
G1 X183.89 Y174.249 E0.00864
G1 X183.864 Y173.955 E0.00827
G1 X183.879 Y173.486 E0.01315
G1 X183.925 Y173.195 E0.00827
G1 X184.001 Y172.902 E0.00848
G1 X184.107 Y172.617 E0.00852
G1 X184.32 Y172.172 E0.01384
G1 X184.384 Y171.821 E0.00999
G1 X184.338 Y171.491 E0.00933
G1 X184.224 Y171.23 E0.00799
G1 X184.055 Y171.01 E0.00777
G1 X183.832 Y170.833 E0.00798
G1 X183.578 Y170.725 E0.00775
G1 X172.623 Y167.87 E0.3173
G1 X172.329 Y167.84 E0.00828
G1 X171.949 Y167.925 E0.0109
G1 X171.692 Y168.096 E0.00866
G1 X171.828 Y168.41 F30000
;TYPE:External perimeter
G1 F1500
G1 X171.657 Y168.663 E0.00858
G1 X171.6 Y168.914 E0.00721
G1 X171.599 Y175.181 E0.17567
G1 X171.624 Y175.359 E0.00503
G1 X171.697 Y175.541 E0.00548
G1 X171.812 Y175.698 E0.00548
G1 X171.963 Y175.823 E0.00548
G1 X172.143 Y175.909 E0.00559
G1 X172.351 Y175.945 E0.00593
G1 X182.987 Y175.999 E0.29812
G1 X183.193 Y175.97 E0.00582
G1 X183.373 Y175.89 E0.00553
G1 X183.526 Y175.772 E0.00543
G1 X183.649 Y175.617 E0.00553
G1 X183.738 Y175.402 E0.00652
G1 X183.759 Y175.135 E0.00752
G1 X183.62 Y174.629 E0.01471
G1 X183.556 Y174.296 E0.00949
G1 X183.526 Y173.965 E0.00932
G1 X183.543 Y173.455 E0.01432
G1 X183.595 Y173.126 E0.00932
G1 X183.679 Y172.801 E0.00942
G1 X183.796 Y172.485 E0.00943
G1 X183.997 Y172.067 E0.01302
G1 X184.043 Y171.814 E0.0072
G1 X184.01 Y171.584 E0.00653
G1 X183.932 Y171.402 E0.00554
G1 X183.813 Y171.248 E0.00544
G1 X183.659 Y171.126 E0.00553
G1 X183.469 Y171.045 E0.00578
G1 X172.563 Y168.203 E0.31588
G1 X172.349 Y168.181 E0.00604
G1 X172.083 Y168.24 E0.00762
G1 X171.878 Y168.376 E0.0069
;WIPE_START
G1 X171.436 Y168.33 F30000
;WIPE_END
G1 E-0.75 F3000
G1 Z0.6 F30000
G1 X185.039 Y171.413
G1 Z0.2
G1 E0.75 F1800
;TYPE:Internal perimeter
G1 F1500
G1 X184.81 Y170.885 E0.01614
G1 X184.603 Y170.616 E0.00953
G1 X184.836 Y170.558 E0.00675
G1 X185.297 Y170.282 E0.01505
G1 X185.652 Y169.89 E0.01481
G1 X185.827 Y170.236 E0.01086
G1 X186.063 Y170.568 E0.01142
G1 X186.298 Y170.815 E0.00955
G1 X185.606 Y171.067 E0.02064
G1 X185.09 Y171.382 E0.01695
G1 X184.769 Y172.139 F30000
G1 F1500
G1 X184.665 Y171.399 E0.02093
G1 X184.517 Y171.058 E0.01044
G1 X184.298 Y170.772 E0.0101
G1 X184.045 Y170.572 E0.00903
G1 X184.137 Y170.339 E0.007
G1 X184.271 Y170.35 E0.00378
G1 X184.707 Y170.243 E0.01257
G1 X185.081 Y170.019 E0.01223
G1 X185.39 Y169.677 E0.01291
G1 X185.565 Y169.251 E0.01292
G1 X185.808 Y169.267 E0.00682
G1 X185.852 Y169.438 E0.00495
G1 X185.954 Y169.742 E0.00898
G1 X186.117 Y170.061 E0.01004
G1 X186.324 Y170.354 E0.01005
G1 X186.571 Y170.613 E0.01005
G1 X187.136 Y171.055 E0.02011
G1 X186.262 Y171.187 E0.02479
G1 X185.753 Y171.372 E0.01518
G1 X185.291 Y171.654 E0.01518
G1 X184.813 Y172.098 E0.01828
G1 X184.69 Y173.033 F30000
G1 F1500
G1 X184.676 Y173.064 E0.00095
G1 X184.571 Y173.526 E0.01329
G1 X184.559 Y174 E0.01328
G1 X184.641 Y174.466 E0.01328
G1 X184.815 Y174.908 E0.01329
G1 X185.072 Y175.306 E0.01328
G1 X185.403 Y175.645 E0.01328
G1 X185.788 Y175.908 E0.01306
G1 X186.126 Y176.06 E0.01041
G1 X186.578 Y176.175 E0.01306
G1 X187.051 Y176.199 E0.01329
G1 X187.52 Y176.128 E0.01328
G1 X187.965 Y175.966 E0.01328
G1 X188.37 Y175.719 E0.01329
G1 X188.717 Y175.397 E0.01329
G1 X188.994 Y175.012 E0.01328
G1 X189.189 Y174.58 E0.01329
G1 X189.294 Y174.118 E0.01328
G1 X189.306 Y173.644 E0.01328
G1 X189.224 Y173.177 E0.01329
G1 X189.054 Y172.743 E0.01306
G1 X188.86 Y172.426 E0.01041
G1 X188.552 Y172.077 E0.01306
G1 X188.174 Y171.791 E0.01329
G1 X187.747 Y171.585 E0.01328
G1 X187.287 Y171.468 E0.01329
G1 X186.814 Y171.445 E0.01329
G1 X186.345 Y171.515 E0.01328
G1 X185.9 Y171.677 E0.01329
G1 X185.496 Y171.924 E0.01328
G1 X185.148 Y172.247 E0.01329
G1 X184.871 Y172.632 E0.01329
G1 X184.715 Y172.978 E0.01066
G1 X184.998 Y173.172 F30000
;TYPE:External perimeter
G1 F1500
G1 X184.907 Y173.568 E0.01139
G1 X184.897 Y173.974 E0.01139
G1 X184.968 Y174.375 E0.01139
G1 X185.116 Y174.753 E0.01139
G1 X185.337 Y175.095 E0.01139
G1 X185.62 Y175.386 E0.01139
G1 X185.953 Y175.613 E0.01129
G1 X186.238 Y175.741 E0.00875
G1 X186.628 Y175.84 E0.01129
G1 X187.034 Y175.861 E0.01139
G1 X187.436 Y175.8 E0.01139
G1 X187.818 Y175.661 E0.01139
G1 X188.165 Y175.449 E0.01139
G1 X188.463 Y175.173 E0.01139
G1 X188.701 Y174.842 E0.01139
G1 X188.868 Y174.472 E0.01139
G1 X188.958 Y174.076 E0.01139
G1 X188.968 Y173.669 E0.01139
G1 X188.898 Y173.269 E0.01139
G1 X188.751 Y172.894 E0.01129
G1 X188.588 Y172.627 E0.00875
G1 X188.321 Y172.325 E0.01129
G1 X187.997 Y172.08 E0.01139
G1 X187.631 Y171.903 E0.01139
G1 X187.237 Y171.803 E0.01139
G1 X186.831 Y171.783 E0.01139
G1 X186.429 Y171.843 E0.01139
G1 X186.047 Y171.982 E0.01139
G1 X185.7 Y172.194 E0.01139
G1 X185.402 Y172.471 E0.01139
G1 X185.165 Y172.801 E0.01139
G1 X185.022 Y173.117 E0.00971
;WIPE_START
G1 X184.608 Y173.264 F30000
;WIPE_END
G1 X184.654 Y175.28
;TYPE:Internal perimeter
G1 F1500
G1 X184.807 Y175.517 E0.0079
G1 X185.185 Y175.905 E0.01518
G1 X185.622 Y176.203 E0.01484
G1 X185.819 Y176.291 E0.00604
G1 X185.761 Y176.558 E0.00763
G1 X183.985 Y176.558 E0.04979
G1 X183.907 Y176.33 E0.00675
G1 X184.005 Y176.254 E0.00347
G1 X184.235 Y175.962 E0.01042
G1 X184.402 Y175.563 E0.01212
G1 X184.42 Y175.34 E0.00627
G1 X184.596 Y175.295 E0.0051
G1 E-0.75 F3000
G1 Z0.6 F30000
G1 X182.767 Y153.73
G1 Z0.2
G1 E0.75 F1800
G1 F1500
G1 X182.247 Y154.255 E0.02072
G1 X182.003 Y153.535 E0.02129
G1 X182.709 Y153.715 E0.02041
G1 X185.28 Y153.159 F30000
G1 F1500
G1 X185.765 Y152.708 E0.01859
G1 X186.138 Y152.189 E0.01791
G1 X186.4 Y151.606 E0.0179
G1 X186.542 Y150.984 E0.0179
G1 X186.558 Y150.346 E0.01788
G1 X186.447 Y149.718 E0.01787
G1 X186.214 Y149.123 E0.0179
G1 X185.876 Y148.6 E0.01745
G1 X185.528 Y148.225 E0.01435
G1 X185.032 Y147.85 E0.01744
G1 X184.877 Y147.775 E0.00481
G1 X184.937 Y147.513 E0.00754
G1 X187.348 Y147.513 E0.06758
G1 X187.348 Y153.156 E0.15817
G1 X185.34 Y153.159 E0.05629
G1 E-0.75 F3000
G1 Z0.6 F30000
G1 X176.204 Y150.925
G1 Z0.2
G1 E0.75 F1800
G1 F1500
G1 X176.245 Y150.833 E0.00284
G1 X176.374 Y150.268 E0.01623
G1 X176.389 Y149.689 E0.01623
G1 X176.288 Y149.119 E0.01623
G1 X176.077 Y148.58 E0.01623
G1 X175.762 Y148.094 E0.01623
G1 X175.196 Y147.513 E0.02274
G1 X181.796 Y147.513 E0.185
G1 X181.866 Y147.759 E0.00715
G1 X181.421 Y148.031 E0.0146
G1 X180.953 Y148.465 E0.0179
G1 X180.58 Y148.984 E0.0179
G1 X180.318 Y149.566 E0.0179
G1 X180.18 Y150.173 E0.01744
G1 X180.154 Y150.684 E0.01434
G1 X180.232 Y151.302 E0.01744
G1 X180.436 Y151.907 E0.0179
G1 X180.788 Y152.516 E0.01971
G1 X180.07 Y152.411 E0.02032
G1 X175.044 Y152.411 E0.14086
G1 X175.669 Y151.831 E0.02389
G1 X176.007 Y151.361 E0.01623
G1 X176.179 Y150.98 E0.01171
G1 X175.897 Y150.786 F30000
G1 F1500
G1 X175.924 Y150.725 E0.00189
G1 X176.038 Y150.226 E0.01434
G1 X176.051 Y149.715 E0.01434
G1 X175.962 Y149.211 E0.01434
G1 X175.775 Y148.735 E0.01434
G1 X175.498 Y148.305 E0.01434
G1 X175.149 Y147.948 E0.014
G1 X174.818 Y147.709 E0.01143
G1 X174.254 Y147.438 E0.01753
G1 X174.314 Y147.176 E0.00753
G1 X187.685 Y147.176 E0.37477
G1 X187.685 Y153.493 E0.17706
G1 X184.524 Y153.497 E0.0886
G1 X184.474 Y153.219 E0.00793
G1 X184.605 Y153.171 E0.00391
G1 X185.093 Y152.873 E0.01602
G1 X185.511 Y152.484 E0.01601
G1 X185.845 Y152.02 E0.01601
G1 X186.079 Y151.499 E0.01601
G1 X186.206 Y150.942 E0.01601
G1 X186.22 Y150.371 E0.01599
G1 X186.121 Y149.81 E0.01598
G1 X185.912 Y149.278 E0.01601
G1 X185.609 Y148.808 E0.01567
G1 X185.301 Y148.476 E0.0127
G1 X184.855 Y148.139 E0.01567
G1 X184.339 Y147.89 E0.01604
G1 X183.786 Y147.75 E0.01602
G1 X183.215 Y147.721 E0.01601
G1 X182.65 Y147.807 E0.01601
G1 X182.113 Y148.002 E0.01601
G1 X181.626 Y148.3 E0.01601
G1 X181.207 Y148.689 E0.01601
G1 X180.874 Y149.153 E0.01601
G1 X180.639 Y149.674 E0.01601
G1 X180.515 Y150.219 E0.01567
G1 X180.493 Y150.671 E0.01269
G1 X180.562 Y151.226 E0.01567
G1 X180.744 Y151.768 E0.01601
G1 X181.03 Y152.262 E0.01601
G1 X181.408 Y152.691 E0.01601
G1 X181.864 Y153.035 E0.01601
G1 X182.379 Y153.283 E0.01601
G1 X182.933 Y153.424 E0.01601
G1 X183.363 Y153.445 E0.01207
G1 X183.424 Y153.687 E0.00699
G1 X183.075 Y153.898 E0.01142
G1 X182.683 Y154.294 E0.01563
G1 X182.428 Y154.777 E0.01529
G1 X182.352 Y155.059 E0.00819
G1 X182.093 Y155.057 E0.00728
G1 X181.868 Y154.187 E0.0252
G1 X181.783 Y153.935 E0.00745
G1 X181.605 Y153.608 E0.01042
G1 X181.36 Y153.312 E0.01077
G1 X181.043 Y153.055 E0.01143
G1 X180.543 Y152.821 E0.01547
G1 X180.046 Y152.748 E0.0141
G1 X173.885 Y152.748 E0.17267
G1 X173.861 Y152.436 E0.00877
G1 X174.123 Y152.396 E0.00741
G1 X174.604 Y152.221 E0.01434
G1 X175.04 Y151.955 E0.01434
G1 X175.415 Y151.607 E0.01434
G1 X175.714 Y151.191 E0.01434
G1 X175.872 Y150.841 E0.01077
G1 E-0.75 F3000
G1 Z0.6 F30000
G1 X183.519 Y153.109
G1 Z0.2
G1 E0.75 F1800
G1 F1500
G1 X183.984 Y153.038 E0.01318
G1 X184.458 Y152.866 E0.01413
G1 X184.888 Y152.603 E0.01413
G1 X185.257 Y152.26 E0.01412
G1 X185.551 Y151.85 E0.01412
G1 X185.758 Y151.391 E0.01412
G1 X185.87 Y150.9 E0.01412
G1 X185.882 Y150.397 E0.01411
G1 X185.795 Y149.901 E0.0141
G1 X185.611 Y149.432 E0.01412
G1 X185.342 Y149.016 E0.0139
G1 X185.074 Y148.727 E0.01104
G1 X184.678 Y148.428 E0.0139
G1 X184.224 Y148.209 E0.01414
G1 X183.735 Y148.085 E0.01412
G1 X183.232 Y148.06 E0.01412
G1 X182.734 Y148.135 E0.01412
G1 X182.26 Y148.308 E0.01412
G1 X181.831 Y148.57 E0.01412
G1 X181.461 Y148.913 E0.01412
G1 X181.167 Y149.323 E0.01412
G1 X180.96 Y149.782 E0.01412
G1 X180.85 Y150.265 E0.0139
G1 X180.831 Y150.659 E0.01104
G1 X180.893 Y151.151 E0.0139
G1 X181.053 Y151.628 E0.01412
G1 X181.305 Y152.065 E0.01412
G1 X181.639 Y152.442 E0.01412
G1 X182.041 Y152.746 E0.01412
G1 X182.495 Y152.965 E0.01412
G1 X182.983 Y153.089 E0.01412
G1 X183.46 Y153.112 E0.01339
G1 X183.469 Y152.775 F30000
;TYPE:External perimeter
G1 F1500
G1 X183.901 Y152.71 E0.01223
G1 X184.311 Y152.561 E0.01224
G1 X184.683 Y152.333 E0.01223
G1 X185.003 Y152.036 E0.01223
G1 X185.258 Y151.681 E0.01223
G1 X185.437 Y151.283 E0.01223
G1 X185.534 Y150.858 E0.01223
G1 X185.544 Y150.422 E0.01222
G1 X185.469 Y149.993 E0.01221
G1 X185.309 Y149.587 E0.01223
G1 X185.074 Y149.223 E0.01213
G1 X184.847 Y148.978 E0.00939
G1 X184.502 Y148.717 E0.01212
G1 X184.108 Y148.527 E0.01225
G1 X183.685 Y148.42 E0.01223
G1 X183.249 Y148.398 E0.01223
G1 X182.818 Y148.463 E0.01223
G1 X182.407 Y148.613 E0.01223
G1 X182.035 Y148.84 E0.01223
G1 X181.715 Y149.137 E0.01223
G1 X181.461 Y149.492 E0.01223
G1 X181.281 Y149.89 E0.01223
G1 X181.185 Y150.312 E0.01213
G1 X181.169 Y150.646 E0.00938
G1 X181.223 Y151.075 E0.01213
G1 X181.362 Y151.489 E0.01223
G1 X181.58 Y151.867 E0.01223
G1 X181.869 Y152.194 E0.01223
G1 X182.217 Y152.457 E0.01223
G1 X182.61 Y152.646 E0.01223
G1 X183.033 Y152.754 E0.01223
G1 X183.409 Y152.772 E0.01055
;WIPE_START
