; generated by SuperSlicer 2.4 on 2022-10-16 at 16:46:51 UTC


;
;

;
;
; 

; external perimeters extrusion width = 0.45mm
; perimeters extrusion width = 0.45mm
; infill extrusion width = 0.45mm
; solid infill extrusion width = 0.48mm
; top infill extrusion width = 0.40mm
; support material extrusion width = 0.45mm
; first layer extrusion width = 0.38mm

; object:{"name":"libra mini 11","id":"libra mini 11.stl id:0 copy 0","object_center":[165.021089,162.489251,0.000000],"boundingbox_center":[165.021089,162.489251,4.661034],"boundingbox_size":[21.616260,38.782144,9.322067]}
; plater:{"center":[165.021089,162.489251,0.000000],"boundingbox_center":[165.021089,162.489251,4.661034],"boundingbox_size":[21.616260,38.782144,9.322067]}

M73 P0 R7
;TYPE:Custom
; custom gcode: start_gcode
M104 S0 ; Stops PS/SS from sending temp waits separately
M140 S0
PRINT_START EXTRUDER_TEMP=240 BED_TEMP=65
; custom gcode end: start_gcode
M107
G21 ; set units to millimeters
G90 ; use absolute coordinates
M83 ; use relative distances for extrusion
; custom gcode: start_filament_gcode
; Filament gcode
;SET_GCODE_OFFSET Z=0
;SET_PRESSURE_ADVANCE ADVANCE=0.05
; custom gcode end: start_filament_gcode
;_TOOLCHANGE 0
;LAYER_CHANGE
;Z:0.24
;HEIGHT:0.24
G1 E-1.2 F1800
M73 P4 R6
G1 Z0.24 F30000
G92 E0
M104 S240 ; set temperature
; printing object libra mini 11.stl id:0 copy 0
G1 X161.475 Y144.616
G1 E1.2 F1800
;TYPE:Support material interface
;WIDTH:0.38
G1 F4500
G1 X161.894 Y144.198 E0.01824
G1 X162.173 Y143.919 E0.01216
G1 X162.94 Y144.686 E0.03345
G1 X162.473 Y145.154 E0.02038
G1 X161.939 Y144.618 E0.02331
G1 X161.475 Y144.616 E0.01429
G1 X162.377 Y144.24 F30000
G1 F4500
G1 X162.168 Y144.24 E0.00645
G1 X162.012 Y144.395 E0.00678
G1 X162.032 Y144.395 E0.0006
G1 X162.24 Y144.604 E0.00911
G1 X162.742 Y144.604 E0.01546
G1 X161.446 Y144.616 F30000
G1 F4500
G1 X160.737 Y144.614 E0.02185
G1 X160.248 Y144.612 E0.01505
G1 X160.056 Y144.611 E0.00593
G1 X160.748 Y143.919 E0.03018
G1 X161.446 Y144.616 E0.0304
G1 X160.953 Y144.24 F30000
G1 F4500
G1 X160.544 Y144.24 E0.01261
G1 X160.017 Y144.611 F30000
G1 F4500
G1 X159.645 Y144.61 E0.01146
G1 X159.271 Y144.609 E0.0115
G1 X158.637 Y144.606 E0.01955
G1 X159.324 Y143.919 E0.02996
G1 X160.017 Y144.611 E0.03017
G1 X159.529 Y144.24 F30000
G1 F4500
G1 X159.12 Y144.24 E0.01261
;WIPE_START
G1 F24000
G1 X159.529 Y144.24 E-0.02916
;WIPE_END
G1 E-1.17084 F1800
G1 X168.571 Y144.642 F30000
G1 E1.2 F1800
G1 F4500
G1 X169.294 Y143.919 E0.03151
G1 X169.769 Y144.393 E0.02069
G1 X170.006 Y144.631 E0.01034
G1 X170.718 Y143.919 E0.03103
G1 X171.43 Y144.631 E0.03103
G1 X171.786 Y144.275 E0.01551
G1 X172.142 Y143.919 E0.01551
G1 X172.91 Y144.686 E0.03345
G1 X172.404 Y145.192 E0.02202
G1 X171.87 Y144.654 E0.02336
G1 X171.157 Y144.651 E0.02199
G1 X170.18 Y144.648 E0.0301
G1 X169.691 Y144.646 E0.01505
G1 X169.24 Y144.644 E0.01388
G1 X168.571 Y144.642 E0.02063
;WIPE_START
G1 F24000
G1 X169.294 Y143.919 E-0.07286
G1 X169.769 Y144.393 E-0.04784
G1 X170.006 Y144.631 E-0.02392
G1 X170.718 Y143.919 E-0.07175
G1 X171.43 Y144.631 E-0.07175
G1 X171.786 Y144.275 E-0.03588
G1 X172.142 Y143.919 E-0.03588
G1 X172.91 Y144.686 E-0.07736
G1 X172.404 Y145.192 E-0.05093
G1 X171.87 Y144.654 E-0.05403
M73 P5 R6
G1 X171.869 Y144.654 E-0.00011
G1 X171.157 Y144.651 E-0.05075
G1 X170.18 Y144.648 E-0.06962
G1 X169.691 Y144.646 E-0.03481
G1 X169.24 Y144.644 E-0.03211
G1 X168.571 Y144.642 E-0.04771
;WIPE_END
G1 E-0.4227 F1800
G1 X172.347 Y144.24 F30000
G1 E1.2 F1800
G1 F4500
G1 X172.137 Y144.24 E0.00645
G1 X171.946 Y144.431 E0.00832
G1 X171.964 Y144.431 E0.00054
G1 X172.136 Y144.604 E0.00755
G1 X172.712 Y144.604 E0.01773
G1 X170.923 Y144.24 F30000
G1 F4500
G1 X170.513 Y144.24 E0.01261
G1 X169.498 Y144.24 F30000
G1 F4500
G1 X169.089 Y144.24 E0.01261
G1 X168.664 Y143.815 F30000
;TYPE:Support material
G1 F4500
G1 X167.172 Y145.307 E0.06501
G1 X166.453 Y144.587 E0.03136
G1 X165.733 Y143.867 E0.03136
G1 X162.424 Y147.176 E0.14418
G1 X162.35 Y146.947 E0.00742
G1 X162.307 Y146.723 E0.00705
G1 X162.284 Y146.484 E0.00739
G1 X162.285 Y146.076 E0.01258
G1 X163.674 Y144.686 E0.06053
G1 X162.173 Y143.185 E0.06541
G1 X161.461 Y143.897 E0.03103
G1 X160.748 Y143.185 E0.03103
G1 X160.036 Y143.897 E0.03103
G1 X159.324 Y143.185 E0.03103
G1 X158.642 Y143.867 E0.02972
G1 X157.203 Y145.307 E0.06271
G1 X155.583 Y143.686 E0.0706
G1 X160.036 Y139.233 E0.19406
G1 X160.748 Y139.945 E0.03103
G1 X161.461 Y139.233 E0.03103
G1 X165.733 Y143.506 E0.18617
G1 X167.87 Y141.369 E0.09309
G1 X170.006 Y139.233 E0.09309
G1 X170.718 Y139.945 E0.03103
G1 X171.43 Y139.233 E0.03103
G1 X175.884 Y143.686 E0.19406
G1 X172.276 Y147.294 E0.15718
G1 X172.277 Y147.144 E0.00461
G1 X172.282 Y146.178 E0.02977
G1 X172.283 Y146.047 E0.00404
G1 X173.643 Y144.686 E0.05927
G1 X172.142 Y143.185 E0.06541
G1 X171.43 Y143.897 E0.03103
G1 X170.718 Y143.185 E0.03103
G1 X170.006 Y143.897 E0.03103
G1 X169.294 Y143.185 E0.03103
G1 X168.664 Y143.815 E0.02742
;WIPE_START
G1 F24000
G1 X167.172 Y145.307 E-0.15033
G1 X166.453 Y144.587 E-0.07251
G1 X165.733 Y143.867 E-0.07251
G1 X162.424 Y147.176 E-0.33341
G1 X162.35 Y146.947 E-0.01716
G1 X162.307 Y146.723 E-0.0163
G1 X162.284 Y146.484 E-0.01708
G1 X162.285 Y146.087 E-0.02824
G1 X162.285 Y146.076 E-0.00084
G1 X163.674 Y144.686 E-0.13998
G1 X162.173 Y143.185 E-0.15125
G1 X162.173 Y143.185 E-0
G1 X161.461 Y143.897 E-0.07175
G1 X160.779 Y143.216 E-0.06863
;WIPE_END
G1 E-0.06 F1800
G1 X172.361 Y146.891 F30000
G1 E1.2 F1800
G1 F4500
G1 X175.566 Y143.685 E0.13968
G1 X175.308 Y143.427 E0.01125
G1 X172.505 Y146.23 E0.12213
G1 X172.506 Y146.14 E0.00278
G1 X173.959 Y144.686 E0.06333
G1 X173.746 Y144.473 E0.00929
G1 X175.05 Y143.169 E0.05683
G1 X174.792 Y142.911 E0.01125
G1 X173.488 Y144.215 E0.05683
G1 X173.23 Y143.957 E0.01125
G1 X174.534 Y142.653 E0.05683
G1 X174.276 Y142.395 E0.01125
G1 X172.972 Y143.699 E0.05683
G1 X172.714 Y143.441 E0.01125
G1 X174.018 Y142.137 E0.05683
G1 X173.76 Y141.878 E0.01125
G1 X172.455 Y143.183 E0.05683
G1 X172.197 Y142.925 E0.01125
G1 X173.502 Y141.62 E0.05683
G1 X173.244 Y141.362 E0.01125
G1 X171.227 Y143.379 E0.08786
G1 X170.969 Y143.121 E0.01125
G1 X172.985 Y141.104 E0.08786
G1 X172.727 Y140.846 E0.01125
G1 X169.999 Y143.575 E0.11889
G1 X169.741 Y143.316 E0.01125
G1 X172.469 Y140.588 E0.11889
G1 X172.211 Y140.33 E0.01125
G1 X169.483 Y143.058 E0.11889
G1 X169.294 Y142.869 E0.00823
G1 X167.172 Y144.991 E0.09243
G1 X167.103 Y144.922 E0.00301
G1 X171.953 Y140.072 E0.21132
G1 X171.695 Y139.814 E0.01125
G1 X166.845 Y144.664 E0.21132
G1 X166.587 Y144.405 E0.01125
G1 X171.437 Y139.556 E0.21132
G1 X171.43 Y139.549 E0.0003
G1 X170.718 Y140.261 E0.03103
G1 X170.467 Y140.01 E0.01095
G1 X166.329 Y144.147 E0.18029
G1 X166.071 Y143.889 E0.01125
G1 X170.309 Y139.652 E0.18464
G1 X162.373 Y146.555 F30000
G1 F4500
G1 X165.42 Y143.508 E0.13274
G1 X165.162 Y143.25 E0.01125
G1 X163.857 Y144.554 E0.05683
G1 X163.599 Y144.296 E0.01125
G1 X164.904 Y142.992 E0.05683
G1 X164.646 Y142.734 E0.01125
G1 X163.341 Y144.038 E0.05683
G1 X163.083 Y143.78 E0.01125
G1 X164.387 Y142.476 E0.05683
G1 X164.129 Y142.218 E0.01125
G1 X162.825 Y143.522 E0.05683
G1 X162.567 Y143.264 E0.01125
G1 X163.871 Y141.959 E0.05683
G1 X163.613 Y141.701 E0.01125
G1 X162.309 Y143.006 E0.05683
G1 X162.173 Y142.869 E0.00594
G1 X161.461 Y143.582 E0.03103
G1 X161.339 Y143.46 E0.00531
G1 X163.355 Y141.443 E0.08786
G1 X163.097 Y141.185 E0.01125
G1 X161.081 Y143.202 E0.08786
G1 X160.822 Y142.944 E0.01125
G1 X162.839 Y140.927 E0.08786
G1 X162.581 Y140.669 E0.01125
G1 X159.852 Y143.398 E0.11889
G1 X159.594 Y143.139 E0.01125
G1 X162.323 Y140.411 E0.11889
G1 X162.065 Y140.153 E0.01125
G1 X159.336 Y142.881 E0.11889
G1 X159.324 Y142.869 E0.00052
G1 X158.484 Y143.709 E0.0366
G1 X157.203 Y144.991 E0.05583
G1 X156.957 Y144.745 E0.01073
G1 X161.807 Y139.895 E0.21132
G1 X161.548 Y139.637 E0.01125
G1 X156.699 Y144.486 E0.21132
G1 X156.441 Y144.228 E0.01125
G1 X160.578 Y140.091 E0.18029
M73 P6 R6
G1 X160.32 Y139.833 E0.01125
G1 X156.182 Y143.97 E0.18029
G1 X155.924 Y143.712 E0.01125
G1 X160.162 Y139.475 E0.18465
;WIPE_START
G1 F24000
G1 X155.924 Y143.712 E-0.42699
G1 X156.182 Y143.97 E-0.02601
G1 X160.32 Y139.833 E-0.41693
G1 X160.578 Y140.091 E-0.02601
G1 X158.156 Y142.513 E-0.24407
;WIPE_END
G1 E-0.06 F1800
G1 X170.662 Y164.53 F30000
G1 E1.2 F1800
;TYPE:Internal perimeter
G1 F4500
G1 X171.472 Y164.537 E0.02498
G1 X171.649 Y164.573 E0.00557
G1 X171.659 Y164.785 E0.00653
G1 X171.314 Y167.561 E0.08618
G1 X171.261 Y168.355 E0.02452
G1 X171.229 Y169.69 E0.04113
G1 X171.044 Y169.731 E0.00584
G1 X170.083 Y169.728 E0.02959
G1 X170.434 Y169.243 E0.01845
G1 X170.611 Y168.899 E0.01191
G1 X170.738 Y168.526 E0.01215
G1 X170.812 Y168.039 E0.01516
G1 X170.817 Y165.251 E0.08591
G1 X170.744 Y164.758 E0.01536
G1 X170.662 Y164.53 E0.00745
;WIPE_START
G1 F24000
G1 X171.472 Y164.537 E-0.05776
G1 X171.649 Y164.573 E-0.01287
G1 X171.659 Y164.785 E-0.0151
G1 X171.314 Y167.561 E-0.1993
G1 X171.261 Y168.355 E-0.05671
G1 X171.229 Y169.69 E-0.09512
G1 X171.044 Y169.731 E-0.01351
G1 X170.083 Y169.728 E-0.06842
G1 X170.434 Y169.243 E-0.04266
G1 X170.611 Y168.899 E-0.02755
G1 X170.738 Y168.526 E-0.0281
G1 X170.812 Y168.039 E-0.03505
G1 X170.817 Y165.251 E-0.19868
G1 X170.744 Y164.758 E-0.03553
G1 X170.662 Y164.53 E-0.01724
;WIPE_END
G1 E-0.29639 F1800
G1 X162.663 Y151.619 F30000
G1 E1.2 F1800
G1 F4500
G1 X162.635 Y151.623 E0.00087
G1 X162.297 Y151.733 E0.01094
G1 X161.91 Y151.938 E0.01349
G1 X161.63 Y152.155 E0.01094
G1 X161.334 Y152.478 E0.01349
G1 X161.142 Y152.777 E0.01095
G1 X160.973 Y153.181 E0.0135
G1 X160.895 Y153.52 E0.01072
G1 X160.87 Y153.836 E0.00978
G1 X160.838 Y159.897 E0.18674
G1 X160.9 Y160.417 E0.01613
G1 X161.056 Y160.861 E0.01452
G1 X161.355 Y161.338 E0.01732
G1 X161.766 Y161.733 E0.01756
G1 X162.26 Y162.016 E0.01757
G1 X162.795 Y162.166 E0.0171
G1 X163.128 Y162.192 E0.01032
G1 X166.781 Y162.203 E0.11253
G1 X167.217 Y162.14 E0.01358
G1 X167.654 Y161.985 E0.01429
G1 X168.13 Y161.685 E0.01733
G1 X168.524 Y161.273 E0.01756
G1 X168.799 Y160.792 E0.01708
G1 X168.911 Y160.453 E0.01101
G1 X168.972 Y160.109 E0.01075
G1 X168.992 Y153.858 E0.19258
G1 X168.951 Y153.429 E0.01328
G1 X168.779 Y152.905 E0.01699
G1 X168.539 Y152.503 E0.01444
G1 X168.155 Y152.097 E0.01721
G1 X167.677 Y151.793 E0.01745
G1 X167.147 Y151.616 E0.01721
G1 X166.719 Y151.572 E0.01326
G1 X163.06 Y151.561 E0.11273
G1 X162.663 Y151.619 E0.01237
G1 X162.71 Y151.944 F30000
;TYPE:External perimeter
G1 F4500
G1 X162.426 Y152.037 E0.0092
G1 X162.089 Y152.215 E0.01175
G1 X161.853 Y152.397 E0.0092
G1 X161.595 Y152.679 E0.01175
G1 X161.434 Y152.93 E0.0092
G1 X161.286 Y153.282 E0.01176
G1 X161.22 Y153.57 E0.0091
G1 X161.198 Y153.85 E0.00866
G1 X161.167 Y159.879 E0.18574
G1 X161.222 Y160.342 E0.01439
G1 X161.354 Y160.718 E0.01227
G1 X161.611 Y161.129 E0.01495
G1 X161.964 Y161.468 E0.01506
G1 X162.388 Y161.711 E0.01507
G1 X162.852 Y161.841 E0.01485
G1 X163.142 Y161.864 E0.00894
G1 X166.757 Y161.874 E0.11141
G1 X167.138 Y161.819 E0.01184
G1 X167.51 Y161.687 E0.01217
G1 X167.921 Y161.429 E0.01496
G1 X168.259 Y161.076 E0.01506
G1 X168.497 Y160.657 E0.01484
G1 X168.592 Y160.372 E0.00926
G1 X168.643 Y160.08 E0.00914
G1 X168.664 Y153.874 E0.19122
G1 X168.627 Y153.497 E0.01166
G1 X168.478 Y153.042 E0.01474
G1 X168.275 Y152.702 E0.0122
G1 X167.944 Y152.352 E0.01485
G1 X167.535 Y152.092 E0.01495
G1 X167.078 Y151.939 E0.01484
G1 X166.702 Y151.901 E0.01164
G1 X163.084 Y151.89 E0.11149
G1 X162.71 Y151.944 E0.01163
;WIPE_START
G1 X162.428 Y151.66 F30000
;WIPE_END
;WIPE_START
G1 F24000
G1 X161.98 Y152.046 E-0.04213
G1 X161.717 Y152.25 E-0.02373
G1 X161.436 Y152.557 E-0.02963
G1 X161.257 Y152.837 E-0.02374
G1 X161.095 Y153.221 E-0.02964
G1 X161.022 Y153.54 E-0.02332
G1 X160.998 Y153.842 E-0.0216
G1 X160.967 Y159.89 E-0.43093
G1 X161.026 Y160.388 E-0.03572
G1 X161.173 Y160.805 E-0.03154
G1 X161.455 Y161.256 E-0.03791
G1 X161.843 Y161.629 E-0.03835
G1 X162.31 Y161.897 E-0.03836
G1 X162.817 Y162.039 E-0.0375
G1 X163.134 Y162.064 E-0.02262
G1 X166.772 Y162.075 E-0.2592
G1 X166.967 Y162.046 E-0.01408
;WIPE_END
G1 E-0.06 F1800
G1 X166.167 Y162.858 F30000
G1 E1.2 F1800
;TYPE:Internal perimeter
G1 F4500
G1 X165.677 Y163.409 E0.02272
G1 X165.476 Y163.701 E0.01092
G1 X165.253 Y164.13 E0.01491
G1 X165.069 Y164.716 E0.0189
G1 X165.006 Y165.196 E0.01492
G1 X164.991 Y168.067 E0.08846
G1 X165.08 Y168.675 E0.01894
G1 X165.298 Y169.284 E0.01993
G1 X165.633 Y169.838 E0.01994
G1 X166.071 Y170.315 E0.01995
G1 X166.595 Y170.695 E0.01995
G1 X167.184 Y170.964 E0.01995
G1 X167.799 Y171.107 E0.01946
G1 X168.284 Y171.133 E0.01497
G1 X168.639 Y171.107 E0.01096
G1 X168.873 Y171.061 E0.00734
G1 X168.838 Y176.593 E0.17044
G1 X168.797 Y176.989 E0.01229
G1 X168.716 Y177.379 E0.01226
G1 X168.599 Y177.75 E0.01198
G1 X168.342 Y178.311 E0.01902
G1 X168.139 Y178.639 E0.01189
G1 X167.898 Y178.955 E0.01226
G1 X167.634 Y179.237 E0.01188
G1 X167.16 Y179.632 E0.01901
G1 X166.832 Y179.841 E0.01197
G1 X166.486 Y180.017 E0.01197
G1 X165.905 Y180.225 E0.01901
G1 X165.538 Y180.307 E0.0116
G1 X164.924 Y180.366 E0.019
G1 X164.538 Y180.355 E0.01188
G1 X164.144 Y180.304 E0.01225
G1 X163.757 Y180.215 E0.01225
G1 X163.38 Y180.087 E0.01225
G1 X163.018 Y179.922 E0.01225
G1 X162.675 Y179.723 E0.01225
G1 X162.352 Y179.49 E0.01225
G1 X162.055 Y179.226 E0.01225
G1 X161.785 Y178.934 E0.01225
G1 X161.545 Y178.616 E0.01226
G1 X161.339 Y178.276 E0.01226
G1 X161.167 Y177.917 E0.01226
G1 X161.032 Y177.543 E0.01226
G1 X160.934 Y177.157 E0.01226
G1 X160.876 Y176.763 E0.01227
G1 X160.855 Y176.334 E0.01325
G1 X160.869 Y169.094 E0.22307
G1 X160.853 Y168.219 E0.02696
G1 X160.8 Y167.333 E0.02736
G1 X160.711 Y166.462 E0.02696
G1 X160.162 Y161.985 E0.13898
G1 X160.138 Y161.669 E0.00975
G1 X160.139 Y161.056 E0.0189
G1 X160.412 Y161.009 E0.00853
G1 X160.461 Y161.148 E0.00454
G1 X160.841 Y161.755 E0.02207
G1 X161.369 Y162.263 E0.02256
G1 X162.005 Y162.627 E0.02257
G1 X162.679 Y162.816 E0.02159
G1 X163.102 Y162.849 E0.01307
G1 X166.167 Y162.858 E0.09445
;WIPE_START
G1 F24000
G1 X165.677 Y163.409 E-0.05254
G1 X165.476 Y163.701 E-0.02525
G1 X165.253 Y164.13 E-0.03448
G1 X165.069 Y164.716 E-0.04371
G1 X165.006 Y165.196 E-0.0345
G1 X164.991 Y168.067 E-0.20455
G1 X165.08 Y168.675 E-0.0438
G1 X165.298 Y169.284 E-0.0461
G1 X165.633 Y169.838 E-0.04611
G1 X166.071 Y170.315 E-0.04612
G1 X166.595 Y170.695 E-0.04613
G1 X167.184 Y170.964 E-0.04614
G1 X167.799 Y171.107 E-0.045
G1 X168.284 Y171.133 E-0.03461
G1 X168.639 Y171.107 E-0.02535
G1 X168.873 Y171.061 E-0.01698
G1 X168.842 Y175.954 E-0.34862
;WIPE_END
G1 E-0.06 F1800
G1 X168.587 Y162.158 F30000
G1 E1.2 F1800
G1 F4500
G1 X169.055 Y161.669 E0.02084
G1 X169.432 Y161.007 E0.02347
G1 X169.679 Y161.076 E0.00791
G1 X169.656 Y161.875 E0.02462
G1 X169.583 Y162.456 E0.01804
G1 X169.282 Y162.319 E0.01019
G1 X168.587 Y162.158 E0.02197
;WIPE_START
G1 F24000
G1 X169.055 Y161.669 E-0.0482
G1 X169.432 Y161.007 E-0.05428
G1 X169.679 Y161.076 E-0.01828
G1 X169.656 Y161.875 E-0.05694
G1 X169.583 Y162.456 E-0.04171
G1 X169.282 Y162.319 E-0.02357
G1 X168.587 Y162.158 E-0.05081
;WIPE_END
G1 E-0.9062 F1800
G1 X169.629 Y159.933 F30000
G1 E1.2 F1800
G1 F4500
G1 X169.649 Y153.828 E0.18812
G1 X169.598 Y153.294 E0.01654
G1 X169.381 Y152.631 E0.02148
G1 X169.066 Y152.104 E0.01893
G1 X168.576 Y151.587 E0.02195
G1 X167.962 Y151.195 E0.02243
G1 X167.286 Y150.97 E0.02194
G1 X166.947 Y150.935 E0.01052
G1 X166.921 Y150.667 E0.0083
G1 X167.212 Y150.58 E0.00935
G1 X167.784 Y150.328 E0.01928
G1 X168.188 Y150.088 E0.01447
G1 X168.682 Y149.704 E0.01927
G1 X169.015 Y149.373 E0.01446
G1 X169.401 Y148.881 E0.01927
G1 X169.643 Y148.479 E0.01446
G1 X169.897 Y147.908 E0.01926
G1 X169.964 Y147.69 E0.00703
G1 X170.244 Y147.732 E0.00874
G1 X170.184 Y159.386 E0.35905
G1 X169.963 Y159.811 E0.01476
G1 X169.903 Y159.981 E0.00555
G1 X169.629 Y159.933 E0.00855
;WIPE_START
G1 F24000
G1 X169.649 Y153.828 E-0.43503
G1 X169.598 Y153.294 E-0.03824
G1 X169.381 Y152.631 E-0.04966
G1 X169.066 Y152.104 E-0.04377
G1 X168.576 Y151.587 E-0.05076
G1 X167.962 Y151.195 E-0.05188
