; generated by SuperSlicer 2.4 on 2022-11-09 at 14:31:00 UTC


;
;

;
;
; 

; external perimeters extrusion width = 0.45mm
; perimeters extrusion width = 0.45mm
; infill extrusion width = 0.45mm
; solid infill extrusion width = 0.48mm
; top infill extrusion width = 0.40mm
; support material extrusion width = 0.45mm
; first layer extrusion width = 0.38mm

; object:{"name":"libra mini 1","id":"libra mini 1.stl id:0 copy 0","object_center":[165.000000,162.500000,0.000000],"boundingbox_center":[165.000000,162.500000,3.500000],"boundingbox_size":[51.258858,38.934998,7.000000]}
; plater:{"center":[165.000000,162.500000,0.000000],"boundingbox_center":[165.000000,162.500000,3.500000],"boundingbox_size":[51.258858,38.934998,7.000000]}

M204 P6000 T7000 ; sets acceleration (P, T), mm/sec^2
;TYPE:Custom
; custom gcode: start_gcode
PRINT_START EXTRUDER_TEMP=255 BED_TEMP=80
; custom gcode end: start_gcode
M107
G21 ; set units to millimeters
G90 ; use absolute coordinates
M82 ; use absolute distances for extrusion
G92 E0
; custom gcode: start_filament_gcode
; Filament gcode
;SET_GCODE_OFFSET Z=0;;
;SET_PRESSURE_ADVANCE ADVANCE=0.05
; custom gcode end: start_filament_gcode
;_TOOLCHANGE 0
M104 S255 ; set temperature
M109 S255 ; set temperature and wait for it to be reached
M190 S80 ; set bed temperature and wait for it to be reached
;LAYER_CHANGE
;Z:0.15
;HEIGHT:0.15
; custom gcode: before_layer_gcode
;BEFORE_LAYER_CHANGE
;0.15
; custom gcode end: before_layer_gcode

G1 E-1.2 F7200
G1 Z0.15 F30000
; custom gcode: layer_gcode
;AFTER_LAYER_CHANGE
;0.15
; custom gcode end: layer_gcode

G92 E0
; printing object libra mini 1.stl id:0 copy 0
G1 X145.432 Y146.323
G1 E1.2 F3600
;TYPE:Support material
;WIDTH:0.38
G1 F4500
G1 X145.537 Y146.226 E1.20295
G1 X145.67 Y146.102 E1.2067
G1 X145.948 Y145.932 E1.2134
G1 X146.127 Y145.867 E1.21733
G1 X146.253 Y145.821 E1.22009
G1 X146.584 Y145.771 E1.22699
G1 X146.809 Y145.776 E1.23163
G1 X147.137 Y145.842 E1.23852
G1 X147.436 Y145.969 E1.24522
G1 X147.705 Y146.151 E1.25192
G1 X147.932 Y146.384 E1.25861
G1 X148.109 Y146.657 E1.26531
G1 X148.228 Y146.959 E1.27201
G1 X148.284 Y147.279 E1.27871
G1 X148.276 Y147.604 E1.28541
G1 X148.204 Y147.921 E1.2921
G1 X148.071 Y148.218 E1.2988
G1 X147.881 Y148.482 E1.3055
G1 X147.643 Y148.703 E1.3122
G1 X147.366 Y148.873 E1.31889
G1 X147.061 Y148.984 E1.32559
G1 X146.739 Y149.033 E1.33229
G1 X146.435 Y149.018 E1.33857
G1 X146.405 Y149.016 E1.33918
G1 X146.263 Y148.984 E1.34218
G1 X146.186 Y148.966 E1.34382
G1 X145.877 Y148.837 E1.35072
G1 X145.681 Y148.703 E1.35561
G1 X145.608 Y148.654 E1.35741
G1 X145.381 Y148.421 E1.36411
G1 X145.306 Y148.304 E1.36698
G1 X145.205 Y148.148 E1.37081
G1 X145.186 Y148.101 E1.37186
G1 X145.086 Y147.846 E1.3775
G1 X145.029 Y147.526 E1.3842
G1 X145.037 Y147.2 E1.39091
G1 X145.109 Y146.884 E1.3976
G1 X145.243 Y146.587 E1.4043
G1 X145.397 Y146.372 E1.40976
G1 X146.877 Y148.924 F30000
G1 F4500
G1 X147.986 Y147.815 E1.44206
G1 X148.041 Y147.575 E1.44714
G1 X148.047 Y147.297 E1.45286
G1 X148.034 Y147.221 E1.45446
G1 X146.472 Y148.783 E1.49997
G1 X146.437 Y148.781 E1.50069
G1 X146.316 Y148.753 E1.50325
G1 X146.258 Y148.74 E1.50447
G1 X146.054 Y148.654 E1.50904
G1 X147.91 Y146.798 E1.56313
G1 X147.897 Y146.765 E1.56386
G1 X147.746 Y146.532 E1.56958
G1 X147.689 Y146.473 E1.57128
G1 X145.726 Y148.436 E1.62847
G1 X145.567 Y148.273 E1.63316
G1 X145.504 Y148.176 E1.63555
G1 X145.479 Y148.136 E1.63651
G1 X147.391 Y146.224 E1.69224
G1 X147.323 Y146.177 E1.69395
G1 X147.067 Y146.07 E1.69967
G1 X147.01 Y146.058 E1.70086
G1 X145.311 Y147.758 E1.75039
G1 X145.266 Y147.508 E1.75563
G1 X145.273 Y147.25 E1.76095
G1 X146.662 Y145.86 E1.80145
G92 E0
;WIPE_START
G1 F24000
G1 X145.273 Y147.25 E-0.56014
G1 X145.266 Y147.508 E-0.63372
G1 X145.311 Y147.758 E-0.70618
G1 X146.387 Y146.682 E-1.14
;WIPE_END
G1 E-1.2 F7200
G1 X181.725 Y147.444 F30000
G1 E0 F3600
G1 F4500
G1 X181.737 Y147.279 E0.00341
G1 X181.749 Y147.12 E0.0067
G1 X181.839 Y146.798 E0.01359
G1 X181.937 Y146.595 E0.01823
G1 X182.132 Y146.323 E0.02513
G1 X182.259 Y146.205 E0.02871
G1 X182.37 Y146.102 E0.03182
G1 X182.647 Y145.932 E0.03852
G1 X182.953 Y145.821 E0.04522
G1 X183.274 Y145.772 E0.05192
G1 X183.599 Y145.788 E0.05861
G1 X183.914 Y145.868 E0.06531
G1 X184.207 Y146.009 E0.07201
G1 X184.466 Y146.205 E0.07871
G1 X184.681 Y146.449 E0.0854
G1 X184.849 Y146.738 E0.0923
G1 X184.887 Y146.844 E0.09462
G1 X184.926 Y146.95 E0.09694
G1 X184.984 Y147.279 E0.10383
G1 X184.98 Y147.444 E0.10724
G1 X184.976 Y147.604 E0.11053
G1 X184.904 Y147.921 E0.11723
G1 X184.771 Y148.218 E0.12393
G1 X184.581 Y148.482 E0.13062
G1 X184.343 Y148.703 E0.13732
G1 X184.066 Y148.873 E0.14402
G1 X183.89 Y148.937 E0.14788
G1 X183.761 Y148.984 E0.15072
G1 X183.68 Y148.996 E0.15239
G1 X183.439 Y149.033 E0.15741
G1 X183.115 Y149.017 E0.16411
G1 X182.8 Y148.937 E0.17081
G1 X182.507 Y148.796 E0.17751
G1 X182.248 Y148.6 E0.1842
G1 X182.032 Y148.356 E0.1909
G1 X181.929 Y148.178 E0.19515
G1 X181.869 Y148.075 E0.1976
G1 X181.849 Y148.013 E0.19895
G1 X181.766 Y147.767 E0.2043
G1 X181.733 Y147.504 E0.20976
G1 X183.48 Y148.939 F30000
G1 F4500
G1 X184.71 Y147.709 E0.2456
G1 X184.741 Y147.575 E0.24843
G1 X184.744 Y147.439 E0.25123
G1 X184.747 Y147.297 E0.25415
G1 X184.721 Y147.151 E0.25721
G1 X183.103 Y148.77 E0.30438
G1 X182.881 Y148.713 E0.3091
G1 X182.7 Y148.626 E0.31324
G1 X184.58 Y146.746 E0.36804
G1 X184.488 Y146.588 E0.37181
G1 X184.349 Y146.43 E0.37614
G1 X182.383 Y148.396 E0.43343
G1 X182.225 Y148.217 E0.43835
G1 X182.148 Y148.084 E0.44151
G1 X184.041 Y146.192 E0.49667
G1 X183.833 Y146.092 E0.50143
G1 X183.643 Y146.043 E0.50547
G1 X181.995 Y147.692 E0.5535
G1 X181.963 Y147.438 E0.55875
G1 X181.973 Y147.297 E0.56168
G1 X181.985 Y147.154 E0.56462
G1 X183.28 Y145.86 E0.60235
G92 E0
;WIPE_START
G1 F24000
G1 X181.985 Y147.154 E-0.52184
G1 X181.973 Y147.297 E-0.56254
G1 X181.963 Y147.438 E-0.60302
G1 X181.995 Y147.692 E-0.67574
G1 X183.146 Y146.54 E-1.14
;WIPE_END
G1 E-1.2 F7200
G1 X155.713 Y163.461 F30000
G1 E0 F3600
;TYPE:Internal perimeter
G1 F4500
G1 X155.236 Y163.376 E0.00998
G1 X154.929 Y163.436 E0.01643
G1 X146.425 Y166.445 E0.20231
G1 X146.057 Y166.683 E0.21134
G1 X145.792 Y167.114 E0.22177
G1 X145.739 Y167.585 E0.23154
G1 X145.807 Y167.871 E0.23759
G1 X145.977 Y168.248 E0.24611
G1 X146.074 Y168.531 E0.25227
G1 X146.171 Y168.993 E0.26199
G1 X146.196 Y169.293 E0.2682
G1 X146.193 Y171.96 E0.32315
G1 X146.28 Y172.31 E0.33059
G1 X146.504 Y172.645 E0.33889
G1 X146.867 Y172.899 E0.34802
G1 X147.251 Y172.984 E0.35612
G1 X153.919 Y172.984 E0.49352
G1 X154.296 Y172.901 E0.50148
G1 X154.639 Y172.672 E0.50998
G1 X154.889 Y172.313 E0.51899
G1 X154.977 Y171.952 E0.52664
G1 X154.963 Y170.02 E0.56646
G1 X154.986 Y169.327 E0.58074
G1 X155.03 Y168.855 E0.59052
G1 X155.184 Y167.919 E0.61005
G1 X155.29 Y167.474 E0.61949
G1 X155.572 Y166.569 E0.63902
G1 X155.941 Y165.69 E0.65867
G1 X156.32 Y164.956 E0.67569
G1 X156.406 Y164.64 E0.68244
G1 X156.369 Y164.197 E0.69159
G1 X156.127 Y163.758 E0.70192
G1 X155.762 Y163.496 E0.71118
G1 X155.86 Y163.995 F30000
;TYPE:External perimeter
G1 F4500
G1 X155.574 Y163.79 E0.71843
G1 X155.239 Y163.73 E0.72545
G1 X155.021 Y163.772 E0.73003
G1 X146.58 Y166.759 E0.91454
G1 X146.312 Y166.933 E0.92111
G1 X146.129 Y167.23 E0.92832
G1 X146.092 Y167.563 E0.93522
G1 X146.138 Y167.759 E0.93935
G1 X146.301 Y168.12 E0.94752
G1 X146.41 Y168.438 E0.95445
G1 X146.516 Y168.942 E0.96507
G1 X146.544 Y169.278 E0.97202
G1 X146.541 Y171.917 E1.02639
G1 X146.603 Y172.167 E1.0317
G1 X146.757 Y172.398 E1.03741
G1 X147.01 Y172.575 E1.04376
G1 X147.288 Y172.636 E1.04965
G1 X153.881 Y172.636 E1.18549
G1 X154.157 Y172.575 E1.19132
G1 X154.391 Y172.419 E1.19713
G1 X154.567 Y172.168 E1.20344
G1 X154.629 Y171.912 E1.20886
G1 X154.615 Y170.016 E1.24794
G1 X154.639 Y169.305 E1.26258
G1 X154.685 Y168.81 E1.27282
G1 X154.843 Y167.851 E1.29285
G1 X154.954 Y167.382 E1.30279
G1 X155.245 Y166.45 E1.32291
G1 X155.626 Y165.543 E1.34319
G1 X155.994 Y164.83 E1.35972
G1 X156.054 Y164.608 E1.36445
G1 X156.028 Y164.3 E1.37082
G1 X155.889 Y164.048 E1.37676
;WIPE_START
G1 X155.958 Y163.607 F30000
;WIPE_END
G92 E0
;WIPE_START
G1 F24000
G1 X155.654 Y163.601 E-0.08666
G1 X155.238 Y163.526 E-0.20729
G1 X154.968 Y163.579 E-0.28554
G1 X152.142 Y164.579 E-1.14
;WIPE_END
G1 E-1.2 F7200
G1 X145.307 Y168.318 F30000
G1 E0 F3600
;TYPE:Internal perimeter
G1 F4500
G1 X145.074 Y167.932 E0.0093
G1 X144.746 Y167.573 E0.01931
G1 X144.353 Y167.287 E0.02933
G1 X143.912 Y167.084 E0.03935
G1 X143.438 Y166.973 E0.04936
G1 X142.969 Y166.958 E0.05905
G1 X142.703 Y166.989 E0.06455
G1 X142.357 Y167.075 E0.0719
G1 X142.015 Y167.216 E0.07953
G1 X141.614 Y167.471 E0.08931
G1 X141.342 Y167.721 E0.09694
G1 X141.112 Y168.005 E0.10445
G1 X140.928 Y168.319 E0.11197
G1 X140.789 Y168.665 E0.11965
G1 X140.694 Y169.122 E0.12926
G1 X140.65 Y170.178 E0.15104
G1 X140.65 Y171.108 E0.17021
G1 X140.686 Y172.051 E0.18963
G1 X140.732 Y172.402 E0.19695
G1 X140.877 Y172.858 E0.2068
G1 X141.105 Y173.269 E0.21649
G1 X141.268 Y173.481 E0.22199
G1 X141.519 Y173.734 E0.22934
G1 X141.805 Y173.947 E0.23669
G1 X142.03 Y174.075 E0.24202
G1 X142.365 Y174.213 E0.24949
G1 X142.829 Y174.315 E0.25927
G1 X143.199 Y174.331 E0.2669
G1 X143.561 Y174.292 E0.27441
G1 X143.914 Y174.199 E0.28193
G1 X144.249 Y174.055 E0.28944
G1 X144.551 Y173.866 E0.29679
G1 X144.753 Y173.703 E0.30213
G1 X145 Y173.446 E0.30947
G1 X145.21 Y173.148 E0.31699
G1 X145.378 Y172.816 E0.32467
G1 X145.513 Y172.365 E0.33435
G1 X145.556 Y171.995 E0.34203
G1 X145.525 Y171.015 E0.36224
G1 X145.525 Y170.268 E0.37763
G1 X145.556 Y169.279 E0.39802
G1 X145.488 Y168.806 E0.40787
G1 X145.333 Y168.372 E0.41737
G1 X145.009 Y168.498 F30000
;TYPE:External perimeter
G1 F4500
G1 X144.794 Y168.141 E0.42595
G1 X144.513 Y167.834 E0.43453
G1 X144.176 Y167.588 E0.44311
G1 X143.798 Y167.414 E0.4517
G1 X143.393 Y167.319 E0.46028
G1 X142.984 Y167.306 E0.46871
G1 X142.766 Y167.332 E0.47323
G1 X142.466 Y167.406 E0.47959
G1 X142.176 Y167.526 E0.48605
G1 X141.827 Y167.749 E0.49459
G1 X141.596 Y167.96 E0.50105
G1 X141.399 Y168.203 E0.50749
G1 X141.241 Y168.473 E0.51393
G1 X141.124 Y168.766 E0.52044
G1 X141.04 Y169.165 E0.52884
G1 X140.997 Y170.185 E0.54988
G1 X140.998 Y171.102 E0.56876
G1 X141.033 Y172.021 E0.58771
G1 X141.073 Y172.326 E0.59406
G1 X141.198 Y172.72 E0.60257
G1 X141.396 Y173.078 E0.611
G1 X141.53 Y173.251 E0.61552
G1 X141.748 Y173.471 E0.62188
G1 X141.995 Y173.655 E0.62825
G1 X142.183 Y173.762 E0.63269
G1 X142.469 Y173.88 E0.63908
G1 X142.874 Y173.969 E0.64761
G1 X143.187 Y173.982 E0.65407
G1 X143.498 Y173.949 E0.66051
G1 X143.8 Y173.869 E0.66695
G1 X144.087 Y173.746 E0.67339
G1 X144.349 Y173.583 E0.67976
G1 X144.517 Y173.447 E0.6842
G1 X144.731 Y173.224 E0.69056
G1 X144.911 Y172.969 E0.697
G1 X145.053 Y172.686 E0.70352
G1 X145.171 Y172.295 E0.71195
G1 X145.208 Y171.981 E0.71846
G1 X145.177 Y171.02 E0.73826
G1 X145.177 Y170.262 E0.75388
G1 X145.208 Y169.299 E0.77375
G1 X145.149 Y168.89 E0.78226
G1 X145.029 Y168.554 E0.7896
;WIPE_START
G1 X145.226 Y168.161 F30000
;WIPE_END
G92 E0
;WIPE_START
G1 F24000
G1 X144.955 Y168.02 E-0.08684
G1 X144.647 Y167.684 E-0.21693
G1 X144.278 Y167.415 E-0.34704
G1 X143.863 Y167.224 E-0.47715
G1 X143.419 Y167.12 E-0.60724
G1 X142.975 Y167.106 E-0.73384
G1 X142.73 Y167.135 E-0.80416
G1 X142.403 Y167.216 E-0.90001
G1 X142.084 Y167.348 E-0.99866
G1 X141.705 Y167.589 E-1.12666
G1 X141.67 Y167.621 E-1.14
;WIPE_END
G1 E-1.2 F7200
G1 X145.495 Y173.357 F30000
G1 E0 F3600
;TYPE:Internal perimeter
G1 F4500
G1 X145.702 Y172.945 E0.00951
G1 X145.883 Y172.341 E0.02249
G1 X146.251 Y172.892 E0.03613
G1 X146.567 Y173.114 E0.04409
G1 X146.49 Y173.357 E0.04934
G1 X145.555 Y173.357 E0.06861
G92 E0
;WIPE_START
G1 F24000
G1 X145.702 Y172.945 E-0.12477
G1 X145.883 Y172.341 E-0.30427
G1 X146.251 Y172.892 E-0.49302
G1 X146.567 Y173.114 E-0.60302
G1 X146.49 Y173.357 E-0.67567
G1 X145.555 Y173.357 E-0.94223
;WIPE_END
G1 E-1.2 F7200
G1 X147.086 Y150.75 F30000
G1 E0 F3600
G1 F4500
G1 X146.599 Y152.643 E0.04028
G1 X146.301 Y152.612 E0.04646
G1 X146.27 Y151.914 E0.06085
G1 X146.114 Y151.437 E0.07119
G1 X145.854 Y151.022 E0.08128
G1 X145.75 Y150.923 E0.08423
G1 X145.875 Y150.69 E0.08969
G1 X146.166 Y150.756 E0.09583
G1 X146.828 Y150.789 E0.10949
G1 X147.027 Y150.759 E0.11363
G92 E0
;WIPE_START
G1 F24000
G1 X146.599 Y152.643 E-0.55065
G1 X146.301 Y152.612 E-0.63609
G1 X146.27 Y151.914 E-0.83509
G1 X146.114 Y151.437 E-0.97817
G1 X145.854 Y151.022 E-1.11774
G1 X145.797 Y150.968 E-1.14
;WIPE_END
G1 E-1.2 F7200
G1 X144.318 Y144.018 F30000
G1 E0 F3600
G1 F4500
G1 X145.238 Y144.018 E0.01896
G1 X145.31 Y144.272 E0.02438
G1 X144.608 Y144.701 E0.04134
G1 X144.319 Y144.969 E0.04945
G1 X144.318 Y144.078 E0.06782
G92 E0
;WIPE_START
G1 F24000
G1 X145.238 Y144.018 E-0.26272
G1 X145.31 Y144.272 E-0.33778
G1 X144.608 Y144.701 E-0.57233
G1 X144.319 Y144.969 E-0.68455
G1 X144.318 Y144.078 E-0.93852
;WIPE_END
G1 E-1.2 F7200
G1 X166.985 Y159.776 F30000
G1 E0 F3600
G1 F4500
G1 X167.186 Y160.046 E0.00696
G1 X167.494 Y160.25 E0.01457
G1 X168.596 Y160.611 E0.03845
G1 X169.491 Y161.001 E0.05857
G1 X169.906 Y161.219 E0.06824
G1 X170.736 Y161.734 E0.08835
G1 X171.512 Y162.326 E0.10846
G1 X171.863 Y162.637 E0.11813
G1 X172.552 Y163.34 E0.13842
G1 X172.959 Y163.82 E0.15139
G1 X173.283 Y164.039 E0.15945
G1 X183.917 Y166.816 E0.38591
G1 X184.294 Y166.838 E0.3937
G1 X184.672 Y166.716 E0.40188
G1 X184.959 Y166.504 E0.40924
G1 X185.178 Y166.192 E0.41709
G1 X185.279 Y165.85 E0.42444
G1 X185.267 Y165.504 E0.43158
G1 X182.065 Y153.091 E0.69574
G1 X181.877 Y152.703 E0.70462
G1 X181.706 Y152.489 E0.71027
G1 X181.47 Y152.28 E0.71677
G1 X181.181 Y152.111 E0.72366
G1 X180.739 Y151.983 E0.73314
G1 X180.404 Y151.971 E0.74005
G1 X180.086 Y152.023 E0.7467
G1 X179.814 Y152.125 E0.75268
G1 X167.379 Y158.239 E1.0382
G1 X167.072 Y158.5 E1.04651
G1 X166.871 Y158.895 E1.05565
G1 X166.83 Y159.304 E1.06411
G1 X166.949 Y159.728 E1.07317
G1 X167.264 Y159.568 F30000
;TYPE:External perimeter
G1 F4500
G1 X167.429 Y159.79 E1.07888
G1 X167.647 Y159.935 E1.08427
G1 X168.719 Y160.286 E1.10752
G1 X169.641 Y160.687 E1.12824
G1 X170.079 Y160.917 E1.13842
G1 X170.933 Y161.447 E1.15914
G1 X171.733 Y162.057 E1.17986
G1 X172.103 Y162.384 E1.19004
G1 X172.809 Y163.106 E1.21084
G1 X173.194 Y163.559 E1.22309
G1 X173.429 Y163.718 E1.22894
G1 X183.972 Y166.471 E1.45347
G1 X184.249 Y166.487 E1.4592
G1 X184.511 Y166.403 E1.46486
G1 X184.707 Y166.258 E1.46989
G1 X184.861 Y166.039 E1.47541
G1 X184.93 Y165.806 E1.48042
G1 X184.921 Y165.554 E1.48561
G1 X181.737 Y153.211 E1.74827
G1 X181.581 Y152.889 E1.75564
G1 X181.453 Y152.729 E1.75986
G1 X181.265 Y152.563 E1.76504
G1 X181.043 Y152.433 E1.77033
G1 X180.684 Y152.329 E1.77803
G1 X180.426 Y152.32 E1.78335
G1 X180.176 Y152.361 E1.78858
G1 X179.952 Y152.445 E1.7935
G1 X167.572 Y158.532 E2.07778
G1 X167.35 Y158.72 E2.08376
G1 X167.211 Y158.995 E2.09012
G1 X167.182 Y159.274 E2.0959
G1 X167.248 Y159.51 E2.10094
;WIPE_START
G1 X167.061 Y159.913 F30000
;WIPE_END
G92 E0
;WIPE_START
G1 F24000
G1 X167.559 Y160.116 E-0.15329
G1 X168.648 Y160.473 E-0.47986
G1 X169.555 Y160.868 E-0.76172
G1 X169.98 Y161.091 E-0.89843
G1 X170.7 Y161.538 E-1.14
;WIPE_END
G1 E-1.2 F7200
G1 X181.339 Y150.562 F30000
G1 E0 F3600
;TYPE:Internal perimeter
G1 F4500
G1 X182.08 Y150.918 E0.01695
G1 X182.318 Y150.978 E0.02201
G1 X182.102 Y151.414 E0.03203
G1 X181.993 Y151.779 E0.03989
G1 X181.457 Y151.467 E0.05266
G1 X180.939 Y151.317 E0.06378
G1 X181.212 Y150.89 E0.07422
G1 X181.317 Y150.618 E0.08023
G1 X181.102 Y149.927 F30000
G1 F4500
G1 X181.591 Y150.297 E0.09286
G1 X182.2 Y150.589 E0.10677
G1 X182.95 Y150.78 E0.12272
G1 X182.579 Y151.235 E0.13482
G1 X182.426 Y151.542 E0.14188
G1 X182.311 Y151.929 E0.1502
G1 X182.28 Y152.651 E0.16509
G1 X181.959 Y152.248 E0.1757
G1 X181.675 Y151.996 E0.18353
G1 X181.319 Y151.789 E0.19202
G1 X180.795 Y151.637 E0.20327
G1 X180.158 Y151.615 E0.2164
G1 X180.688 Y151.063 E0.23217
G1 X180.9 Y150.732 E0.24027
G1 X181.052 Y150.341 E0.24892
G1 X181.095 Y149.987 E0.25626
G92 E0
;WIPE_START
G1 F24000
