; generated by SuperSlicer 2.4 on 2022-10-22 at 13:50:20 UTC


;
;

;
;
; 

; external perimeters extrusion width = 0.45mm
; perimeters extrusion width = 0.45mm
; infill extrusion width = 0.45mm
; solid infill extrusion width = 0.48mm
; top infill extrusion width = 0.42mm
; support material extrusion width = 0.45mm
; first layer extrusion width = 0.38mm

; object:{"name":"main body low motor helical gears","id":"main body low motor helical gears.stl id:0 copy 0","object_center":[153.303133,106.460323,0.000000],"boundingbox_center":[153.303133,106.460323,8.071145],"boundingbox_size":[40.160713,38.134264,16.142291]}
; plater:{"center":[153.303133,106.460323,0.000000],"boundingbox_center":[153.303133,106.460323,8.071145],"boundingbox_size":[40.160713,38.134264,16.142291]}

M73 P0 R32
;TYPE:Custom
; custom gcode: start_gcode
M104 S0 ; Stops PS/SS from sending temp waits separately
M140 S0
PRINT_START EXTRUDER_TEMP=235 BED_TEMP=65
; custom gcode end: start_gcode
M107
G21 ; set units to millimeters
G90 ; use absolute coordinates
M83 ; use relative distances for extrusion
; custom gcode: start_filament_gcode
; Filament gcode
;SET_GCODE_OFFSET Z=0
;SET_PRESSURE_ADVANCE ADVANCE=0.05
; custom gcode end: start_filament_gcode
;_TOOLCHANGE 0
;LAYER_CHANGE
;Z:0.2
;HEIGHT:0.2
G1 E-1.2 F1800
M73 P1 R32
G1 Z0.2 F30000
G92 E0
M104 S235 ; set temperature
; printing object main body low motor helical gears.stl id:0 copy 0
G1 X151.829 Y116.43
G1 E1.2 F1800
;TYPE:Support material interface
;WIDTH:0.38
G1 F1500
G1 X152.193 Y116.067 E0.01354
G1 X152.306 Y116.211 E0.00482
G1 X152.479 Y116.431 E0.00739
G1 X152.597 Y116.614 E0.00573
G1 X152.725 Y116.857 E0.00726
G1 X152.802 Y117.078 E0.00616
G1 X152.809 Y117.133 E0.00145
G1 X152.809 Y117.591 E0.01207
G1 X152.809 Y118.086 E0.01305
G1 X152.809 Y118.582 E0.01305
G1 X152.809 Y119.077 E0.01305
G1 X152.809 Y119.573 E0.01305
G1 X152.809 Y120.564 E0.02611
G1 X152.81 Y121.059 E0.01305
G1 X152.81 Y121.415 E0.00936
G1 X152.81 Y122.05 E0.01674
G1 X152.81 Y123.041 E0.02611
G1 X152.81 Y123.537 E0.01305
G1 X152.81 Y124.032 E0.01305
G1 X152.81 Y124.532 E0.01317
G1 X151.829 Y123.551 E0.03655
G1 X152.185 Y123.195 E0.01327
G1 X152.542 Y122.839 E0.01327
G1 X151.829 Y122.127 E0.02653
G1 X152.304 Y121.652 E0.01769
G1 X152.542 Y121.415 E0.00884
G1 X151.829 Y120.703 E0.02653
G1 X152.185 Y120.347 E0.01327
G1 X152.542 Y119.99 E0.01327
G1 X151.829 Y119.278 E0.02653
G1 X152.304 Y118.804 E0.01769
G1 X152.542 Y118.566 E0.00884
G1 X151.829 Y117.854 E0.02653
G1 X152.185 Y117.498 E0.01327
G1 X152.542 Y117.142 E0.01327
G1 X152.257 Y116.857 E0.0106
G1 X151.829 Y116.43 E0.01593
G1 X152.725 Y117.696 F30000
G1 F1500
G1 X152.311 Y117.696 E0.01089
G1 X152.154 Y117.854 E0.00588
G1 X152.37 Y118.071 E0.00807
G1 X152.725 Y118.071 E0.00934
G1 X152.725 Y119.194 F30000
G1 F1500
G1 X152.237 Y119.194 E0.01284
G1 X152.154 Y119.278 E0.00313
G1 X152.444 Y119.569 E0.01083
G1 X152.725 Y119.569 E0.0074
G1 X152.725 Y120.318 F30000
G1 F1500
G1 X152.538 Y120.318 E0.00493
G1 X152.164 Y120.693 E0.01395
G1 X152.58 Y120.693 E0.01098
G1 X152.58 Y121.067 E0.00987
G1 X152.313 Y121.067 E0.00704
G1 X152.725 Y121.816 F30000
G1 F1500
G1 X152.464 Y121.816 E0.00688
G1 X152.154 Y122.127 E0.01157
G1 X152.217 Y122.191 E0.00238
G1 X152.725 Y122.191 E0.01339
G1 X152.726 Y123.314 F30000
G1 F1500
G1 X152.39 Y123.314 E0.00884
G1 X152.154 Y123.551 E0.00882
G1 X152.291 Y123.689 E0.00513
G1 X152.726 Y123.689 E0.01145
G1 X151.974 Y124.441 F30000
;TYPE:Support material
G1 F1500
G1 X153.303 Y125.77 E0.04953
G1 X153.824 Y125.25 E0.01939
G1 X154.185 Y125.299 E0.00962
G1 X154.366 Y125.323 E0.00481
G1 X154.709 Y125.37 E0.00911
G1 X154.751 Y125.373 E0.00113
G1 X155.111 Y125.386 E0.00949
G1 X155.127 Y125.386 E0.00041
G1 X156.624 Y125.384 E0.03945
G1 X156.918 Y125.383 E0.00776
G1 X154.755 Y127.547 E0.08062
G1 X152.591 Y129.711 E0.08062
G1 X147.144 Y124.263 E0.20297
G1 X147.856 Y123.551 E0.02653
G1 X147.144 Y122.839 E0.02653
G1 X147.856 Y122.127 E0.02653
G1 X147.144 Y121.415 E0.02653
G1 X147.856 Y120.703 E0.02653
G1 X147.144 Y119.99 E0.02653
G1 X147.856 Y119.278 E0.02653
G1 X147.144 Y118.566 E0.02653
G1 X147.856 Y117.854 E0.02653
G1 X147.143 Y117.142 E0.02653
G1 X149.885 Y114.4 E0.10216
G1 X151.703 Y115.769 E0.05996
G1 X151.727 Y115.787 E0.00078
G1 X151.084 Y116.43 E0.02396
G1 X151.796 Y117.142 E0.02653
G1 X151.084 Y117.854 E0.02653
G1 X151.796 Y118.566 E0.02653
G1 X151.084 Y119.278 E0.02653
G1 X151.796 Y119.99 E0.02653
G1 X151.084 Y120.703 E0.02653
G1 X151.796 Y121.415 E0.02653
G1 X151.084 Y122.127 E0.02653
G1 X151.796 Y122.839 E0.02653
G1 X151.084 Y123.551 E0.02653
G1 X151.974 Y124.441 E0.03316
G1 X152.24 Y129.24 F30000
G1 F1500
G1 X155.866 Y125.614 E0.13511
G1 X155.335 Y125.615 E0.01398
G1 X152.077 Y128.873 E0.12139
G1 X151.813 Y128.608 E0.00987
G1 X154.816 Y125.605 E0.1119
G1 X154.738 Y125.602 E0.00205
G1 X154.684 Y125.598 E0.00143
G1 X154.34 Y125.551 E0.00914
G1 X151.548 Y128.343 E0.10403
G1 X151.283 Y128.078 E0.00987
G1 X153.285 Y126.076 E0.0746
G1 X153.02 Y125.811 E0.00987
G1 X151.018 Y127.813 E0.0746
G1 X150.753 Y127.549 E0.00987
G1 X152.755 Y125.547 E0.0746
G1 X152.49 Y125.282 E0.00987
G1 X150.488 Y127.284 E0.0746
G1 X150.224 Y127.019 E0.00987
G1 X152.226 Y125.017 E0.0746
G1 X151.961 Y124.752 E0.00987
G1 X149.959 Y126.754 E0.0746
G1 X149.694 Y126.489 E0.00987
G1 X151.696 Y124.487 E0.0746
G1 X151.431 Y124.222 E0.00987
G1 X149.429 Y126.224 E0.0746
G1 X149.164 Y125.96 E0.00987
G1 X151.166 Y123.958 E0.0746
G1 X150.901 Y123.693 E0.00987
G1 X148.899 Y125.695 E0.0746
G1 X148.635 Y125.43 E0.00987
G1 X151.349 Y122.716 E0.10113
G1 X151.084 Y122.451 E0.00987
G1 X148.37 Y125.165 E0.10113
G1 X148.105 Y124.9 E0.00987
G1 X150.819 Y122.186 E0.10113
G1 X150.76 Y122.127 E0.00221
G1 X151.472 Y121.415 E0.02653
G1 X151.266 Y121.209 E0.00766
G1 X147.84 Y124.635 E0.12766
G1 X147.575 Y124.371 E0.00987
G1 X151.001 Y120.944 E0.12766
G1 X150.76 Y120.703 E0.00901
G1 X151.472 Y119.99 E0.02653
G1 X151.449 Y119.967 E0.00086
G1 X148.022 Y123.394 E0.12766
G1 X147.758 Y123.129 E0.00987
G1 X151.184 Y119.703 E0.12766
G1 X150.919 Y119.438 E0.00987
G1 X147.493 Y122.864 E0.12766
G1 X147.468 Y122.839 E0.00094
G1 X148.18 Y122.127 E0.02653
G1 X147.94 Y121.887 E0.00893
G1 X151.366 Y118.461 E0.12766
G1 X151.102 Y118.196 E0.00987
G1 X147.675 Y121.622 E0.12766
G1 X147.468 Y121.415 E0.00773
G1 X148.18 Y120.703 E0.02653
G1 X148.123 Y120.645 E0.00213
G1 X150.837 Y117.931 E0.10113
G1 X150.76 Y117.854 E0.00287
G1 X151.472 Y117.142 E0.02653
G1 X151.284 Y116.954 E0.007
G1 X147.858 Y120.38 E0.12766
G1 X147.593 Y120.116 E0.00987
G1 X151.019 Y116.689 E0.12766
G1 X150.76 Y116.43 E0.00967
G1 X151.378 Y115.811 E0.02305
G1 X151.372 Y115.807 E0.0002
G1 X148.04 Y119.139 E0.12415
G1 X147.775 Y118.874 E0.00987
G1 X151.07 Y115.579 E0.12276
G1 X150.768 Y115.352 E0.00997
G1 X147.51 Y118.609 E0.12137
G1 X147.468 Y118.566 E0.0016
G1 X148.18 Y117.854 E0.02653
G1 X147.958 Y117.632 E0.00827
G1 X150.466 Y115.124 E0.09345
G1 X150.164 Y114.897 E0.00997
G1 X147.59 Y117.47 E0.09588
;WIPE_START
G1 F24000
G1 X150.164 Y114.897 E-0.25928
G1 X150.466 Y115.124 E-0.02695
G1 X147.958 Y117.632 E-0.25272
G1 X148.18 Y117.854 E-0.02237
G1 X147.468 Y118.566 E-0.07175
G1 X147.51 Y118.609 E-0.00431
G1 X150.768 Y115.352 E-0.32823
G1 X151.07 Y115.579 E-0.02695
G1 X149.607 Y117.042 E-0.14743
;WIPE_END
G1 E-0.06 F1800
G1 X149.638 Y109.894 F30000
G1 E1.2 F1800
G1 F1500
G1 X149.596 Y109.881 E0.00117
G1 X149.302 Y109.792 E0.0081
G1 X148.965 Y109.69 E0.00927
G1 X148.67 Y109.571 E0.00838
G1 X148.356 Y109.411 E0.00927
G1 X148.053 Y109.256 E0.00897
G1 X147.77 Y109.067 E0.00897
G1 X147.478 Y108.871 E0.00927
G1 X147.231 Y108.671 E0.00838
G1 X146.978 Y108.426 E0.00927
G1 X146.725 Y108.181 E0.00927
G1 X146.517 Y107.941 E0.00838
G1 X146.311 Y107.655 E0.00927
G1 X146.113 Y107.379 E0.00897
G1 X146.052 Y107.27 E0.00327
G1 X145.948 Y107.081 E0.0057
G1 X145.783 Y106.783 E0.00897
G1 X145.655 Y106.467 E0.00897
G1 X145.522 Y106.141 E0.00927
G1 X145.429 Y105.837 E0.00838
G1 X145.356 Y105.493 E0.00927
G1 X145.286 Y105.16 E0.00897
G1 X145.255 Y104.82 E0.00897
G1 X145.224 Y104.47 E0.00927
G1 X145.224 Y104.141 E0.00868
G1 X145.243 Y103.812 E0.00868
G1 X145.295 Y103.464 E0.00927
G1 X145.345 Y103.127 E0.00897
G1 X145.524 Y102.47 E0.01794
G1 X145.652 Y102.154 E0.00897
G1 X145.78 Y101.839 E0.00897
G1 X145.945 Y101.54 E0.00897
G1 X146.109 Y101.242 E0.00897
G1 X146.308 Y100.966 E0.00897
G1 X146.513 Y100.68 E0.00927
G1 X146.721 Y100.439 E0.00838
G1 X146.974 Y100.194 E0.00927
G1 X147.218 Y99.957 E0.00897
G1 X147.745 Y99.556 E0.01745
G1 X147.76 Y99.544 E0.0005
G1 X148.053 Y99.371 E0.00897
G1 X148.357 Y99.193 E0.00927
G1 X148.644 Y99.056 E0.00838
G1 X148.974 Y98.934 E0.00927
G1 X149.293 Y98.816 E0.00897
G1 X149.624 Y98.736 E0.00897
G1 X149.956 Y98.657 E0.00897
G1 X150.294 Y98.617 E0.00897
G1 X150.633 Y98.577 E0.009
G1 X151.313 Y98.579 E0.01791
G1 X151.989 Y98.661 E0.01794
G1 X152.146 Y98.699 E0.00425
G1 X152.32 Y98.741 E0.00472
G1 X152.662 Y98.825 E0.00927
G1 X152.963 Y98.927 E0.00838
G1 X153.069 Y98.974 E0.00304
G1 X153.285 Y99.07 E0.00623
G1 X153.367 Y99.106 E0.00238
G1 X153.596 Y99.208 E0.00659
G1 X153.871 Y99.371 E0.00844
G1 X153.889 Y99.382 E0.00054
G1 X154.182 Y99.556 E0.00897
G1 X154.452 Y99.763 E0.00897
G1 X154.722 Y99.97 E0.00897
G1 X154.965 Y100.208 E0.00897
G1 X155.209 Y100.446 E0.00897
G1 X155.423 Y100.711 E0.00897
G1 X155.823 Y101.207 E0.01678
G1 X156.112 Y101.242 E0.00767
G1 X156.514 Y101.291 E0.01069
G1 X156.983 Y100.936 E0.0155
G1 X157.21 Y100.763 E0.00753
G1 X157.301 Y100.711 E0.00274
G1 X157.459 Y100.622 E0.00477
G1 X157.718 Y100.475 E0.00785
G1 X157.967 Y100.366 E0.00718
G1 X157.984 Y100.36 E0.00045
G1 X158.236 Y100.269 E0.00706
G1 X158.344 Y100.238 E0.00296
G1 X158.665 Y100.146 E0.00882
G1 X158.716 Y100.128 E0.00142
G1 X158.874 Y100.061 E0.00451
G1 X159.07 Y99.977 E0.00561
G1 X159.136 Y99.941 E0.002
G1 X159.355 Y99.797 E0.0069
G1 X159.364 Y99.79 E0.0003
G1 X159.405 Y99.759 E0.00134
G1 X159.596 Y99.59 E0.00673
G1 X159.637 Y99.547 E0.00156
G1 X159.801 Y99.356 E0.00662
G1 X159.833 Y99.314 E0.0014
G1 X159.978 Y99.093 E0.00695
G1 X160.01 Y99.036 E0.00173
G1 X160.182 Y98.661 E0.01089
G1 X160.222 Y98.573 E0.00255
G1 X160.241 Y98.526 E0.00132
G1 X160.329 Y98.254 E0.00755
G1 X160.339 Y98.219 E0.00094
G1 X160.403 Y97.947 E0.00737
G1 X160.467 Y97.675 E0.00737
G1 X160.474 Y97.64 E0.00092
G1 X160.518 Y97.342 E0.00793
G1 X160.563 Y97.045 E0.00792
G1 X160.567 Y97.011 E0.0009
G1 X160.596 Y96.596 E0.01096
G1 X160.624 Y96.194 E0.01062
G1 X160.651 Y95.818 E0.00994
G1 X160.686 Y95.563 E0.00677
G1 X160.755 Y95.29 E0.00744
G1 X160.823 Y95.016 E0.00744
G1 X160.907 Y94.789 E0.00637
G1 X161.123 Y94.354 E0.01279
G1 X161.158 Y94.283 E0.00209
G1 X161.289 Y94.08 E0.00637
G1 X161.459 Y93.867 E0.00717
G1 X161.466 Y93.86 E0.00027
G1 X161.526 Y93.785 E0.00253
G1 X161.634 Y93.65 E0.00456
G1 X161.822 Y93.475 E0.00678
G1 X161.885 Y93.416 E0.00226
G1 X161.988 Y93.32 E0.00371
G1 X162.194 Y93.128 E0.00742
G1 X162.238 Y93.08 E0.00171
G1 X162.368 Y92.915 E0.00554
G1 X162.419 Y92.834 E0.00253
G1 X162.584 Y92.489 E0.01007
G1 X162.622 Y92.367 E0.00337
G1 X162.677 Y92.001 E0.00975
G1 X162.678 Y91.987 E0.00037
G1 X162.681 Y91.937 E0.00131
G1 X162.681 Y91.152 E0.0207
G1 X165.219 Y91.152 E0.06684
G1 X165.284 Y91.152 E0.00173
G1 X165.688 Y91.152 E0.01063
G1 X166.151 Y91.153 E0.01219
G1 X166.403 Y91.158 E0.00667
G1 X166.594 Y91.162 E0.00501
G1 X166.714 Y91.17 E0.00318
G1 X166.714 Y92.183 E0.02668
G1 X166.717 Y92.23 E0.00124
G1 X166.783 Y92.829 E0.01588
G1 X166.789 Y92.891 E0.00164
G1 X167.063 Y93.263 E0.01217
G1 X167.652 Y93.519 E0.01692
G1 X167.892 Y93.63 E0.00696
G1 X167.928 Y93.642 E0.00099
G1 X167.965 Y93.656 E0.00104
G1 X168.411 Y93.771 E0.01213
G1 X168.456 Y93.78 E0.00121
G1 X168.795 Y93.83 E0.00904
G1 X168.83 Y93.833 E0.00093
G1 X169.053 Y93.847 E0.00589
G1 X169.1 Y93.85 E0.00123
G1 X169.371 Y93.867 E0.00714
G1 X169.408 Y93.868 E0.00098
G1 X169.819 Y93.859 E0.01085
G1 X169.877 Y93.853 E0.00153
G1 X170.006 Y93.833 E0.00344
G1 X170.307 Y93.785 E0.00802
G1 X170.339 Y93.777 E0.00087
G1 X170.365 Y93.771 E0.00071
G1 X170.776 Y93.645 E0.01134
G1 X170.822 Y93.628 E0.00128
G1 X171.073 Y93.519 E0.00722
G1 X171.088 Y93.513 E0.00043
G1 X171.356 Y93.409 E0.00758
G1 X171.416 Y93.381 E0.00174
G1 X171.781 Y93.171 E0.01108
G1 X171.814 Y93.149 E0.00106
G1 X171.838 Y93.132 E0.00079
G1 X172.156 Y92.873 E0.0108
G1 X172.202 Y92.829 E0.00167
G1 X172.356 Y92.66 E0.00603
G1 X172.399 Y92.605 E0.00183
G1 X172.629 Y92.252 E0.0111
G1 X172.664 Y92.183 E0.00204
G1 X172.671 Y92.169 E0.00041
G1 X172.734 Y92.001 E0.00474
G1 X172.824 Y91.764 E0.00668
G1 X172.84 Y91.711 E0.00147
G1 X172.867 Y91.594 E0.00317
G1 X172.945 Y91.265 E0.00889
G1 X173.06 Y90.778 E0.01318
G1 X173.147 Y90.408 E0.01001
G1 X173.151 Y90.389 E0.00052
G1 X173.23 Y89.964 E0.01139
G1 X173.388 Y89.124 E0.02253
G1 X173.39 Y89.11 E0.00037
G1 X173.454 Y88.698 E0.01098
G1 X173.493 Y88.445 E0.00674
G1 X177.266 Y92.218 E0.14058
G1 X175.971 Y93.512 E0.04823
G1 X175.841 Y93.642 E0.00484
G1 X176.553 Y94.354 E0.02653
G1 X166.121 Y104.787 E0.3887
G1 X165.409 Y104.075 E0.02653
G1 X163.985 Y105.499 E0.05307
G1 X162.561 Y104.075 E0.05307
G1 X161.848 Y104.787 E0.02653
G1 X160.424 Y103.362 E0.05307
G1 X159.712 Y104.075 E0.02653
G1 X159 Y103.362 E0.02653
G1 X158.039 Y104.324 E0.03582
G1 X160.887 Y107.172 E0.10613
G1 X160.65 Y107.41 E0.00884
G1 X159.52 Y108.54 E0.04211
G1 X159.305 Y108.528 E0.00567
G1 X159.025 Y108.512 E0.00737
G1 X158.877 Y108.484 E0.00398
G1 X158.751 Y108.46 E0.00339
G1 X158.476 Y108.407 E0.00737
G1 X158.343 Y108.364 E0.00368
G1 X158.211 Y108.32 E0.00368
G1 X157.945 Y108.232 E0.00737
G1 X157.694 Y108.109 E0.00737
G1 X157.442 Y107.987 E0.00737
G1 X157.209 Y107.833 E0.00737
G1 X156.965 Y107.672 E0.0077
G1 X156.536 Y107.322 E0.01459
G1 X155.812 Y107.41 E0.01921
G1 X155.442 Y107.898 E0.01615
G1 X155.206 Y108.159 E0.00927
G1 X154.969 Y108.419 E0.00927
G1 X154.962 Y108.426 E0.00026
G1 X154.735 Y108.635 E0.00812
G1 X154.689 Y108.671 E0.00154
G1 X154.456 Y108.85 E0.00773
G1 X154.186 Y109.057 E0.00897
G1 X153.894 Y109.231 E0.00897
G1 X153.591 Y109.411 E0.00927
G1 X153.305 Y109.549 E0.00838
G1 X152.975 Y109.673 E0.00927
G1 X152.646 Y109.796 E0.00927
G1 X152.339 Y109.881 E0.00838
G1 X151.993 Y109.945 E0.00927
G1 X151.658 Y110.006 E0.00897
G1 X151.318 Y110.027 E0.00897
G1 X150.967 Y110.049 E0.00927
G1 X150.84 Y110.045 E0.00335
G1 X150.649 Y110.04 E0.00503
G1 X150.299 Y110 E0.00927
G1 X149.95 Y109.959 E0.00927
G1 X149.638 Y109.894 E0.00838
;WIPE_START
G1 F24000
G1 X149.596 Y109.881 E-0.00315
G1 X149.302 Y109.792 E-0.02192
G1 X148.965 Y109.69 E-0.02507
G1 X148.67 Y109.571 E-0.02267
G1 X148.356 Y109.411 E-0.02507
G1 X148.053 Y109.256 E-0.02426
G1 X147.77 Y109.067 E-0.02426
G1 X147.478 Y108.871 E-0.02507
G1 X147.478 Y108.871 E-0
G1 X147.231 Y108.671 E-0.02267
G1 X146.978 Y108.426 E-0.02507
G1 X146.725 Y108.181 E-0.02507
G1 X146.517 Y107.941 E-0.02267
G1 X146.311 Y107.655 E-0.02507
G1 X146.113 Y107.379 E-0.02426
G1 X146.052 Y107.27 E-0.00885
G1 X145.948 Y107.081 E-0.01541
G1 X145.783 Y106.783 E-0.02426
G1 X145.655 Y106.467 E-0.02426
G1 X145.522 Y106.141 E-0.02507
G1 X145.429 Y105.837 E-0.02267
G1 X145.356 Y105.493 E-0.02507
G1 X145.286 Y105.16 E-0.02426
G1 X145.255 Y104.82 E-0.02426
G1 X145.224 Y104.47 E-0.02507
G1 X145.224 Y104.141 E-0.02348
G1 X145.243 Y103.812 E-0.02347
G1 X145.295 Y103.464 E-0.02507
G1 X145.345 Y103.127 E-0.02426
G1 X145.524 Y102.47 E-0.04853
G1 X145.652 Y102.154 E-0.02426
G1 X145.78 Y101.839 E-0.02426
G1 X145.945 Y101.54 E-0.02427
G1 X146.109 Y101.242 E-0.02426
G1 X146.308 Y100.966 E-0.02427
G1 X146.513 Y100.68 E-0.02506
G1 X146.721 Y100.439 E-0.02267
G1 X146.974 Y100.194 E-0.02507
G1 X147.218 Y99.957 E-0.02426
G1 X147.745 Y99.556 E-0.04718
G1 X147.76 Y99.544 E-0.00135
G1 X148.053 Y99.371 E-0.02426
G1 X148.357 Y99.193 E-0.02507
G1 X148.644 Y99.056 E-0.02267
G1 X148.974 Y98.934 E-0.02507
G1 X149.293 Y98.816 E-0.02426
G1 X149.624 Y98.736 E-0.02427
G1 X149.956 Y98.657 E-0.02426
G1 X150.275 Y98.619 E-0.02293
;WIPE_END
G1 E-0.06 F1800
G1 X165.905 Y104.452 F30000
