; generated by SuperSlicer 2.3.57 on 2022-11-06 at 18:36:01 UTC


;
;

;
;
; TODO: check the size of the extruder and the y-bar clearance. Optimize & test supports.

; external perimeters extrusion width = 0.42mm
; perimeters extrusion width = 0.46mm
; infill extrusion width = 0.44mm
; solid infill extrusion width = 0.46mm
; top infill extrusion width = 0.44mm
; first layer extrusion width = 0.56mm

; object:{"name":"Minnie_Black_Base","id":"Minnie_Black_Base.stl id:0 copy 0","object_center":[165.000000,162.500000,0.000000],"boundingbox_center":[165.000000,162.500000,3.750000],"boundingbox_size":[90.230896,94.643745,7.500000]}
; plater:{"center":[165.000000,162.500000,0.000000],"boundingbox_center":[165.000000,162.500000,3.750000],"boundingbox_size":[90.230896,94.643745,7.500000]}

;TYPE:Custom
; M190 S0
; M109 S0 ; uncomment to remove set&wait temp gcode added automatically after this start gcode
PRINT_START EXTRUDER_TEMP=240 BED_TEMP=70
M107
G21 ; set units to millimeters
G90 ; use absolute coordinates
M83 ; use relative distances for extrusion
M104 S240 ; set temperature
M109 S240 ; set temperature and wait for it to be reached
M190 S70 ; set bed temperature and wait for it to be reached
M107
;LAYER_CHANGE
;Z:0.2
;HEIGHT:0.2
;BEFORE_LAYER_CHANGE
;0.2


G1 Z0.2 F18000
;AFTER_LAYER_CHANGE
;0.2
G1 E-0.75 F3000
G1 Z0.6 F18000
M204 S1500
G1 X140.317 Y126.169
G1 Z0.2
G1 E0.75 F1800
;TYPE:Skirt
;WIDTH:0.52
G1 X139.402 Y127.34 E0.05895
G1 X138.581 Y128.636 E0.06087
G1 X118.652 Y165.286 E1.65491
G1 X117.306 Y168.198 E0.12725
G1 X116.587 Y170.411 E0.09232
G1 X116.108 Y172.605 E0.0891
G1 X115.851 Y174.745 E0.08549
G1 X115.795 Y176.98 E0.08868
G1 X115.863 Y178.296 E0.05228
G1 X116.057 Y179.541 E0.05
G1 X116.538 Y181.545 E0.08174
G1 X117.184 Y183.416 E0.07854
G1 X118.081 Y185.355 E0.08475
G1 X119.132 Y187.133 E0.08194
G1 X134.211 Y208.792 E1.04693
G1 X135.467 Y210.193 E0.07463
G1 X136.747 Y211.221 E0.06515
G1 X138.494 Y212.19 E0.07924
G1 X139.804 Y212.671 E0.05533
G1 X141.179 Y212.981 E0.05594
G1 X142.404 Y213.102 E0.04882
G1 X184.438 Y213.911 E1.66774
G1 X185.647 Y213.866 E0.048
G1 X186.54 Y213.734 E0.03583
G1 X188.183 Y213.261 E0.0678
G1 X189.787 Y212.466 E0.07102
G1 X191.239 Y211.347 E0.07272
G1 X208.915 Y191.594 E1.05152
G1 X210.295 Y189.737 E0.09179
G1 X211.518 Y187.683 E0.0948
G1 X212.495 Y185.586 E0.09179
G1 X213.505 Y182.501 E0.12879
G1 X213.797 Y181.183 E0.05355
G1 X214.106 Y179.007 E0.08718
G1 X214.19 Y177.741 E0.05032
G1 X214.174 Y175.559 E0.08658
G1 X214.068 Y174.289 E0.05052
G1 X213.726 Y172.124 E0.08698
G1 X213.437 Y170.899 E0.04992
G1 X212.801 Y168.869 E0.08437
G1 X196.688 Y131.787 E1.60388
G1 X195.573 Y129.606 E0.09719
G1 X194.459 Y127.77 E0.0852
G1 X193.017 Y125.819 E0.09623
G1 X191.634 Y124.263 E0.0826
G1 X190.738 Y123.381 E0.04985
G1 X187.992 Y121.119 E0.14116
G1 X185.089 Y119.165 E0.13878
G1 X172.05 Y112.154 E0.5873
G1 X171.016 Y111.733 E0.04428
G1 X169.907 Y111.405 E0.04588
G1 X168.796 Y111.194 E0.04488
G1 X167.537 Y111.092 E0.05008
G1 X165.997 Y111.151 E0.06117
G1 X164.412 Y111.436 E0.06388
G1 X162.843 Y111.957 E0.06557
G1 X161.705 Y112.503 E0.05008
G1 X146.569 Y121.172 E0.69193
G1 X143.636 Y123.215 E0.1418
G1 X141.074 Y125.369 E0.13278
G1 X140.358 Y126.126 E0.0413
G1 X140.532 Y126.289 F18000
M204 S1000
G1 X140.705 Y126.453
G1 F1800
G1 X140.676 Y126.484 E0.00168
G1 X139.792 Y127.614 E0.05693
G1 X138.999 Y128.866 E0.05877
G1 X119.071 Y165.513 E1.65481
G1 X117.747 Y168.379 E0.12526
G1 X117.049 Y170.53 E0.08971
G1 X116.578 Y172.689 E0.08764
G1 X116.326 Y174.792 E0.08405
G1 X116.272 Y176.978 E0.08674
G1 X116.338 Y178.25 E0.05051
G1 X116.524 Y179.444 E0.04795
G1 X116.993 Y181.402 E0.07985
G1 X117.627 Y183.237 E0.07703
G1 X118.498 Y185.125 E0.0825
G1 X119.525 Y186.862 E0.08004
G1 X134.581 Y208.491 E1.0454
G1 X135.793 Y209.845 E0.07209
G1 X137.017 Y210.827 E0.06225
G1 X138.696 Y211.758 E0.07617
G1 X139.926 Y212.209 E0.05195
G1 X141.252 Y212.509 E0.05396
G1 X142.417 Y212.625 E0.04643
G1 X184.438 Y213.434 E1.66726
G1 X185.603 Y213.391 E0.04625
G1 X186.445 Y213.266 E0.03374
G1 X187.968 Y212.833 E0.06282
G1 X189.523 Y212.068 E0.06874
G1 X190.896 Y211.016 E0.06861
G1 X208.522 Y191.321 E1.04848
G1 X209.892 Y189.481 E0.09102
G1 X211.054 Y187.541 E0.0897
G1 X212.018 Y185.495 E0.0897
G1 X212.795 Y183.291 E0.09272
G1 X213.294 Y181.266 E0.08272
G1 X213.501 Y180.065 E0.04836
G1 X213.705 Y177.916 E0.08561
G1 X213.731 Y176.685 E0.04887
G1 X213.614 Y174.535 E0.08542
G1 X213.458 Y173.317 E0.04868
G1 X213.021 Y171.196 E0.08593
G1 X212.668 Y169.96 E0.051
G1 X211.902 Y167.893 E0.08744
G1 X196.261 Y132 E1.55315
G1 X194.582 Y128.847 E0.14171
G1 X192.749 Y126.246 E0.12623
G1 X191.203 Y124.503 E0.09243
G1 X189.06 Y122.561 E0.11471
G1 X186.206 Y120.443 E0.14101
G1 X183.308 Y118.695 E0.13425
G1 X171.894 Y112.608 E0.51314
G1 X170.874 Y112.188 E0.04376
G1 X169.807 Y111.872 E0.04414
G1 X168.733 Y111.667 E0.04338
G1 X167.534 Y111.569 E0.04772
G1 X166.049 Y111.625 E0.05895
G1 X164.529 Y111.899 E0.06127
G1 X163.021 Y112.4 E0.06302
G1 X161.934 Y112.921 E0.04782
G1 X146.829 Y121.572 E0.69053
G1 X143.938 Y123.584 E0.13973
G1 X141.392 Y125.725 E0.13196
G1 X140.746 Y126.409 E0.0373
M204 S1500
G1 X140.92 Y126.572 F18000
M204 S1000
G1 X141.094 Y126.736
G1 F1800
G1 X141.036 Y126.797 E0.00336
G1 X140.183 Y127.888 E0.05493
G1 X139.415 Y129.099 E0.05687
G1 X119.493 Y165.736 E1.65434
G1 X118.191 Y168.555 E0.12318
G1 X117.51 Y170.655 E0.08757
G1 X117.048 Y172.767 E0.08577
G1 X116.801 Y174.834 E0.08259
G1 X116.746 Y176.059 E0.04862
G1 X116.812 Y178.198 E0.08491
G1 X116.991 Y179.347 E0.04612
G1 X117.448 Y181.259 E0.07797
G1 X118.069 Y183.058 E0.07551
G1 X118.916 Y184.895 E0.08026
G1 X119.918 Y186.592 E0.07815
G1 X134.949 Y208.186 E1.04373
G1 X136.122 Y209.5 E0.06988
G1 X137.282 Y210.431 E0.059
G1 X138.897 Y211.325 E0.07323
G1 X140.048 Y211.748 E0.04862
G1 X141.329 Y212.038 E0.05214
G1 X142.43 Y212.148 E0.04387
G1 X184.444 Y212.957 E1.66698
G1 X185.564 Y212.916 E0.04445
G1 X186.363 Y212.796 E0.03207
G1 X187.787 Y212.392 E0.05869
G1 X189.264 Y211.667 E0.06527
G1 X190.555 Y210.682 E0.06442
G1 X208.157 Y191.014 E1.04707
G1 X209.495 Y189.216 E0.08887
G1 X210.635 Y187.313 E0.08799
G1 X211.576 Y185.315 E0.08764
G1 X212.333 Y183.169 E0.09028
G1 X212.828 Y181.166 E0.08182
G1 X213.028 Y179.998 E0.04701
G1 X213.229 Y177.884 E0.08427
G1 X213.254 Y176.69 E0.04738
G1 X213.139 Y174.573 E0.08409
G1 X212.987 Y173.393 E0.04721
G1 X212.558 Y171.307 E0.08447
G1 X212.215 Y170.108 E0.04947
G1 X211.464 Y168.083 E0.08568
G1 X195.825 Y132.195 E1.55294
G1 X194.179 Y129.103 E0.13897
G1 X192.376 Y126.543 E0.1242
G1 X190.866 Y124.842 E0.09024
G1 X188.759 Y122.931 E0.11284
G1 X185.949 Y120.845 E0.13884
G1 X183.077 Y119.112 E0.13307
G1 X171.693 Y113.04 E0.51182
G1 X170.713 Y112.638 E0.04202
G1 X169.702 Y112.337 E0.04184
G1 X168.675 Y112.141 E0.04149
G1 X167.535 Y112.046 E0.04536
G1 X166.106 Y112.099 E0.05674
G1 X164.641 Y112.362 E0.05903
G1 X163.192 Y112.845 E0.06061
G1 X162.16 Y113.341 E0.0454
G1 X147.089 Y121.972 E0.68898
G1 X144.236 Y123.957 E0.13786
G1 X141.71 Y126.08 E0.13088
G1 X141.135 Y126.692 E0.03332
; INIT printing object Minnie_Black_Base.stl id:0 copy 0
G1 E-0.75 F3000
M204 S1500
G1 Z0.6 F18000
; printing object Minnie_Black_Base.stl id:0 copy 0
G1 X165.195 Y158.27
M204 S1000
G1 X189.255 Y189.848
G1 Z0.2
G1 E0.75 F1800
;TYPE:Internal perimeter
;WIDTH:0.56
G1 X189.499 Y194.601 E0.20463
G1 X189.512 Y197.024 E0.1042
G1 X189.415 Y199.445 E0.1042
G1 X189.206 Y201.86 E0.1042
G1 X188.896 Y204.2 E0.1015
G1 X188.694 Y204.934 E0.0327
G1 X188.576 Y205.269 E0.01529
G1 X188.259 Y205.992 E0.03396
G1 X187.882 Y206.668 E0.03328
G1 X187.433 Y207.318 E0.03396
G1 X187.288 Y207.498 E0.00991
G1 X187.035 Y207.688 E0.01362
G1 X186.89 Y207.782 E0.00744
G1 X186.517 Y207.985 E0.01828
G1 X186.14 Y208.146 E0.01759
G1 X185.735 Y208.274 E0.01828
G1 X185.567 Y208.313 E0.00743
G1 X185.147 Y208.381 E0.01828
G1 X184.722 Y208.407 E0.01828
G1 X184.55 Y208.405 E0.00743
G1 X184.126 Y208.37 E0.01828
G1 X183.724 Y208.296 E0.01759
G1 X183.33 Y208.184 E0.01759
G1 X182.949 Y208.034 E0.0176
G1 X182.624 Y207.867 E0.01573
G1 X181.359 Y206.947 E0.06725
G1 X180.082 Y205.919 E0.07049
G1 X178.856 Y204.83 E0.07049
G1 X177.685 Y203.683 E0.07049
G1 X176.57 Y202.481 E0.07049
G1 X175.516 Y201.225 E0.07049
G1 X174.523 Y199.92 E0.07049
G1 X173.595 Y198.569 E0.07049
G1 X172.734 Y197.174 E0.07049
G1 X171.942 Y195.738 E0.07049
G1 X170.58 Y192.96 E0.13303
G1 X169.859 Y190.982 E0.09051
G1 X169.389 Y189.478 E0.06775
G1 X168.989 Y187.954 E0.06776
G1 X168.313 Y184.777 E0.13965
G1 X166.296 Y185.611 E0.09384
G1 X165.838 Y185.75 E0.02057
G1 X165.368 Y185.845 E0.02063
G1 X164.875 Y185.897 E0.02131
G1 X164.666 Y185.903 E0.00897
G1 X164.156 Y185.883 E0.02198
G1 X163.948 Y185.86 E0.00897
G1 X163.461 Y185.77 E0.02131
G1 X162.984 Y185.635 E0.02131
G1 X162.788 Y185.563 E0.00897
G1 X162.321 Y185.354 E0.02198
G1 X160.571 Y184.416 E0.08541
G1 X160.033 Y186.462 E0.09096
G1 X159.746 Y187.551 E0.04844
G1 X159.304 Y188.965 E0.06368
G1 X158.798 Y190.357 E0.06368
G1 X158.025 Y192.209 E0.08629
G1 X156.664 Y194.686 E0.12152
G1 X155.981 Y195.816 E0.05678
G1 X154.307 Y198.308 E0.12906
G1 X153.335 Y199.604 E0.06965
G1 X152.301 Y200.856 E0.06981
G1 X151.21 Y202.058 E0.06981
G1 X150.064 Y203.209 E0.06981
G1 X148.866 Y204.304 E0.06981
G1 X147.617 Y205.344 E0.0699
G1 X146.062 Y206.528 E0.084
G1 X145.59 Y206.847 E0.0245
G1 X145.39 Y206.961 E0.00991
G1 X144.9 Y207.194 E0.02332
G1 X144.405 Y207.372 E0.02262
G1 X143.879 Y207.505 E0.02332
G1 X143.652 Y207.544 E0.00991
G1 X143.096 Y207.599 E0.02402
G1 X142.849 Y207.605 E0.01061
G1 X142.602 Y207.598 E0.01061
G1 X142.047 Y207.542 E0.02402
G1 X141.819 Y207.502 E0.00991
G1 X141.294 Y207.368 E0.02332
G1 X140.799 Y207.189 E0.02262
G1 X140.31 Y206.954 E0.02332
G1 X140.096 Y206.831 E0.01061
G1 X139.889 Y206.697 E0.01061
G1 X139.443 Y206.361 E0.02402
G1 X139.269 Y206.209 E0.00991
G1 X138.889 Y205.822 E0.02332
G1 X138.559 Y205.412 E0.02262
G1 X138.263 Y204.958 E0.02332
G1 X138.152 Y204.756 E0.00991
G1 X137.926 Y204.262 E0.02337
G1 X137.498 Y203.022 E0.05638
G1 X137.22 Y202.046 E0.04361
G1 X136.987 Y201.054 E0.04381
G1 X136.802 Y200.052 E0.04381
G1 X136.664 Y199.043 E0.04381
G1 X136.574 Y198.028 E0.04381
G1 X136.531 Y197.01 E0.04381
G1 X136.537 Y195.991 E0.04381
G1 X136.592 Y194.973 E0.04381
G1 X136.694 Y193.959 E0.04381
G1 X136.844 Y192.952 E0.04381
G1 X137.457 Y189.845 E0.13616
G1 X134.649 Y190.401 E0.1231
G1 X133.971 Y190.463 E0.02928
G1 X133.287 Y190.458 E0.02939
G1 X132.591 Y190.384 E0.03009
G1 X132.271 Y190.325 E0.014
G1 X131.965 Y190.253 E0.01351
G1 X131.273 Y190.024 E0.03134
G1 X130.568 Y189.751 E0.03253
G1 X129.877 Y189.443 E0.03253
G1 X129.202 Y189.101 E0.03253
G1 X128.545 Y188.726 E0.03253
G1 X127.907 Y188.319 E0.03253
G1 X127.291 Y187.88 E0.03253
G1 X126.697 Y187.411 E0.03253
G1 X126.127 Y186.914 E0.03253
G1 X125.583 Y186.388 E0.03253
G1 X125.065 Y185.837 E0.03253
G1 X124.576 Y185.26 E0.03253
G1 X124.116 Y184.659 E0.03253
G1 X123.686 Y184.037 E0.03253
G1 X123.288 Y183.393 E0.03253
G1 X122.922 Y182.731 E0.03253
G1 X122.59 Y182.051 E0.03253
G1 X122.292 Y181.356 E0.03253
G1 X122.029 Y180.647 E0.03253
G1 X121.801 Y179.925 E0.03253
G1 X121.61 Y179.193 E0.03253
G1 X121.455 Y178.453 E0.03253
G1 X121.344 Y177.744 E0.03086
G1 X121.302 Y176.93 E0.03503
G1 X121.299 Y176.075 E0.03674
G1 X121.337 Y175.222 E0.03674
G1 X121.417 Y174.371 E0.03674
G1 X121.538 Y173.525 E0.03674
G1 X121.699 Y172.686 E0.03674
G1 X121.901 Y171.856 E0.03674
G1 X122.143 Y171.036 E0.03674
G1 X122.424 Y170.23 E0.03674
G1 X122.744 Y169.437 E0.03674
G1 X123.102 Y168.661 E0.03674
G1 X123.497 Y167.904 E0.03674
G1 X123.928 Y167.166 E0.03674
G1 X124.394 Y166.45 E0.03674
G1 X124.895 Y165.757 E0.03674
G1 X125.428 Y165.09 E0.03674
G1 X125.993 Y164.449 E0.03674
G1 X126.588 Y163.835 E0.03674
G1 X127.212 Y163.252 E0.03674
G1 X127.864 Y162.699 E0.03674
G1 X128.541 Y162.179 E0.03674
G1 X129.252 Y161.686 E0.03716
G1 X129.713 Y161.389 E0.02361
G1 X130.18 Y161.119 E0.02317
G1 X130.659 Y160.873 E0.02317
G1 X131.15 Y160.65 E0.02317
G1 X131.651 Y160.452 E0.02317
G1 X132.161 Y160.278 E0.02317
G1 X132.678 Y160.129 E0.02317
G1 X133.203 Y160.005 E0.02317
G1 X133.733 Y159.907 E0.02317
G1 X134.267 Y159.836 E0.02317
G1 X134.804 Y159.79 E0.02317
G1 X135.342 Y159.77 E0.02317
G1 X135.881 Y159.777 E0.02317
G1 X136.419 Y159.81 E0.02317
G1 X136.955 Y159.869 E0.02317
G1 X137.487 Y159.954 E0.02317
G1 X138.014 Y160.065 E0.02317
G1 X138.535 Y160.201 E0.02317
G1 X139.049 Y160.363 E0.02317
G1 X139.555 Y160.549 E0.02317
G1 X140.051 Y160.76 E0.02317
G1 X140.536 Y160.995 E0.02317
G1 X141.009 Y161.253 E0.02317
G1 X142.284 Y162.032 E0.06423
G1 X143.903 Y160.605 E0.0928
G1 X142.922 Y158.425 E0.10278
G1 X142.396 Y157.088 E0.06174
G1 X141.934 Y155.729 E0.06174
G1 X141.538 Y154.348 E0.06174
G1 X141.208 Y152.951 E0.06174
G1 X140.945 Y151.539 E0.06174
G1 X140.749 Y150.116 E0.06174
G1 X140.622 Y148.686 E0.06174
G1 X140.564 Y147.251 E0.06174
G1 X140.573 Y145.815 E0.06174
G1 X140.652 Y144.381 E0.06174
G1 X140.798 Y142.952 E0.06174
G1 X141.013 Y141.532 E0.06174
G1 X141.295 Y140.124 E0.06174
G1 X141.644 Y138.731 E0.06174
G1 X142.138 Y137.095 E0.07349
G1 X142.107 Y136.344 E0.0323
G1 X142.11 Y135.867 E0.02053
G1 X142.136 Y135.39 E0.02053
G1 X142.186 Y134.915 E0.02053
G1 X142.258 Y134.444 E0.02053
G1 X142.354 Y133.976 E0.02053
G1 X142.472 Y133.513 E0.02053
G1 X142.612 Y133.057 E0.02053
G1 X142.775 Y132.608 E0.02053
G1 X142.959 Y132.168 E0.02053
G1 X143.165 Y131.737 E0.02053
G1 X143.391 Y131.317 E0.02053
G1 X143.638 Y130.908 E0.02053
G1 X143.904 Y130.512 E0.02053
G1 X144.189 Y130.129 E0.02053
G1 X144.493 Y129.76 E0.02053
G1 X144.784 Y129.44 E0.01863
G1 X145.879 Y128.475 E0.06274
G1 X147.053 Y127.533 E0.06471
G1 X148.27 Y126.647 E0.06471
G1 X149.526 Y125.818 E0.06471
G1 X150.819 Y125.048 E0.06471
G1 X152.147 Y124.339 E0.06471
G1 X153.506 Y123.692 E0.06471
G1 X154.893 Y123.108 E0.06471
G1 X156.306 Y122.589 E0.06471
G1 X157.741 Y122.137 E0.06471
G1 X159.695 Y121.618 E0.08692
G1 X160.38 Y120.722 E0.04849
G1 X160.773 Y120.253 E0.0263
G1 X161.188 Y119.803 E0.0263
G1 X161.622 Y119.373 E0.0263
G1 X162.076 Y118.963 E0.0263
G1 X162.548 Y118.574 E0.0263
G1 X163.043 Y118.203 E0.02658
G1 X163.846 Y117.646 E0.04202
G1 X164.37 Y117.324 E0.02643
G1 X164.897 Y117.068 E0.02522
G1 X165.463 Y116.859 E0.02592
G1 X165.714 Y116.788 E0.01122
G1 X166.32 Y116.662 E0.02662
G1 X166.595 Y116.626 E0.01192
G1 X166.872 Y116.603 E0.01192
G1 X167.475 Y116.599 E0.02592
G1 X168.059 Y116.653 E0.02522
G1 X168.635 Y116.764 E0.02522
G1 X169.197 Y116.932 E0.02522
G1 X169.755 Y117.161 E0.02592
G1 X169.988 Y117.277 E0.01122
G1 X170.506 Y117.586 E0.02592
G1 X170.986 Y117.94 E0.02566
G1 X171.921 Y118.759 E0.05342
G1 X173.559 Y120.268 E0.09578
G1 X175.362 Y120.781 E0.08059
G1 X176.787 Y121.262 E0.06465
G1 X178.186 Y121.812 E0.06465
G1 X179.558 Y122.428 E0.06465
G1 X180.898 Y123.11 E0.06465
G1 X182.203 Y123.856 E0.06465
G1 X183.471 Y124.664 E0.06465
G1 X184.698 Y125.533 E0.06465
G1 X185.882 Y126.46 E0.06465
G1 X187.011 Y127.436 E0.06417
G1 X187.629 Y128.043 E0.03723
G1 X188.228 Y128.687 E0.03781
G1 X188.797 Y129.357 E0.03781
G1 X189.335 Y130.052 E0.03781
G1 X189.842 Y130.771 E0.03781
G1 X190.315 Y131.512 E0.03781
G1 X190.759 Y132.28 E0.03813
G1 X191.36 Y133.405 E0.05485
G1 X191.647 Y134.007 E0.02867
G1 X191.869 Y134.616 E0.02788
G1 X191.946 Y134.89 E0.01223
G1 X192.08 Y135.541 E0.02857
G1 X192.117 Y135.823 E0.01223
G1 X192.155 Y136.486 E0.02857
G1 X192.151 Y136.771 E0.01223
G1 X192.094 Y137.416 E0.02788
G1 X191.974 Y138.054 E0.02788
G1 X191.902 Y138.329 E0.01223
G1 X191.686 Y138.957 E0.02857
G1 X191.351 Y139.743 E0.03675
G1 X191.896 Y141.5 E0.07907
G1 X192.217 Y142.744 E0.05524
G1 X192.477 Y144.002 E0.05524
G1 X192.676 Y145.271 E0.05524
G1 X192.813 Y146.548 E0.05524
G1 X192.888 Y147.831 E0.05524
G1 X192.901 Y149.116 E0.05524
G1 X192.852 Y150.399 E0.05524
G1 X192.74 Y151.679 E0.05524
G1 X192.566 Y152.952 E0.05524
G1 X192.33 Y154.215 E0.05524
G1 X192.034 Y155.465 E0.05524
G1 X191.677 Y156.7 E0.05524
G1 X191.261 Y157.915 E0.05524
