; generated by SuperSlicer 2.4 on 2022-10-02 at 09:34:00 UTC


;
;

;
;
; 

; external perimeters extrusion width = 0.45mm
; perimeters extrusion width = 0.45mm
; infill extrusion width = 0.45mm
; solid infill extrusion width = 0.48mm
; top infill extrusion width = 0.40mm
; support material extrusion width = 0.45mm
; first layer extrusion width = 0.38mm

; external perimeters extrusion width = 0.45mm
; perimeters extrusion width = 0.45mm
; infill extrusion width = 0.45mm
; solid infill extrusion width = 0.48mm
; top infill extrusion width = 0.40mm
; support material extrusion width = 0.45mm
; first layer extrusion width = 0.38mm

; object:{"name":"oldham_outside","id":"oldham_outside.stl id:0 copy 0","object_center":[165.000000,162.500000,0.000000],"boundingbox_center":[165.000000,162.500000,4.000000],"boundingbox_size":[22.000000,22.000000,8.000000]}
; object:{"name":"oldham_outside","id":"oldham_outside.stl id:0 copy 1","object_center":[181.500000,179.000000,0.000000],"boundingbox_center":[181.500000,179.000000,4.000000],"boundingbox_size":[22.000000,22.000000,8.000000]}
; object:{"name":"center_v2","id":"center_v2.stl id:1 copy 0","object_center":[192.526624,150.969717,0.000000],"boundingbox_center":[192.526624,150.969717,5.000000],"boundingbox_size":[22.000000,22.000000,10.000000]}
; plater:{"center":[178.763312,164.984858,0.000000],"boundingbox_center":[178.763312,164.984858,5.000000],"boundingbox_size":[49.526624,50.030283,10.000000]}

M73 P0 R15
;TYPE:Custom
; custom gcode: start_gcode
M104 S0 ; Stops PS/SS from sending temp waits separately
M140 S0
PRINT_START EXTRUDER_TEMP=215 BED_TEMP=55
; custom gcode end: start_gcode
M107
G21 ; set units to millimeters
G90 ; use absolute coordinates
M83 ; use relative distances for extrusion
; custom gcode: start_filament_gcode
; Filament gcode
;SET_GCODE_OFFSET Z=0
;SET_PRESSURE_ADVANCE ADVANCE=0.05
; custom gcode end: start_filament_gcode
;_TOOLCHANGE 0
;LAYER_CHANGE
;Z:0.24
;HEIGHT:0.24
G1 Z0.24 F36000
G92 E0
M104 S215 ; set temperature
M73 P2 R15
G1 E-0.6 F1800
; printing object oldham_outside.stl id:0 copy 0
G1 X153.902 Y153.902 F36000
G1 E0.6 F1800
;TYPE:Support material
;WIDTH:0.38
G1 F4500
G1 X160.727 Y147.077 E0.28158
G1 X161.439 Y147.789 E0.02938
G1 X162.864 Y146.365 E0.05876
G1 X163.576 Y147.077 E0.02938
G1 X164.288 Y146.365 E0.02938
G1 X165 Y147.077 E0.02938
G1 X165.712 Y146.365 E0.02938
G1 X166.424 Y147.077 E0.02938
G1 X167.136 Y146.365 E0.02938
G1 X168.561 Y147.789 E0.05876
G1 X169.273 Y147.077 E0.02938
G1 X180.423 Y158.227 E0.46002
G1 X179.711 Y158.939 E0.02938
G1 X181.018 Y160.247 E0.05392
G1 X181.135 Y160.364 E0.00483
G1 X180.423 Y161.076 E0.02938
G1 X181.135 Y161.788 E0.02938
G1 X180.423 Y162.5 E0.02938
G1 X181.135 Y163.212 E0.02938
G1 X180.423 Y163.924 E0.02938
G1 X181.135 Y164.636 E0.02938
G1 X179.711 Y166.061 E0.05876
G1 X180.423 Y166.773 E0.02938
G1 X169.273 Y177.923 E0.46002
G1 X168.561 Y177.211 E0.02938
G1 X167.136 Y178.635 E0.05876
G1 X166.424 Y177.923 E0.02938
G1 X165.712 Y178.635 E0.02938
G1 X165 Y177.923 E0.02938
G1 X164.288 Y178.635 E0.02938
G1 X163.576 Y177.923 E0.02938
G1 X162.864 Y178.635 E0.02938
G1 X161.439 Y177.211 E0.05876
G1 X160.727 Y177.923 E0.02938
G1 X149.577 Y166.773 E0.46002
G1 X150.289 Y166.061 E0.02938
G1 X148.865 Y164.636 E0.05876
G1 X149.577 Y163.924 E0.02938
G1 X148.865 Y163.212 E0.02938
G1 X149.577 Y162.5 E0.02938
G1 X148.865 Y161.788 E0.02938
G1 X149.577 Y161.076 E0.02938
G1 X148.865 Y160.364 E0.02938
G1 X148.982 Y160.247 E0.00483
G1 X150.289 Y158.939 E0.05392
G1 X149.577 Y158.227 E0.02938
G1 X153.902 Y153.902 E0.17844
G1 X170.988 Y161.483 F36000
G1 F4500
G1 X170.918 Y161.647 E0.00521
G1 X170.873 Y161.754 E0.00337
G1 X170.851 Y161.819 E0.00201
G1 X170.781 Y162.104 E0.00858
G1 X170.77 Y162.172 E0.00201
G1 X170.746 Y162.466 E0.00858
G1 X170.746 Y162.534 E0.00201
G1 X170.77 Y162.828 E0.00858
G1 X170.781 Y162.896 E0.00201
G1 X170.851 Y163.181 E0.00858
G1 X170.873 Y163.246 E0.00201
G1 X170.918 Y163.352 E0.00334
G1 X170.988 Y163.517 E0.00524
G1 X171.02 Y163.578 E0.00201
G1 X171.177 Y163.827 E0.00858
G1 X171.219 Y163.882 E0.00201
G1 X171.414 Y164.102 E0.00858
G1 X171.463 Y164.149 E0.00201
G1 X171.691 Y164.335 E0.00858
G1 X171.748 Y164.374 E0.00201
G1 X172.003 Y164.522 E0.00858
G1 X172.065 Y164.551 E0.00201
G1 X172.181 Y164.595 E0.00364
G1 X172.34 Y164.655 E0.00495
G1 X172.406 Y164.675 E0.00201
G1 X172.694 Y164.733 E0.00858
G1 X172.752 Y164.74 E0.00169
G1 X173.056 Y164.753 E0.0089
G1 X173.125 Y164.751 E0.00201
G1 X173.2 Y164.742 E0.0022
G1 X173.417 Y164.715 E0.00638
G1 X173.485 Y164.701 E0.00201
G1 X173.594 Y164.67 E0.00332
G1 X173.767 Y164.62 E0.00526
G1 X173.831 Y164.595 E0.00201
G1 X174.097 Y164.469 E0.00858
G1 X174.157 Y164.435 E0.00201
G1 X174.244 Y164.375 E0.00309
G1 X174.399 Y164.268 E0.00549
G1 X174.452 Y164.224 E0.00201
G1 X174.664 Y164.02 E0.00858
G1 X174.71 Y163.969 E0.00201
G1 X174.887 Y163.734 E0.00858
G1 X174.923 Y163.676 E0.00201
G1 X175.007 Y163.517 E0.00522
G1 X175.06 Y163.415 E0.00335
G1 X175.087 Y163.352 E0.00201
G1 X175.18 Y163.073 E0.00858
G1 X175.197 Y163.006 E0.00201
G1 X175.244 Y162.716 E0.00858
G1 X175.249 Y162.647 E0.00201
G1 X175.249 Y162.353 E0.00858
G1 X175.244 Y162.284 E0.00201
G1 X175.215 Y162.104 E0.00532
G1 X175.197 Y161.994 E0.00326
G1 X175.18 Y161.927 E0.00201
G1 X175.087 Y161.648 E0.00858
G1 X175.06 Y161.585 E0.00201
G1 X174.923 Y161.324 E0.00858
G1 X174.887 Y161.266 E0.00201
G1 X174.71 Y161.031 E0.00858
G1 X174.664 Y160.98 E0.00201
G1 X174.452 Y160.776 E0.00858
G1 X174.399 Y160.732 E0.00201
G1 X174.244 Y160.626 E0.00549
G1 X174.157 Y160.565 E0.00309
G1 X174.097 Y160.531 E0.00201
G1 X173.831 Y160.405 E0.00858
G1 X173.767 Y160.38 E0.00201
G1 X173.485 Y160.299 E0.00858
G1 X173.417 Y160.285 E0.00201
G1 X173.125 Y160.249 E0.00858
G1 X173.056 Y160.247 E0.00201
G1 X172.762 Y160.258 E0.00858
G1 X172.694 Y160.267 E0.00201
G1 X172.614 Y160.283 E0.00237
G1 X172.406 Y160.325 E0.0062
G1 X172.34 Y160.345 E0.00201
G1 X172.29 Y160.364 E0.00156
G1 X172.065 Y160.449 E0.00702
G1 X172.003 Y160.478 E0.00201
G1 X171.852 Y160.565 E0.00506
G1 X171.748 Y160.626 E0.00351
G1 X171.691 Y160.665 E0.00201
G1 X171.608 Y160.732 E0.00312
G1 X171.463 Y160.851 E0.00546
G1 X171.414 Y160.898 E0.00201
G1 X171.219 Y161.118 E0.00858
G1 X171.177 Y161.173 E0.00201
G1 X171.082 Y161.324 E0.00521
G1 X171.02 Y161.422 E0.00337
G1 X170.988 Y161.483 E0.00201
G1 X159.249 Y162.353 F36000
G1 F4500
G1 X159.244 Y162.284 E0.00201
G1 X159.197 Y161.994 E0.00858
G1 X159.18 Y161.927 E0.00201
G1 X159.144 Y161.819 E0.00333
G1 X159.087 Y161.648 E0.00525
G1 X159.06 Y161.585 E0.00201
G1 X158.923 Y161.324 E0.00858
G1 X158.887 Y161.266 E0.00201
G1 X158.71 Y161.031 E0.00858
G1 X158.664 Y160.98 E0.00201
G1 X158.452 Y160.776 E0.00858
G1 X158.399 Y160.732 E0.00201
G1 X158.301 Y160.665 E0.00348
G1 X158.157 Y160.565 E0.0051
G1 X158.097 Y160.531 E0.00201
G1 X157.831 Y160.405 E0.00858
G1 X157.767 Y160.38 E0.00201
G1 X157.485 Y160.299 E0.00858
G1 X157.417 Y160.285 E0.00201
G1 X157.125 Y160.249 E0.00858
G1 X157.056 Y160.247 E0.00201
G1 X156.762 Y160.258 E0.00858
G1 X156.694 Y160.267 E0.00201
G1 X156.606 Y160.285 E0.00264
G1 X156.406 Y160.325 E0.00594
G1 X156.34 Y160.345 E0.00201
G1 X156.065 Y160.449 E0.00858
G1 X156.003 Y160.478 E0.00201
G1 X155.748 Y160.626 E0.00858
G1 X155.691 Y160.665 E0.00201
G1 X155.463 Y160.851 E0.00858
G1 X155.414 Y160.898 E0.00201
G1 X155.219 Y161.118 E0.00858
G1 X155.177 Y161.173 E0.00201
G1 X155.02 Y161.422 E0.00858
G1 X154.988 Y161.483 E0.00201
G1 X154.945 Y161.585 E0.00323
G1 X154.873 Y161.754 E0.00535
G1 X154.851 Y161.819 E0.00201
G1 X154.781 Y162.104 E0.00858
G1 X154.77 Y162.172 E0.00201
G1 X154.746 Y162.466 E0.00858
G1 X154.746 Y162.534 E0.00201
G1 X154.755 Y162.647 E0.0033
G1 X154.77 Y162.828 E0.00528
G1 X154.781 Y162.896 E0.00201
G1 X154.851 Y163.181 E0.00858
G1 X154.873 Y163.246 E0.00201
G1 X154.918 Y163.352 E0.00334
G1 X154.988 Y163.517 E0.00524
G1 X155.02 Y163.578 E0.00201
G1 X155.119 Y163.734 E0.00538
G1 X155.177 Y163.827 E0.0032
G1 X155.219 Y163.882 E0.00201
G1 X155.414 Y164.102 E0.00858
G1 X155.463 Y164.149 E0.00201
G1 X155.555 Y164.224 E0.00345
G1 X155.691 Y164.335 E0.00513
G1 X155.748 Y164.374 E0.00201
G1 X156.003 Y164.522 E0.00858
G1 X156.065 Y164.551 E0.00201
G1 X156.34 Y164.655 E0.00858
G1 X156.406 Y164.675 E0.00201
G1 X156.694 Y164.733 E0.00858
G1 X156.752 Y164.74 E0.00169
G1 X157.056 Y164.753 E0.0089
G1 X157.125 Y164.751 E0.00201
G1 X157.2 Y164.742 E0.0022
G1 X157.417 Y164.715 E0.00638
G1 X157.485 Y164.701 E0.00201
G1 X157.767 Y164.62 E0.00858
G1 X157.831 Y164.595 E0.00201
G1 X158.097 Y164.469 E0.00858
G1 X158.157 Y164.435 E0.00201
G1 X158.399 Y164.268 E0.00858
G1 X158.452 Y164.224 E0.00201
G1 X158.664 Y164.02 E0.00858
G1 X158.71 Y163.969 E0.00201
G1 X158.887 Y163.734 E0.00858
G1 X158.923 Y163.676 E0.00201
G1 X159.06 Y163.415 E0.00858
G1 X159.087 Y163.352 E0.00201
G1 X159.18 Y163.073 E0.00858
G1 X159.197 Y163.006 E0.00201
G1 X159.244 Y162.716 E0.00858
G1 X159.249 Y162.647 E0.00201
G1 X159.249 Y162.353 E0.00858
G1 X169.032 Y177.567 F36000
G1 F4500
G1 X179.967 Y166.632 E0.4511
G1 X179.709 Y166.374 E0.01065
G1 X168.874 Y177.209 E0.44698
G1 X168.616 Y176.95 E0.01065
G1 X179.45 Y166.116 E0.44698
G1 X179.395 Y166.061 E0.00228
G1 X180.819 Y164.636 E0.05876
G1 X180.617 Y164.434 E0.00837
G1 X166.934 Y178.117 E0.5645
G1 X166.675 Y177.858 E0.01065
G1 X180.359 Y164.175 E0.5645
G1 X180.107 Y163.924 E0.01037
G1 X180.819 Y163.212 E0.02938
G1 X180.813 Y163.205 E0.00028
G1 X165.705 Y178.313 E0.62325
G1 X165.447 Y178.054 E0.01065
G1 X180.554 Y162.947 E0.62325
G1 X180.296 Y162.689 E0.01065
G1 X165.189 Y177.796 E0.62325
G1 X165 Y177.607 E0.0078
G1 X164.288 Y178.319 E0.02938
G1 X164.219 Y178.25 E0.00285
G1 X180.75 Y161.719 E0.68201
G1 X180.492 Y161.461 E0.01065
G1 X163.961 Y177.992 E0.68201
G1 X163.703 Y177.734 E0.01065
G1 X180.234 Y161.203 E0.68201
G1 X180.107 Y161.076 E0.00524
G1 X180.819 Y160.364 E0.02938
G1 X180.688 Y160.232 E0.00541
G1 X162.733 Y178.188 E0.74077
G1 X162.474 Y177.93 E0.01065
G1 X180.43 Y159.974 E0.74077
G1 X180.172 Y159.716 E0.01065
G1 X162.216 Y177.672 E0.74077
G1 X161.958 Y177.414 E0.01065
G1 X179.914 Y159.458 E0.74077
G1 X179.656 Y159.2 E0.01065
G1 X161.7 Y177.156 E0.74077
M73 P3 R15
G1 X161.442 Y176.898 E0.01065
G1 X173.397 Y164.943 E0.49321
G1 X173.227 Y164.963 E0.005
G1 X173.143 Y164.974 E0.00246
G1 X173.056 Y164.977 E0.00253
G1 X172.855 Y164.969 E0.00589
G1 X160.472 Y177.352 E0.51086
G1 X160.214 Y177.094 E0.01065
G1 X172.405 Y164.902 E0.50296
G1 X172.352 Y164.892 E0.00157
G1 X172.269 Y164.867 E0.00253
G1 X172.102 Y164.804 E0.00521
G1 X172.019 Y164.772 E0.0026
G1 X159.956 Y176.836 E0.49767
G1 X159.698 Y176.577 E0.01065
G1 X171.681 Y164.594 E0.49439
G1 X171.628 Y164.563 E0.00178
G1 X171.557 Y164.514 E0.00253
G1 X171.385 Y164.374 E0.00647
G1 X159.439 Y176.319 E0.49282
G1 X159.181 Y176.061 E0.01065
G1 X171.127 Y164.115 E0.49284
G1 X171.046 Y164.023 E0.0036
G1 X170.993 Y163.953 E0.00253
G1 X170.908 Y163.818 E0.00466
G1 X158.923 Y175.803 E0.49443
G1 X158.665 Y175.545 E0.01065
G1 X170.73 Y163.48 E0.49773
G1 X170.712 Y163.439 E0.0013
G1 X170.664 Y163.326 E0.0036
G1 X170.636 Y163.243 E0.00253
G1 X170.6 Y163.094 E0.00447
G1 X158.407 Y175.287 E0.50301
G1 X158.149 Y175.029 E0.01065
G1 X170.531 Y162.647 E0.51082
G1 X170.523 Y162.543 E0.00303
G1 X170.523 Y162.457 E0.00253
G1 X170.548 Y162.145 E0.0091
G1 X170.554 Y162.108 E0.00111
G1 X157.891 Y174.771 E0.52241
G1 X157.633 Y174.513 E0.01065
G1 X177.013 Y155.133 E0.79952
G1 X177.271 Y155.391 E0.01065
G1 X172.605 Y160.057 E0.1925
G1 X172.658 Y160.046 E0.00159
G1 X172.744 Y160.036 E0.00253
G1 X173.056 Y160.023 E0.00911
G1 X173.151 Y160.027 E0.00275
G1 X177.529 Y155.649 E0.18063
G1 X177.787 Y155.907 E0.01065
G1 X173.596 Y160.098 E0.17291
G1 X173.838 Y160.168 E0.00735
G1 X173.919 Y160.199 E0.00253
G1 X173.982 Y160.229 E0.00202
G1 X178.045 Y156.165 E0.16764
G1 X178.303 Y156.423 E0.01065
G1 X174.32 Y160.407 E0.16433
G1 X174.371 Y160.442 E0.00181
G1 X174.533 Y160.554 E0.00575
G1 X174.618 Y160.625 E0.00323
G1 X178.561 Y156.681 E0.1627
G1 X178.819 Y156.939 E0.01065
G1 X174.877 Y160.882 E0.16266
G1 X175.071 Y161.139 E0.00939
G1 X175.096 Y161.179 E0.00138
G1 X179.078 Y157.198 E0.16426
G1 X179.336 Y157.456 E0.01065
G1 X175.274 Y161.517 E0.16756
G1 X175.296 Y161.569 E0.00164
G1 X175.395 Y161.865 E0.0091
G1 X175.404 Y161.903 E0.00115
G1 X179.594 Y157.714 E0.17283
G1 X179.852 Y157.972 E0.01065
G1 X175.473 Y162.351 E0.18066
G1 X175.473 Y162.656 E0.0089
G1 X175.466 Y162.743 E0.00253
G1 X175.44 Y162.9 E0.00464
G1 X180.21 Y158.13 E0.19677
G1 E-0.6 F1800
G1 X157.275 Y174.355 F36000
G1 E0.6 F1800
G1 F4500
G1 X176.755 Y154.875 E0.80365
G1 X176.497 Y154.617 E0.01065
G1 X157.117 Y173.997 E0.79952
G1 X156.859 Y173.738 E0.01065
G1 X176.239 Y154.359 E0.79952
G1 X175.98 Y154.1 E0.01065
G1 X156.6 Y173.48 E0.79952
M73 P3 R14
G1 X156.342 Y173.222 E0.01065
G1 X175.722 Y153.842 E0.79952
G1 X175.464 Y153.584 E0.01065
G1 X156.084 Y172.964 E0.79952
G1 X155.826 Y172.706 E0.01065
G1 X175.206 Y153.326 E0.79952
G1 X174.948 Y153.068 E0.01065
G1 X155.568 Y172.448 E0.79952
G1 X155.31 Y172.19 E0.01065
G1 X174.69 Y152.81 E0.79952
G1 X174.432 Y152.552 E0.01065
G1 X155.052 Y171.932 E0.79952
G1 X154.794 Y171.674 E0.01065
G1 X174.174 Y152.294 E0.79952
G1 X173.916 Y152.036 E0.01065
G1 X154.536 Y171.416 E0.79952
M73 P4 R14
G1 X154.278 Y171.158 E0.01065
G1 X173.658 Y151.778 E0.79952
G1 X173.4 Y151.52 E0.01065
G1 X154.02 Y170.899 E0.79952
G1 X153.762 Y170.641 E0.01065
G1 X173.141 Y151.261 E0.79952
G1 X172.883 Y151.003 E0.01065
G1 X153.503 Y170.383 E0.79952
G1 X153.245 Y170.125 E0.01065
G1 X172.625 Y150.745 E0.79952
G1 X172.367 Y150.487 E0.01065
G1 X152.987 Y169.867 E0.79952
G1 X152.729 Y169.609 E0.01065
G1 X157.395 Y164.943 E0.1925
G1 X157.227 Y164.963 E0.00495
G1 X157.143 Y164.974 E0.00246
G1 X157.056 Y164.977 E0.00253
G1 X156.853 Y164.969 E0.00593
G1 X152.471 Y169.351 E0.18079
G1 X152.213 Y169.093 E0.01065
G1 X156.404 Y164.902 E0.17289
G1 X156.352 Y164.892 E0.00153
G1 X156.269 Y164.867 E0.00253
G1 X156.018 Y164.772 E0.00785
G1 X151.955 Y168.835 E0.16761
G1 X151.697 Y168.577 E0.01065
G1 X155.68 Y164.593 E0.16434
G1 X155.628 Y164.563 E0.00174
G1 X155.557 Y164.514 E0.00253
G1 X155.414 Y164.397 E0.00539
G1 X155.384 Y164.373 E0.00111
G1 X151.439 Y168.319 E0.16277
G1 X151.181 Y168.061 E0.01065
G1 X155.127 Y164.114 E0.1628
G1 X155.046 Y164.023 E0.00357
G1 X154.993 Y163.954 E0.00253
G1 X154.93 Y163.853 E0.00346
G1 X154.907 Y163.817 E0.00123
G1 X150.923 Y167.802 E0.1644
G1 X150.664 Y167.544 E0.01065
G1 X154.729 Y163.479 E0.1677
G1 X154.712 Y163.439 E0.00127
G1 X154.664 Y163.326 E0.0036
G1 X154.636 Y163.243 E0.00253
G1 X154.599 Y163.093 E0.00451
G1 X150.406 Y167.286 E0.17299
G1 X150.148 Y167.028 E0.01065
G1 X154.531 Y162.645 E0.18081
G1 X154.523 Y162.543 E0.00299
G1 X154.523 Y162.457 E0.00253
G1 X154.548 Y162.145 E0.0091
G1 X154.554 Y162.106 E0.00117
G1 X150.602 Y166.058 E0.16304
G1 X150.344 Y165.8 E0.01065
G1 X168.3 Y147.844 E0.74077
G1 X168.042 Y147.586 E0.01065
G1 X150.086 Y165.542 E0.74077
G1 X149.828 Y165.284 E0.01065
G1 X167.784 Y147.328 E0.74077
G1 X167.526 Y147.07 E0.01065
G1 X149.57 Y165.026 E0.74077
G1 X149.312 Y164.767 E0.01065
G1 X167.268 Y146.812 E0.74077
G1 X167.136 Y146.681 E0.00541
G1 X166.424 Y147.393 E0.02938
G1 X166.297 Y147.266 E0.00524
G1 X149.766 Y163.797 E0.68201
G1 X149.508 Y163.539 E0.01065
G1 X166.039 Y147.008 E0.68201
G1 X165.781 Y146.75 E0.01065
G1 X149.25 Y163.281 E0.68201
G1 X149.181 Y163.212 E0.00285
G1 X149.893 Y162.5 E0.02938
G1 X149.704 Y162.311 E0.0078
G1 X164.811 Y147.204 E0.62325
G1 X164.553 Y146.946 E0.01065
G1 X149.446 Y162.053 E0.62325
G1 X149.187 Y161.795 E0.01065
G1 X164.295 Y146.687 E0.62325
G1 X164.288 Y146.681 E0.00028
G1 X163.576 Y147.393 E0.02938
G1 X163.325 Y147.141 E0.01036
G1 X149.642 Y160.825 E0.5645
G1 X149.383 Y160.566 E0.01065
G1 X163.066 Y146.883 E0.5645
G1 X162.864 Y146.681 E0.00837
G1 X161.439 Y148.105 E0.05876
G1 X161.384 Y148.05 E0.00228
G1 X150.55 Y158.884 E0.44698
G1 X150.291 Y158.626 E0.01065
G1 X161.126 Y147.791 E0.44698
G1 X160.868 Y147.533 E0.01065
