; generated by SuperSlicer 2.4 on 2022-09-13 at 07:23:14 UTC


;
;

;
;
; 

; external perimeters extrusion width = 0.45mm
; perimeters extrusion width = 0.45mm
; infill extrusion width = 0.45mm
; solid infill extrusion width = 0.48mm
; top infill extrusion width = 0.42mm
; support material extrusion width = 0.45mm
; first layer extrusion width = 0.38mm

; object:{"name":"Orbiter v2","id":"Orbiter v2.0 SensorHousing.stl id:0 copy 0","object_center":[164.089033,161.069497,0.000000],"boundingbox_center":[164.089033,161.069497,24.236718],"boundingbox_size":[44.679523,31.452825,48.473436]}
; plater:{"center":[164.089033,161.069497,0.000000],"boundingbox_center":[164.089033,161.069497,24.236718],"boundingbox_size":[44.679523,31.452825,48.473436]}

M73 P0 R31
;TYPE:Custom
; custom gcode: start_gcode
M104 S0 ; Stops PS/SS from sending temp waits separately
M140 S0
PRINT_START EXTRUDER_TEMP=240 BED_TEMP=65
; custom gcode end: start_gcode
M107
G21 ; set units to millimeters
G90 ; use absolute coordinates
M83 ; use relative distances for extrusion
; custom gcode: start_filament_gcode
; Filament gcode
;SET_GCODE_OFFSET Z=0
;SET_PRESSURE_ADVANCE ADVANCE=0.05
; custom gcode end: start_filament_gcode
;_TOOLCHANGE 0
;LAYER_CHANGE
;Z:0.24
;HEIGHT:0.24
G1 E-1.2 F1800
M73 P1 R31
G1 Z0.24 F30000
G92 E0
M104 S240 ; set temperature
; printing object Orbiter v2.0 SensorHousing.stl id:0 copy 0
G1 X167.992 Y168.029
G1 E1.2 F1800
;TYPE:Support material
;WIDTH:0.38
G1 X168.047 Y167.976 E0.00237
G1 X168.187 Y167.843 E0.00593
G1 X168.397 Y167.675 E0.0083
G1 X168.61 Y167.532 E0.0079
G1 X168.834 Y167.419 E0.00772
G1 X169.058 Y167.306 E0.00775
G1 X169.3 Y167.217 E0.00793
G1 X169.56 Y167.147 E0.0083
G1 X169.82 Y167.1 E0.00815
G1 X169.943 Y167.09 E0.00381
G1 X170.146 Y167.074 E0.00625
G1 X170.394 Y167.086 E0.00767
G1 X170.644 Y167.097 E0.00771
G1 X170.897 Y167.14 E0.00789
G1 X171.157 Y167.208 E0.0083
G1 X171.263 Y167.245 E0.00345
G1 X171.411 Y167.297 E0.00485
G1 X171.657 Y167.409 E0.0083
G1 X171.675 Y167.419 E0.00065
G1 X171.891 Y167.541 E0.00765
G1 X172.103 Y167.686 E0.0079
G1 X172.291 Y167.851 E0.00772
G1 X172.481 Y168.016 E0.00775
G1 X172.653 Y168.208 E0.00793
G1 X172.671 Y168.231 E0.00089
G1 X172.816 Y168.423 E0.00741
G1 X172.956 Y168.647 E0.00816
G1 X173.102 Y168.939 E0.01005
G1 X173.184 Y169.173 E0.00766
G1 X173.267 Y169.409 E0.00771
G1 X173.272 Y169.431 E0.00068
G1 X173.322 Y169.66 E0.00721
G1 X173.357 Y169.927 E0.0083
G1 X173.368 Y170.196 E0.0083
G1 X173.357 Y170.465 E0.0083
G1 X173.322 Y170.732 E0.0083
G1 X173.264 Y170.995 E0.0083
G1 X173.184 Y171.252 E0.0083
G1 X173.082 Y171.502 E0.0083
G1 X172.965 Y171.73 E0.00791
G1 X172.824 Y171.938 E0.00773
G1 X172.683 Y172.146 E0.00774
G1 X172.515 Y172.341 E0.00792
G1 X172.388 Y172.465 E0.00548
G1 X172.322 Y172.529 E0.00282
G1 X172.201 Y172.627 E0.00481
G1 X172.114 Y172.699 E0.00349
G1 X171.896 Y172.848 E0.00813
G1 X171.609 Y173.004 E0.01007
G1 X171.376 Y173.096 E0.00771
G1 X171.144 Y173.188 E0.00769
G1 X170.897 Y173.252 E0.00787
G1 X170.631 Y173.297 E0.0083
G1 X170.363 Y173.319 E0.0083
G1 X170.093 Y173.317 E0.0083
G1 X169.825 Y173.293 E0.0083
G1 X169.572 Y173.247 E0.00791
G1 X169.332 Y173.174 E0.00773
G1 X169.092 Y173.1 E0.00774
G1 X168.857 Y172.996 E0.00792
G1 X168.621 Y172.867 E0.0083
G1 X168.401 Y172.72 E0.00813
G1 X168.149 Y172.512 E0.01007
G1 X167.977 Y172.331 E0.0077
G1 X167.805 Y172.15 E0.00769
G1 X167.653 Y171.944 E0.00788
G1 X167.577 Y171.82 E0.00451
G1 X167.512 Y171.715 E0.00379
G1 X167.392 Y171.474 E0.0083
G1 X167.292 Y171.224 E0.0083
G1 X167.215 Y170.966 E0.0083
G1 X167.162 Y170.714 E0.00791
G1 X167.141 Y170.465 E0.00773
G1 X167.119 Y170.214 E0.00774
G1 X167.128 Y169.957 E0.00792
G1 X167.131 Y169.927 E0.00094
G1 X167.16 Y169.69 E0.00736
G1 X167.214 Y169.431 E0.00814
G1 X167.312 Y169.12 E0.01006
G1 X167.415 Y168.893 E0.00769
G1 X167.519 Y168.665 E0.0077
G1 X167.531 Y168.647 E0.00067
G1 X167.653 Y168.447 E0.00721
G1 X167.813 Y168.231 E0.0083
G1 X167.992 Y168.029 E0.0083
G1 X171.167 Y173.09 F30000
G1 F1800
G1 X172.9 Y171.358 E0.0755
G1 X172.974 Y171.177 E0.00603
G1 X173.048 Y170.938 E0.0077
G1 X173.102 Y170.694 E0.00771
G1 X173.11 Y170.631 E0.00194
G1 X170.679 Y173.062 E0.10591
G1 X170.603 Y173.075 E0.00236
G1 X170.354 Y173.095 E0.0077
G1 X170.131 Y173.094 E0.00688
G1 X173.14 Y170.085 E0.13111
G1 X173.134 Y169.946 E0.00429
G1 X173.102 Y169.698 E0.00771
G1 X173.085 Y169.624 E0.00235
G1 X169.671 Y173.038 E0.14877
G1 X169.625 Y173.03 E0.00144
G1 X169.398 Y172.96 E0.00732
G1 X169.271 Y172.921 E0.00407
G1 X172.966 Y169.226 E0.161
G1 X172.896 Y169.026 E0.00655
G1 X172.814 Y168.862 E0.00563
G1 X168.907 Y172.769 E0.17024
G1 X168.737 Y172.675 E0.00599
G1 X168.586 Y172.575 E0.0056
G1 X172.623 Y168.538 E0.1759
G1 X172.492 Y168.365 E0.00665
G1 X172.481 Y168.35 E0.00059
G1 X172.392 Y168.252 E0.00408
G1 X168.299 Y172.345 E0.17837
G1 X168.139 Y172.177 E0.00714
G1 X168.047 Y172.081 E0.00411
G1 X172.126 Y168.002 E0.17771
G1 X171.966 Y167.862 E0.00654
G1 X171.837 Y167.774 E0.00481
G1 X167.821 Y171.791 E0.175
G1 X167.767 Y171.703 E0.00317
G1 X167.708 Y171.606 E0.0035
G1 X167.635 Y171.461 E0.00502
G1 X171.509 Y167.587 E0.1688
G1 X171.328 Y167.505 E0.00612
G1 X171.188 Y167.455 E0.00456
G1 X171.141 Y167.439 E0.00156
G1 X167.486 Y171.093 E0.15924
G1 X167.431 Y170.911 E0.00587
G1 X167.383 Y170.68 E0.00728
G1 X170.725 Y167.338 E0.14562
G1 X170.62 Y167.32 E0.00328
G1 X170.384 Y167.309 E0.00729
G1 X170.244 Y167.303 E0.00432
G1 X167.343 Y170.204 E0.12641
G1 X167.351 Y169.974 E0.00708
G1 X167.353 Y169.953 E0.00064
G1 X167.38 Y169.726 E0.00706
G1 X167.4 Y169.63 E0.003
G1 X169.678 Y167.353 E0.09925
G1 X169.609 Y167.365 E0.00216
G1 X169.368 Y167.43 E0.0077
G1 X169.147 Y167.511 E0.00722
G1 X168.935 Y167.618 E0.00734
G1 X168.856 Y167.658 E0.00271
G1 X167.408 Y169.107 E0.06311
;WIPE_START
G1 F24000
G1 X168.856 Y167.658 E-0.14595
G1 X168.935 Y167.618 E-0.00626
G1 X169.147 Y167.511 E-0.01698
G1 X169.368 Y167.43 E-0.01671
G1 X169.609 Y167.365 E-0.01782
G1 X169.678 Y167.353 E-0.005
G1 X167.4 Y169.63 E-0.22951
G1 X167.38 Y169.726 E-0.00694
G1 X167.353 Y169.953 E-0.01633
G1 X167.351 Y169.974 E-0.00149
G1 X167.343 Y170.204 E-0.01637
G1 X170.244 Y167.303 E-0.29232
G1 X170.384 Y167.309 E-0.00998
G1 X170.62 Y167.32 E-0.01685
G1 X170.725 Y167.338 E-0.00759
G1 X167.412 Y170.651 E-0.33391
;WIPE_END
G1 E-0.06 F1800
G1 X177.064 Y160.983 F30000
G1 E1.2 F1800
G1 X177.064 Y160.866 E0.00361
G1 X177.064 Y160.375 E0.01513
G1 X177.064 Y159.884 E0.01513
G1 X177.064 Y159.393 E0.01513
G1 X177.063 Y158.902 E0.01513
G1 X177.063 Y158.411 E0.01513
G1 X177.063 Y157.92 E0.01513
G1 X177.062 Y157.429 E0.01513
G1 X177.062 Y156.938 E0.01513
G1 X177.062 Y156.447 E0.01513
G1 X177.062 Y155.956 E0.01513
G1 X177.061 Y155.465 E0.01513
G1 X177.061 Y154.974 E0.01513
G1 X177.061 Y154.483 E0.01513
G1 X177.061 Y153.992 E0.01513
G1 X177.06 Y153.501 E0.01513
G1 X177.06 Y153.01 E0.01513
G1 X177.06 Y152.519 E0.01513
G1 X177.06 Y152.028 E0.01513
G1 X177.059 Y151.537 E0.01513
G1 X177.059 Y151.046 E0.01513
G1 X177.059 Y150.555 E0.01513
G1 X177.058 Y150.064 E0.01513
G1 X177.058 Y149.573 E0.01513
G1 X177.058 Y149.082 E0.01513
G1 X177.058 Y148.591 E0.01513
G1 X177.057 Y148.068 E0.01611
G1 X177.049 Y147.985 E0.00258
G1 X176.944 Y147.455 E0.01666
G1 X176.927 Y147.394 E0.00194
G1 X176.829 Y147.12 E0.00896
G1 X176.803 Y147.063 E0.00194
G1 X176.549 Y146.586 E0.01666
G1 X176.502 Y146.516 E0.00259
G1 X176.154 Y146.092 E0.01691
G1 X176.094 Y146.032 E0.00259
G1 X175.676 Y145.689 E0.01666
G1 X175.547 Y145.584 E0.00514
G1 X178.331 Y142.798 E0.12134
G1 X183.785 Y148.251 E0.23764
G1 X183.073 Y148.964 E0.03103
G1 X183.785 Y149.676 E0.03103
G1 X183.073 Y150.388 E0.03103
G1 X183.785 Y151.1 E0.03103
G1 X183.073 Y151.812 E0.03103
G1 X183.785 Y152.524 E0.03103
G1 X183.073 Y153.236 E0.03103
G1 X183.785 Y153.948 E0.03103
G1 X183.073 Y154.66 E0.03103
G1 X183.785 Y155.373 E0.03103
G1 X177.619 Y161.538 E0.26866
G1 X177.064 Y160.983 E0.02417
G1 X177.388 Y161.191 F30000
G1 F1800
G1 X183.338 Y155.241 E0.25925
G1 X183.08 Y154.983 E0.01125
G1 X177.288 Y160.775 E0.25238
G1 X177.287 Y160.375 E0.01233
G1 X177.287 Y160.26 E0.00357
G1 X182.822 Y154.725 E0.24114
G1 X182.757 Y154.66 E0.00282
G1 X183.469 Y153.948 E0.03103
G1 X183.276 Y153.755 E0.00842
G1 X177.287 Y159.744 E0.26094
G1 X177.287 Y159.393 E0.01079
G1 X177.287 Y159.228 E0.0051
G1 X183.018 Y153.497 E0.24971
G1 X182.759 Y153.239 E0.01125
G1 X177.287 Y158.712 E0.23847
G1 X177.286 Y158.196 E0.0159
G1 X183.213 Y152.269 E0.25827
G1 X182.955 Y152.011 E0.01125
G1 X177.286 Y157.68 E0.24703
G1 X177.286 Y157.429 E0.00772
G1 X177.286 Y157.164 E0.00817
G1 X183.409 Y151.04 E0.26683
G1 X183.151 Y150.782 E0.01125
G1 X177.285 Y156.648 E0.2556
G1 X177.285 Y156.447 E0.00619
G1 X177.285 Y156.132 E0.00971
G1 X182.893 Y150.524 E0.24436
G1 X182.757 Y150.388 E0.00594
G1 X183.469 Y149.676 E0.03103
G1 X183.347 Y149.554 E0.0053
G1 X177.285 Y155.616 E0.26416
G1 X177.285 Y155.465 E0.00466
G1 X177.285 Y155.1 E0.01124
G1 X183.089 Y149.296 E0.25292
G1 X182.831 Y149.038 E0.01125
G1 X177.284 Y154.585 E0.24169
G1 X177.284 Y154.483 E0.00312
G1 X177.284 Y154.069 E0.01277
G1 X183.285 Y148.068 E0.26149
G1 X183.027 Y147.81 E0.01125
G1 X177.284 Y153.553 E0.25025
G1 X177.284 Y153.501 E0.00159
G1 X177.283 Y153.037 E0.01431
G1 X182.769 Y147.551 E0.23902
G1 X182.511 Y147.293 E0.01125
G1 X177.283 Y152.521 E0.22778
G1 X177.283 Y152.028 E0.01518
G1 X177.283 Y152.005 E0.00072
G1 X182.253 Y147.035 E0.21655
G1 X181.995 Y146.777 E0.01125
G1 X177.283 Y151.489 E0.20532
G1 X177.282 Y151.046 E0.01365
G1 X177.282 Y150.973 E0.00225
G1 X181.737 Y146.519 E0.19408
G1 X181.478 Y146.261 E0.01125
G1 X177.282 Y150.457 E0.18285
G1 X177.282 Y149.941 E0.0159
G1 X181.22 Y146.003 E0.17162
G1 X180.962 Y145.745 E0.01125
G1 X177.282 Y149.426 E0.16038
G1 X177.281 Y149.082 E0.01058
G1 X177.281 Y148.91 E0.00532
G1 X180.704 Y145.487 E0.14915
G1 X180.446 Y145.229 E0.01125
G1 X177.281 Y148.394 E0.13791
G1 X177.281 Y148.057 E0.01037
G1 X177.27 Y147.952 E0.00325
G1 X177.26 Y147.899 E0.00168
G1 X180.188 Y144.971 E0.12759
G1 X179.93 Y144.712 E0.01125
G1 X177.174 Y147.468 E0.12008
G1 X177.161 Y147.403 E0.00205
G1 X177.14 Y147.327 E0.00245
G1 X177.05 Y147.076 E0.0082
G1 X179.672 Y144.454 E0.11423
G1 X179.414 Y144.196 E0.01125
G1 X176.879 Y146.731 E0.11044
G1 X176.74 Y146.471 E0.00908
G1 X176.693 Y146.4 E0.00261
G1 X179.156 Y143.938 E0.10729
G1 X178.898 Y143.68 E0.01125
G1 X176.462 Y146.116 E0.10612
G1 X176.319 Y145.942 E0.00693
G1 X176.245 Y145.867 E0.00326
G1 X176.217 Y145.844 E0.00109
G1 X178.639 Y143.422 E0.10555
G1 X178.381 Y143.164 E0.01125
G1 X175.833 Y145.712 E0.11103
;WIPE_START
G1 F24000
G1 X178.381 Y143.164 E-0.25675
G1 X178.639 Y143.422 E-0.02601
G1 X176.217 Y145.844 E-0.24408
G1 X176.245 Y145.867 E-0.00253
G1 X176.319 Y145.942 E-0.00754
G1 X176.462 Y146.116 E-0.01602
G1 X178.898 Y143.68 E-0.2454
G1 X179.156 Y143.938 E-0.02601
G1 X176.693 Y146.4 E-0.24811
G1 X176.74 Y146.471 E-0.00603
G1 X176.879 Y146.731 E-0.02099
G1 X177.281 Y146.329 E-0.04052
;WIPE_END
G1 E-0.06 F1800
G1 X168.212 Y156.514 F30000
G1 E1.2 F1800
;TYPE:External perimeter
G1 X168.037 Y156.628 E0.00646
G1 X167.871 Y156.834 E0.00815
G1 X167.824 Y156.976 E0.00461
G1 X167.832 Y156.55 E0.01315
G1 X167.817 Y156.481 E0.00215
G1 X168.299 Y156.481 E0.01484
G1 X168.212 Y156.514 E0.00286
;WIPE_START
G1 X167.87 Y156.307 F30000
;WIPE_END
G1 X168.852 Y156.358
G1 F1800
G1 X168.884 Y156.224 E0.00425
G1 X168.956 Y156.159 E0.00297
G1 X169.222 Y156.212 E0.00837
G1 X169.241 Y156.254 E0.00141
G1 X169.21 Y156.296 E0.00163
G1 X168.852 Y156.358 E0.0112
;WIPE_START
G1 X169.086 Y156.034 F30000
;WIPE_END
;WIPE_START
G1 F24000
G1 X168.884 Y156.224 E-0.01975
G1 X168.956 Y156.159 E-0.00687
G1 X169.222 Y156.212 E-0.01935
G1 X169.241 Y156.254 E-0.00327
G1 X169.21 Y156.296 E-0.00377
G1 X168.852 Y156.358 E-0.02589
;WIPE_END
G1 E-1.12111 F1800
G1 X169.644 Y165.737 F30000
G1 E1.2 F1800
;TYPE:Internal perimeter
G1 X169.259 Y165.806 E0.01207
G1 X168.884 Y165.908 E0.01195
G1 X168.511 Y166.044 E0.01225
G1 X167.917 Y166.345 E0.02051
G1 X167.585 Y166.566 E0.01227
G1 X167.283 Y166.808 E0.01195
G1 X167.002 Y167.076 E0.01195
G1 X166.745 Y167.367 E0.01195
G1 X166.514 Y167.679 E0.01195
G1 X166.305 Y168.019 E0.01229
G1 X166.028 Y168.626 E0.02058
M73 P1 R30
G1 X165.884 Y169.084 E0.01478
G1 X165.804 Y169.468 E0.01208
G1 X165.758 Y169.853 E0.01195
G1 X165.745 Y170.251 E0.01226
G1 X165.802 Y170.914 E0.02051
G1 X165.883 Y171.304 E0.01227
G1 X165.994 Y171.675 E0.01195
G1 X166.138 Y172.036 E0.01195
G1 X166.311 Y172.383 E0.01195
G1 X166.514 Y172.713 E0.01195
G1 X166.752 Y173.034 E0.0123
G1 X167.212 Y173.518 E0.02058
G1 X167.582 Y173.823 E0.01478
G1 X167.908 Y174.041 E0.01209
G1 X168.248 Y174.228 E0.01195
G1 X168.612 Y174.389 E0.01226
G1 X169.249 Y174.584 E0.02051
G1 X169.641 Y174.654 E0.01226
G1 X170.027 Y174.69 E0.01195
G1 X170.415 Y174.692 E0.01195
G1 X170.801 Y174.66 E0.01195
G1 X171.184 Y174.596 E0.01195
G1 X171.57 Y174.495 E0.0123
G1 X172.191 Y174.25 E0.02057
G1 X172.613 Y174.021 E0.01478
G1 X172.937 Y173.799 E0.01209
G1 X173.237 Y173.554 E0.01195
G1 X173.515 Y173.283 E0.01195
G1 X173.775 Y172.982 E0.01226
G1 X174.148 Y172.431 E0.02051
G1 X174.33 Y172.076 E0.01227
G1 X174.477 Y171.717 E0.01195
G1 X174.592 Y171.347 E0.01195
G1 X174.675 Y170.968 E0.01195
G1 X174.725 Y170.583 E0.01195
G1 X174.742 Y170.196 E0.01195
G1 X174.725 Y169.808 E0.01195
G1 X174.675 Y169.424 E0.01195
G1 X174.59 Y169.034 E0.01228
G1 X174.369 Y168.403 E0.0206
G1 X174.155 Y167.974 E0.01479
G1 X173.946 Y167.642 E0.01207
G1 X173.712 Y167.333 E0.01195
G1 X173.446 Y167.037 E0.01225
G1 X172.946 Y166.599 E0.02051
G1 X172.616 Y166.374 E0.01228
G1 X172.278 Y166.184 E0.01195
G1 X171.925 Y166.023 E0.01195
G1 X171.559 Y165.894 E0.01195
G1 X171.184 Y165.796 E0.01195
G1 X170.791 Y165.73 E0.01229
G1 X170.123 Y165.699 E0.02059
G1 X169.644 Y165.737 E0.01479
G1 X169.687 Y166.063 F30000
;TYPE:External perimeter
G1 F1800
G1 X169.331 Y166.127 E0.01113
G1 X168.984 Y166.221 E0.01108
G1 X168.642 Y166.346 E0.01122
G1 X168.083 Y166.629 E0.01931
G1 X167.78 Y166.831 E0.01123
G1 X167.499 Y167.056 E0.01108
G1 X167.239 Y167.304 E0.01108
G1 X167.001 Y167.573 E0.01108
G1 X166.787 Y167.863 E0.01108
G1 X166.596 Y168.173 E0.01124
G1 X166.335 Y168.744 E0.01934
G1 X166.202 Y169.167 E0.01365
G1 X166.128 Y169.521 E0.01114
G1 X166.086 Y169.878 E0.01108
G1 X166.074 Y170.242 E0.01122
G1 X166.127 Y170.866 E0.01931
G1 X166.202 Y171.223 E0.01123
G1 X166.305 Y171.567 E0.01108
G1 X166.438 Y171.901 E0.01108
G1 X166.599 Y172.223 E0.01108
G1 X166.787 Y172.529 E0.01108
G1 X167.004 Y172.823 E0.01124
G1 X167.436 Y173.278 E0.01934
G1 X167.778 Y173.559 E0.01365
G1 X168.079 Y173.76 E0.01114
G1 X168.394 Y173.933 E0.01108
G1 X168.727 Y174.08 E0.01122
G1 X169.326 Y174.264 E0.01931
G1 X169.685 Y174.328 E0.01122
G1 X170.043 Y174.361 E0.01108
G1 X170.402 Y174.363 E0.01108
G1 X170.761 Y174.334 E0.01108
G1 X171.115 Y174.274 E0.01108
G1 X171.468 Y174.182 E0.01124
G1 X172.052 Y173.951 E0.01933
G1 X172.441 Y173.74 E0.01365
G1 X172.74 Y173.536 E0.01114
G1 X173.018 Y173.308 E0.01108
G1 X173.276 Y173.058 E0.01108
G1 X173.514 Y172.782 E0.01122
G1 X173.865 Y172.263 E0.01931
G1 X174.031 Y171.939 E0.01122
G1 X174.168 Y171.606 E0.01108
G1 X174.274 Y171.263 E0.01108
G1 X174.351 Y170.912 E0.01108
G1 X174.398 Y170.555 E0.01108
G1 X174.413 Y170.196 E0.01108
G1 X174.398 Y169.837 E0.01108
G1 X174.351 Y169.48 E0.01108
G1 X174.273 Y169.124 E0.01123
G1 X174.066 Y168.531 E0.01935
G1 X173.868 Y168.135 E0.01366
G1 X173.676 Y167.829 E0.01113
G1 X173.459 Y167.542 E0.01108
G1 X173.215 Y167.272 E0.01122
G1 X172.744 Y166.859 E0.01931
G1 X172.443 Y166.653 E0.01123
G1 X172.13 Y166.477 E0.01108
G1 X171.802 Y166.328 E0.01108
G1 X171.463 Y166.208 E0.01108
G1 X171.115 Y166.118 E0.01108
G1 X170.756 Y166.057 E0.01124
G1 X170.128 Y166.028 E0.01934
G1 X169.687 Y166.063 E0.01366
;WIPE_START
G1 X169.439 Y165.749 F30000
;WIPE_END
;WIPE_START
G1 F24000
G1 X168.923 Y166.03 E-0.04182
G1 X168.562 Y166.162 E-0.0274
G1 X167.982 Y166.456 E-0.04635
G1 X167.661 Y166.67 E-0.02744
G1 X167.367 Y166.905 E-0.02685
