; generated by SuperSlicer 2.4 on 2022-10-25 at 21:15:29 UTC


;
;

;
;
; 

; external perimeters extrusion width = 0.45mm
; perimeters extrusion width = 0.45mm
; infill extrusion width = 0.45mm
; solid infill extrusion width = 0.48mm
; top infill extrusion width = 0.42mm
; first layer extrusion width = 0.38mm

; object:{"name":"przerobiony_front_uniw","id":"przerobiony_front_uniw.stl id:0 copy 0","object_center":[165.000000,162.500000,0.000000],"boundingbox_center":[165.000000,162.500000,4.000000],"boundingbox_size":[44.100006,57.000000,8.000000]}
; plater:{"center":[165.000000,162.500000,0.000000],"boundingbox_center":[165.000000,162.500000,4.000000],"boundingbox_size":[44.100006,57.000000,8.000000]}

M73 P0 R35
;TYPE:Custom
; custom gcode: start_gcode
M104 S0 ; Stops PS/SS from sending temp waits separately
M140 S0
PRINT_START EXTRUDER_TEMP=240 BED_TEMP=68
; custom gcode end: start_gcode
M107
G21 ; set units to millimeters
G90 ; use absolute coordinates
M83 ; use relative distances for extrusion
; custom gcode: start_filament_gcode
; Filament gcode
;SET_GCODE_OFFSET Z=0
;SET_PRESSURE_ADVANCE ADVANCE=0.05
; custom gcode end: start_filament_gcode
;_TOOLCHANGE 0
;LAYER_CHANGE
;Z:0.2
;HEIGHT:0.2
G1 E-1.2 F1800
G1 Z0.2 F30000
G92 E0
M104 S240 ; set temperature
; printing object przerobiony_front_uniw.stl id:0 copy 0
G1 X158.426 Y156.648
G1 E1.2 F1800
;TYPE:Internal perimeter
;WIDTH:0.38
G1 F1500
G1 X158.677 Y156.584 E0.00684
G1 X159.077 Y157.3 E0.02161
G1 X158.67 Y158.03 E0.02203
G1 X158.417 Y157.963 E0.00689
G1 X158.426 Y156.648 E0.03465
;WIPE_START
G1 F24000
G1 X158.677 Y156.584 E-0.0185
G1 X159.077 Y157.3 E-0.05845
G1 X158.67 Y158.03 E-0.05957
G1 X158.417 Y157.963 E-0.01863
G1 X158.426 Y156.648 E-0.0937
;WIPE_END
G1 E-0.95115 F1800
G1 X171.324 Y153.018 F30000
G1 E1.2 F1800
G1 F1500
G1 X170.923 Y152.3 E0.02166
G1 X171.323 Y151.583 E0.02163
G1 X171.575 Y151.649 E0.00686
G1 X171.576 Y152.952 E0.03435
G1 X171.324 Y153.018 E0.00687
;WIPE_START
G1 F24000
G1 X170.923 Y152.3 E-0.05859
G1 X171.323 Y151.583 E-0.0585
G1 X171.575 Y151.649 E-0.01856
G1 X171.576 Y152.952 E-0.0929
G1 X171.324 Y153.018 E-0.01857
;WIPE_END
G1 E-0.95287 F1800
G1 X150.773 Y170.721 F30000
M73 P1 R35
G1 E1.2 F1800
G1 F1500
G1 X150.773 Y174.679 E0.10426
G1 X154.2 Y176.657 E0.10426
G1 X157.627 Y174.679 E0.10426
G1 X157.627 Y170.721 E0.10426
G1 X154.2 Y168.743 E0.10426
G1 X153.486 Y169.155 E0.02171
G1 X150.773 Y170.721 E0.08255
G1 X151.11 Y170.916 F30000
;TYPE:External perimeter
G1 F1500
G1 X151.11 Y174.484 E0.09401
G1 X154.2 Y176.268 E0.09401
G1 X157.29 Y174.484 E0.09401
G1 X157.29 Y170.916 E0.09401
G1 X154.2 Y169.132 E0.09401
G1 X153.655 Y169.447 E0.01658
G1 X151.11 Y170.916 E0.07742
;WIPE_START
G1 X150.716 Y170.985 F30000
;WIPE_END
;WIPE_START
G1 F24000
G1 X150.91 Y174.599 E-0.25787
G1 X154.2 Y176.499 E-0.27068
G1 X157.49 Y174.599 E-0.27068
G1 X157.49 Y170.801 E-0.27068
G1 X156.638 Y170.309 E-0.0701
;WIPE_END
G1 E-0.06 F1800
G1 X162.827 Y142.964 F30000
G1 E1.2 F1800
;TYPE:Internal perimeter
G1 F1500
G1 X167.173 Y142.964 E0.11451
G1 X169.346 Y139.2 E0.11451
G1 X167.173 Y135.436 E0.11451
G1 X162.827 Y135.436 E0.11451
G1 X160.654 Y139.2 E0.11451
G1 X162.827 Y142.964 E0.11451
G1 X163.021 Y142.627 F30000
G1 F1500
G1 X166.979 Y142.627 E0.10426
G1 X168.957 Y139.2 E0.10426
G1 X166.979 Y135.773 E0.10426
G1 X163.021 Y135.773 E0.10426
G1 X161.043 Y139.2 E0.10426
G1 X163.021 Y142.627 E0.10426
G1 X163.216 Y142.29 F30000
;TYPE:External perimeter
G1 F1500
G1 X166.784 Y142.29 E0.09401
G1 X168.568 Y139.2 E0.09401
G1 X166.784 Y136.11 E0.09401
G1 X163.216 Y136.11 E0.09401
G1 X161.432 Y139.2 E0.09401
G1 X163.216 Y142.29 E0.09401
;WIPE_START
G1 X163.285 Y142.684 F30000
;WIPE_END
;WIPE_START
G1 F24000
G1 X166.899 Y142.49 E-0.25787
G1 X168.799 Y139.2 E-0.27068
G1 X166.899 Y135.91 E-0.27068
G1 X163.101 Y135.91 E-0.27068
G1 X162.609 Y136.762 E-0.0701
;WIPE_END
G1 E-0.06 F1800
G1 X154.431 Y138.959 F30000
G1 E1.2 F1800
;TYPE:Internal perimeter
G1 F1500
G1 X154.527 Y138.677 E0.00785
G1 X154.594 Y138.341 E0.00902
G1 X154.616 Y138 E0.00902
G1 X154.594 Y137.659 E0.00902
G1 X154.527 Y137.323 E0.00902
G1 X154.417 Y136.999 E0.00902
G1 X154.266 Y136.692 E0.00902
G1 X154.076 Y136.407 E0.00902
G1 X153.85 Y136.15 E0.00902
G1 X153.593 Y135.924 E0.00902
G1 X153.308 Y135.734 E0.00902
G1 X153.001 Y135.583 E0.00902
G1 X152.677 Y135.473 E0.00902
G1 X152.341 Y135.406 E0.00902
G1 X152 Y135.384 E0.00902
G1 X151.659 Y135.406 E0.00902
G1 X151.323 Y135.473 E0.00902
G1 X150.999 Y135.583 E0.00902
G1 X150.692 Y135.734 E0.00902
G1 X150.407 Y135.924 E0.00902
G1 X150.15 Y136.15 E0.00902
G1 X149.924 Y136.407 E0.00902
G1 X149.734 Y136.692 E0.00902
G1 X149.583 Y136.999 E0.00902
G1 X149.473 Y137.323 E0.00902
G1 X149.406 Y137.659 E0.00902
G1 X149.384 Y138 E0.00902
G1 X149.406 Y138.341 E0.00902
G1 X149.473 Y138.677 E0.00902
G1 X149.583 Y139.001 E0.00902
G1 X149.734 Y139.308 E0.00902
G1 X149.924 Y139.593 E0.00902
G1 X150.15 Y139.85 E0.00902
G1 X150.407 Y140.076 E0.00902
G1 X150.692 Y140.266 E0.00902
G1 X150.999 Y140.417 E0.00902
G1 X151.323 Y140.527 E0.00902
G1 X151.659 Y140.594 E0.00902
G1 X152 Y140.616 E0.00902
G1 X152.341 Y140.594 E0.00902
G1 X152.677 Y140.527 E0.00902
G1 X153.001 Y140.417 E0.00902
G1 X153.308 Y140.266 E0.00902
G1 X153.593 Y140.076 E0.00902
G1 X153.85 Y139.85 E0.00902
G1 X154.076 Y139.593 E0.00902
G1 X154.266 Y139.308 E0.00902
G1 X154.417 Y139.001 E0.00902
G1 X154.431 Y138.959 E0.00116
G1 X154.112 Y138.851 F30000
G1 F1500
G1 X154.201 Y138.59 E0.00727
G1 X154.259 Y138.297 E0.00785
G1 X154.278 Y138 E0.00785
G1 X154.259 Y137.703 E0.00785
G1 X154.201 Y137.41 E0.00785
G1 X154.105 Y137.128 E0.00785
G1 X153.973 Y136.861 E0.00785
G1 X153.808 Y136.613 E0.00785
G1 X153.611 Y136.389 E0.00785
G1 X153.387 Y136.192 E0.00785
G1 X153.139 Y136.027 E0.00785
G1 X152.872 Y135.895 E0.00785
G1 X152.59 Y135.799 E0.00785
G1 X152.297 Y135.741 E0.00785
G1 X152 Y135.722 E0.00785
G1 X151.703 Y135.741 E0.00785
G1 X151.41 Y135.799 E0.00785
G1 X151.128 Y135.895 E0.00785
G1 X150.861 Y136.027 E0.00785
G1 X150.613 Y136.192 E0.00785
G1 X150.389 Y136.389 E0.00785
G1 X150.192 Y136.613 E0.00785
G1 X150.027 Y136.861 E0.00785
G1 X149.895 Y137.128 E0.00785
G1 X149.799 Y137.41 E0.00785
G1 X149.741 Y137.703 E0.00785
G1 X149.722 Y138 E0.00785
G1 X149.741 Y138.297 E0.00785
G1 X149.799 Y138.59 E0.00785
G1 X149.895 Y138.872 E0.00785
G1 X150.027 Y139.139 E0.00785
G1 X150.192 Y139.387 E0.00785
G1 X150.389 Y139.611 E0.00785
G1 X150.613 Y139.808 E0.00785
G1 X150.861 Y139.973 E0.00785
G1 X151.128 Y140.105 E0.00785
G1 X151.41 Y140.201 E0.00785
G1 X151.703 Y140.259 E0.00785
G1 X152 Y140.278 E0.00785
G1 X152.297 Y140.259 E0.00785
G1 X152.59 Y140.201 E0.00785
G1 X152.872 Y140.105 E0.00785
G1 X153.139 Y139.973 E0.00785
G1 X153.387 Y139.808 E0.00785
G1 X153.611 Y139.611 E0.00785
G1 X153.808 Y139.387 E0.00785
G1 X153.973 Y139.139 E0.00785
G1 X154.105 Y138.872 E0.00785
G1 X154.112 Y138.851 E0.00058
G1 X153.793 Y138.743 F30000
;TYPE:External perimeter
G1 F1500
G1 X153.874 Y138.502 E0.00669
G1 X153.924 Y138.253 E0.00669
G1 X153.941 Y138 E0.00669
G1 X153.924 Y137.747 E0.00669
G1 X153.874 Y137.498 E0.00669
G1 X153.793 Y137.257 E0.00669
G1 X153.681 Y137.03 E0.00669
G1 X153.54 Y136.819 E0.00669
G1 X153.372 Y136.628 E0.00669
G1 X153.181 Y136.46 E0.00669
G1 X152.97 Y136.319 E0.00669
G1 X152.743 Y136.207 E0.00669
G1 X152.502 Y136.126 E0.00669
G1 X152.253 Y136.076 E0.00669
G1 X152 Y136.059 E0.00669
G1 X151.747 Y136.076 E0.00669
G1 X151.498 Y136.126 E0.00669
G1 X151.257 Y136.207 E0.00669
G1 X151.03 Y136.319 E0.00669
G1 X150.819 Y136.46 E0.00669
G1 X150.628 Y136.628 E0.00669
G1 X150.46 Y136.819 E0.00669
G1 X150.319 Y137.03 E0.00669
G1 X150.207 Y137.257 E0.00669
G1 X150.126 Y137.498 E0.00669
G1 X150.076 Y137.747 E0.00669
G1 X150.059 Y138 E0.00669
G1 X150.076 Y138.253 E0.00669
G1 X150.126 Y138.502 E0.00669
G1 X150.207 Y138.743 E0.00669
G1 X150.319 Y138.97 E0.00669
G1 X150.46 Y139.181 E0.00669
G1 X150.628 Y139.372 E0.00669
G1 X150.819 Y139.54 E0.00669
G1 X151.03 Y139.681 E0.00669
G1 X151.257 Y139.793 E0.00669
G1 X151.498 Y139.874 E0.00669
G1 X151.747 Y139.924 E0.00669
G1 X152 Y139.941 E0.00669
G1 X152.253 Y139.924 E0.00669
G1 X152.502 Y139.874 E0.00669
G1 X152.743 Y139.793 E0.00669
G1 X152.97 Y139.681 E0.00669
G1 X153.181 Y139.54 E0.00669
G1 X153.372 Y139.372 E0.00669
G1 X153.54 Y139.181 E0.00669
G1 X153.681 Y138.97 E0.00669
G1 X153.793 Y138.743 E0.00669
;WIPE_START
G1 X154.188 Y138.682 F30000
;WIPE_END
;WIPE_START
G1 F24000
G1 X154.123 Y138.279 E-0.02904
G1 X154.141 Y138 E-0.01995
G1 X154.123 Y137.721 E-0.01995
G1 X154.068 Y137.446 E-0.01996
G1 X153.978 Y137.181 E-0.01995
G1 X153.854 Y136.929 E-0.01995
G1 X153.699 Y136.697 E-0.01995
G1 X153.514 Y136.486 E-0.01995
G1 X153.303 Y136.301 E-0.01995
G1 X153.071 Y136.146 E-0.01995
G1 X152.819 Y136.022 E-0.01995
G1 X152.554 Y135.932 E-0.01995
G1 X152.279 Y135.877 E-0.01995
G1 X152 Y135.859 E-0.01995
G1 X151.721 Y135.877 E-0.01995
G1 X151.446 Y135.932 E-0.01995
G1 X151.181 Y136.022 E-0.01996
G1 X150.929 Y136.146 E-0.01995
G1 X150.697 Y136.301 E-0.01995
G1 X150.486 Y136.486 E-0.01995
G1 X150.301 Y136.697 E-0.01995
G1 X150.146 Y136.929 E-0.01995
G1 X150.022 Y137.181 E-0.01995
G1 X149.932 Y137.446 E-0.01995
G1 X149.877 Y137.721 E-0.01996
G1 X149.859 Y138 E-0.01995
G1 X149.877 Y138.279 E-0.01995
G1 X149.932 Y138.554 E-0.01996
G1 X150.022 Y138.819 E-0.01995
G1 X150.146 Y139.071 E-0.01995
G1 X150.301 Y139.303 E-0.01995
G1 X150.486 Y139.514 E-0.01995
G1 X150.697 Y139.699 E-0.01995
G1 X150.929 Y139.854 E-0.01995
G1 X151.181 Y139.978 E-0.01995
G1 X151.446 Y140.068 E-0.01996
G1 X151.721 Y140.123 E-0.01995
G1 X152 Y140.141 E-0.01995
G1 X152.279 Y140.123 E-0.01995
G1 X152.554 Y140.068 E-0.01995
G1 X152.819 Y139.978 E-0.01995
G1 X153.071 Y139.854 E-0.01995
G1 X153.303 Y139.699 E-0.01995
G1 X153.514 Y139.514 E-0.01995
G1 X153.699 Y139.303 E-0.01995
G1 X153.854 Y139.071 E-0.01995
G1 X153.978 Y138.819 E-0.01995
;WIPE_END
G1 E-0.25305 F1800
G1 X171.699 Y170.332 F30000
G1 E1.2 F1800
;TYPE:Internal perimeter
G1 F1500
G1 X171.699 Y175.068 E0.12477
G1 X175.8 Y177.436 E0.12477
G1 X179.901 Y175.068 E0.12477
G1 X179.901 Y170.332 E0.12477
G1 X175.8 Y167.964 E0.12477
G1 X174.749 Y168.571 E0.03196
G1 X171.699 Y170.332 E0.09281
G1 X172.036 Y170.527 F30000
G1 F1500
G1 X172.036 Y174.873 E0.11451
G1 X175.8 Y177.046 E0.11451
G1 X179.564 Y174.873 E0.11451
G1 X179.564 Y170.527 E0.11451
G1 X175.8 Y168.354 E0.11451
G1 X174.918 Y168.863 E0.02683
G1 X172.036 Y170.527 E0.08768
G1 X172.373 Y170.721 F30000
G1 F1500
G1 X172.373 Y174.679 E0.10426
G1 X175.8 Y176.657 E0.10426
G1 X179.227 Y174.679 E0.10426
G1 X179.227 Y170.721 E0.10426
G1 X175.8 Y168.743 E0.10426
G1 X175.086 Y169.155 E0.02171
G1 X172.373 Y170.721 E0.08255
G1 X172.71 Y170.916 F30000
;TYPE:External perimeter
G1 F1500
G1 X172.71 Y174.484 E0.09401
G1 X175.8 Y176.268 E0.09401
G1 X178.89 Y174.484 E0.09401
G1 X178.89 Y170.916 E0.09401
G1 X175.8 Y169.132 E0.09401
G1 X175.255 Y169.447 E0.01658
G1 X172.71 Y170.916 E0.07743
;WIPE_START
G1 X172.316 Y170.985 F30000
;WIPE_END
;WIPE_START
G1 F24000
G1 X172.51 Y174.599 E-0.25787
G1 X175.8 Y176.499 E-0.27068
G1 X179.09 Y174.599 E-0.27068
G1 X179.09 Y170.801 E-0.27068
G1 X178.238 Y170.309 E-0.0701
;WIPE_END
G1 E-0.06 F1800
G1 X180.632 Y183.412 F30000
G1 E1.2 F1800
;TYPE:Internal perimeter
G1 F1500
G1 X180.573 Y183.442 E0.00175
G1 X180.252 Y183.656 E0.01018
G1 X179.961 Y183.911 E0.01018
G1 X179.706 Y184.202 E0.01018
G1 X179.492 Y184.523 E0.01018
G1 X179.321 Y184.87 E0.01018
G1 X179.197 Y185.235 E0.01018
G1 X179.121 Y185.614 E0.01018
G1 X179.096 Y186 E0.01018
G1 X179.121 Y186.386 E0.01018
G1 X179.197 Y186.765 E0.01018
G1 X179.321 Y187.13 E0.01018
G1 X179.492 Y187.477 E0.01018
G1 X179.706 Y187.798 E0.01018
G1 X179.961 Y188.089 E0.01018
G1 X180.252 Y188.344 E0.01018
G1 X180.573 Y188.558 E0.01018
G1 X180.92 Y188.729 E0.01018
G1 X181.285 Y188.853 E0.01018
G1 X181.664 Y188.929 E0.01018
G1 X182.05 Y188.954 E0.01018
G1 X182.436 Y188.929 E0.01018
G1 X182.815 Y188.853 E0.01018
G1 X183.18 Y188.729 E0.01018
G1 X183.527 Y188.558 E0.01018
G1 X183.848 Y188.344 E0.01018
G1 X184.139 Y188.089 E0.01018
G1 X184.394 Y187.798 E0.01018
G1 X184.608 Y187.477 E0.01018
G1 X184.779 Y187.13 E0.01018
G1 X184.903 Y186.765 E0.01018
G1 X184.979 Y186.386 E0.01018
G1 X185.004 Y186 E0.01018
G1 X184.979 Y185.614 E0.01018
G1 X184.903 Y185.235 E0.01018
G1 X184.779 Y184.87 E0.01018
G1 X184.608 Y184.523 E0.01018
G1 X184.394 Y184.202 E0.01018
G1 X184.139 Y183.911 E0.01018
G1 X183.848 Y183.656 E0.01018
G1 X183.527 Y183.442 E0.01018
G1 X183.18 Y183.271 E0.01018
G1 X182.815 Y183.147 E0.01018
G1 X182.436 Y183.071 E0.01018
G1 X182.05 Y183.046 E0.01018
G1 X181.664 Y183.071 E0.01018
G1 X181.285 Y183.147 E0.01018
G1 X180.92 Y183.271 E0.01018
G1 X180.632 Y183.412 E0.00843
G1 X180.705 Y183.759 F30000
G1 F1500
G1 X180.457 Y183.924 E0.00785
G1 X180.2 Y184.15 E0.00902
G1 X179.974 Y184.407 E0.00902
G1 X179.784 Y184.692 E0.00902
G1 X179.633 Y184.999 E0.00902
G1 X179.523 Y185.323 E0.00902
G1 X179.456 Y185.659 E0.00902
G1 X179.434 Y186 E0.00902
G1 X179.456 Y186.341 E0.00902
G1 X179.523 Y186.677 E0.00902
G1 X179.633 Y187.001 E0.00902
G1 X179.784 Y187.308 E0.00902
G1 X179.974 Y187.593 E0.00902
G1 X180.2 Y187.85 E0.00902
G1 X180.457 Y188.076 E0.00902
G1 X180.742 Y188.266 E0.00902
G1 X181.049 Y188.417 E0.00902
G1 X181.373 Y188.527 E0.00902
G1 X181.709 Y188.594 E0.00902
G1 X182.05 Y188.616 E0.00902
G1 X182.391 Y188.594 E0.00902
G1 X182.727 Y188.527 E0.00902
G1 X183.051 Y188.417 E0.00902
G1 X183.358 Y188.266 E0.00902
G1 X183.643 Y188.076 E0.00902
G1 X183.9 Y187.85 E0.00902
G1 X184.126 Y187.593 E0.00902
G1 X184.316 Y187.308 E0.00902
G1 X184.467 Y187.001 E0.00902
G1 X184.577 Y186.677 E0.00902
G1 X184.644 Y186.341 E0.00902
G1 X184.666 Y186 E0.00902
G1 X184.644 Y185.659 E0.00902
G1 X184.577 Y185.323 E0.00902
G1 X184.467 Y184.999 E0.00902
G1 X184.316 Y184.692 E0.00902
G1 X184.126 Y184.407 E0.00902
G1 X183.9 Y184.15 E0.00902
G1 X183.643 Y183.924 E0.00902
G1 X183.358 Y183.734 E0.00902
G1 X183.051 Y183.583 E0.00902
G1 X182.727 Y183.473 E0.00902
G1 X182.391 Y183.406 E0.00902
G1 X182.05 Y183.384 E0.00902
G1 X181.709 Y183.406 E0.00902
G1 X181.373 Y183.473 E0.00902
G1 X181.049 Y183.583 E0.00902
G1 X180.742 Y183.734 E0.00902
G1 X180.705 Y183.759 E0.00116
G1 X180.931 Y184.017 F30000
G1 F1500
G1 X180.911 Y184.027 E0.00058
G1 X180.663 Y184.192 E0.00785
G1 X180.439 Y184.389 E0.00785
G1 X180.242 Y184.613 E0.00785
G1 X180.077 Y184.861 E0.00785
G1 X179.945 Y185.128 E0.00785
G1 X179.849 Y185.41 E0.00785
G1 X179.791 Y185.703 E0.00785
G1 X179.772 Y186 E0.00785
G1 X179.791 Y186.297 E0.00785
G1 X179.849 Y186.59 E0.00785
G1 X179.945 Y186.872 E0.00785
G1 X180.077 Y187.139 E0.00785
G1 X180.242 Y187.387 E0.00785
G1 X180.439 Y187.611 E0.00785
G1 X180.663 Y187.808 E0.00785
G1 X180.911 Y187.973 E0.00785
G1 X181.178 Y188.105 E0.00785
G1 X181.46 Y188.201 E0.00785
G1 X181.753 Y188.259 E0.00785
G1 X182.05 Y188.278 E0.00785
G1 X182.347 Y188.259 E0.00785
G1 X182.64 Y188.201 E0.00785
G1 X182.922 Y188.105 E0.00785
G1 X183.189 Y187.973 E0.00785
G1 X183.437 Y187.808 E0.00785
G1 X183.661 Y187.611 E0.00785
G1 X183.858 Y187.387 E0.00785
G1 X184.023 Y187.139 E0.00785
G1 X184.155 Y186.872 E0.00785
G1 X184.251 Y186.59 E0.00785
G1 X184.309 Y186.297 E0.00785
G1 X184.328 Y186 E0.00785
G1 X184.309 Y185.703 E0.00785
G1 X184.251 Y185.41 E0.00785
G1 X184.155 Y185.128 E0.00785
G1 X184.023 Y184.861 E0.00785
G1 X183.858 Y184.613 E0.00785
G1 X183.661 Y184.389 E0.00785
G1 X183.437 Y184.192 E0.00785
G1 X183.189 Y184.027 E0.00785
G1 X182.922 Y183.895 E0.00785
G1 X182.64 Y183.799 E0.00785
G1 X182.347 Y183.741 E0.00785
G1 X182.05 Y183.722 E0.00785
G1 X181.753 Y183.741 E0.00785
G1 X181.46 Y183.799 E0.00785
G1 X181.178 Y183.895 E0.00785
G1 X180.931 Y184.017 E0.00727
G1 X181.08 Y184.319 F30000
;TYPE:External perimeter
G1 F1500
G1 X180.869 Y184.46 E0.00669
G1 X180.678 Y184.628 E0.00669
G1 X180.51 Y184.819 E0.00669
G1 X180.369 Y185.03 E0.00669
G1 X180.257 Y185.257 E0.00669
G1 X180.176 Y185.498 E0.00669
G1 X180.126 Y185.747 E0.00669
G1 X180.109 Y186 E0.00669
