; generated by SuperSlicer 2.4 on 2022-11-12 at 19:11:21 UTC


;
;

;
;
; 

; external perimeters extrusion width = 0.45mm
; perimeters extrusion width = 0.45mm
; infill extrusion width = 0.45mm
; solid infill extrusion width = 0.48mm
; top infill extrusion width = 0.42mm
; first layer extrusion width = 0.38mm

; object:{"name":"podkladka_pod_element","id":"podkladka_pod_element.stl id:0 copy 0","object_center":[165.000000,162.500000,0.000000],"boundingbox_center":[165.000000,162.500000,1.500000],"boundingbox_size":[51.000000,27.000000,3.000000]}
; plater:{"center":[165.000000,162.500000,0.000000],"boundingbox_center":[165.000000,162.500000,1.500000],"boundingbox_size":[51.000000,27.000000,3.000000]}

M204 P6000 T7000 ; sets acceleration (P, T), mm/sec^2
;TYPE:Custom
; custom gcode: start_gcode
PRINT_START EXTRUDER_TEMP=255 BED_TEMP=80
; custom gcode end: start_gcode
M107
G21 ; set units to millimeters
G90 ; use absolute coordinates
M82 ; use absolute distances for extrusion
G92 E0
; custom gcode: start_filament_gcode
; Filament gcode
;SET_GCODE_OFFSET Z=0;;
;SET_PRESSURE_ADVANCE ADVANCE=0.05
; custom gcode end: start_filament_gcode
;_TOOLCHANGE 0
M104 S255 ; set temperature
M109 S255 ; set temperature and wait for it to be reached
M190 S80 ; set bed temperature and wait for it to be reached
;LAYER_CHANGE
;Z:0.2
;HEIGHT:0.2
; custom gcode: before_layer_gcode
;BEFORE_LAYER_CHANGE
;0.2
; custom gcode end: before_layer_gcode

G1 E-1.2 F7200
G1 Z0.2 F30000
; custom gcode: layer_gcode
;AFTER_LAYER_CHANGE
;0.2
; custom gcode end: layer_gcode

G92 E0
; printing object podkladka_pod_element.stl id:0 copy 0
G1 X171.055 Y167.988
G1 E1.2 F3600
;TYPE:Internal perimeter
;WIDTH:0.38
G1 F1500
G1 X170.687 Y168.403 E1.21477
G1 X170.372 Y169.003 E1.23282
G1 X170.21 Y169.661 E1.25086
G1 X170.21 Y170.339 E1.2689
G1 X170.372 Y170.997 E1.28694
G1 X170.687 Y171.597 E1.30499
G1 X171.136 Y172.104 E1.32303
G1 X171.694 Y172.489 E1.34107
G1 X172.327 Y172.729 E1.35911
G1 X173 Y172.811 E1.37716
G1 X173.673 Y172.729 E1.3952
G1 X174.306 Y172.489 E1.41324
G1 X174.864 Y172.104 E1.43128
G1 X175.313 Y171.597 E1.44933
G1 X175.628 Y170.997 E1.46737
G1 X175.79 Y170.339 E1.48541
G1 X175.79 Y169.661 E1.50345
G1 X175.628 Y169.003 E1.5215
G1 X175.313 Y168.403 E1.53954
G1 X174.864 Y167.896 E1.55758
G1 X174.306 Y167.511 E1.57562
G1 X173.673 Y167.271 E1.59367
G1 X173 Y167.189 E1.61171
G1 X172.327 Y167.271 E1.62975
G1 X171.694 Y167.511 E1.64779
G1 X171.136 Y167.896 E1.66584
G1 X171.094 Y167.943 E1.66751
G1 X171.307 Y168.212 F30000
G1 F1500
G1 X170.966 Y168.596 E1.68119
G1 X170.689 Y169.124 E1.69705
G1 X170.547 Y169.702 E1.71292
G1 X170.547 Y170.298 E1.72878
G1 X170.689 Y170.876 E1.74464
G1 X170.966 Y171.404 E1.76051
G1 X171.361 Y171.85 E1.77637
G1 X171.852 Y172.188 E1.79223
G1 X172.409 Y172.399 E1.80809
G1 X173 Y172.471 E1.82396
G1 X173.591 Y172.399 E1.83982
G1 X174.148 Y172.188 E1.85568
G1 X174.639 Y171.85 E1.87155
G1 X175.034 Y171.404 E1.88741
G1 X175.311 Y170.876 E1.90327
G1 X175.453 Y170.298 E1.91914
G1 X175.453 Y169.702 E1.935
G1 X175.311 Y169.124 E1.95086
G1 X175.034 Y168.596 E1.96672
G1 X174.639 Y168.15 E1.98259
G1 X174.148 Y167.812 E1.99845
G1 X173.591 Y167.601 E2.01431
G1 X173 Y167.529 E2.03018
G1 X172.409 Y167.601 E2.04604
G1 X171.852 Y167.812 E2.0619
G1 X171.361 Y168.15 E2.07777
G1 X171.347 Y168.167 E2.07835
G1 X171.559 Y168.435 F30000
G1 F1500
G1 X171.246 Y168.789 E2.09094
G1 X171.007 Y169.244 E2.10462
G1 X170.884 Y169.743 E2.11831
G1 X170.884 Y170.257 E2.13199
G1 X171.007 Y170.756 E2.14567
G1 X171.246 Y171.211 E2.15936
G1 X171.586 Y171.596 E2.17304
G1 X172.009 Y171.887 E2.18672
G1 X172.49 Y172.07 E2.20041
G1 X173 Y172.132 E2.21409
G1 X173.51 Y172.07 E2.22777
G1 X173.991 Y171.887 E2.24146
G1 X174.414 Y171.596 E2.25514
G1 X174.754 Y171.211 E2.26882
G1 X174.993 Y170.756 E2.28251
G1 X175.116 Y170.257 E2.29619
G1 X175.116 Y169.743 E2.30987
G1 X174.993 Y169.244 E2.32356
G1 X174.754 Y168.789 E2.33724
G1 X174.414 Y168.404 E2.35092
G1 X173.991 Y168.112 E2.36461
G1 X173.51 Y167.93 E2.37829
G1 X173 Y167.868 E2.39197
G1 X172.49 Y167.93 E2.40566
G1 X172.009 Y168.112 E2.41934
G1 X171.602 Y168.394 E2.43252
G1 X171.812 Y168.659 F30000
;TYPE:External perimeter
G1 F1500
G1 X171.525 Y168.982 E2.44402
G1 X171.324 Y169.365 E2.45552
G1 X171.221 Y169.784 E2.46703
G1 X171.221 Y170.216 E2.47853
G1 X171.324 Y170.635 E2.49004
G1 X171.525 Y171.018 E2.50154
G1 X171.812 Y171.341 E2.51304
G1 X172.167 Y171.587 E2.52455
G1 X172.571 Y171.74 E2.53605
G1 X173 Y171.792 E2.54755
G1 X173.429 Y171.74 E2.55906
G1 X173.833 Y171.587 E2.57056
G1 X174.188 Y171.341 E2.58206
G1 X174.475 Y171.018 E2.59357
G1 X174.676 Y170.635 E2.60507
G1 X174.779 Y170.216 E2.61658
G1 X174.779 Y169.784 E2.62808
G1 X174.676 Y169.365 E2.63958
G1 X174.475 Y168.982 E2.65109
G1 X174.188 Y168.659 E2.66259
G1 X173.833 Y168.413 E2.67409
G1 X173.429 Y168.26 E2.6856
G1 X173 Y168.208 E2.6971
G1 X172.571 Y168.26 E2.70861
G1 X172.167 Y168.413 E2.72011
G1 X171.861 Y168.624 E2.73002
;WIPE_START
G1 X171.427 Y168.547 F30000
;WIPE_END
G92 E0
;WIPE_START
G1 F24000
G1 X171.359 Y168.868 E-0.09331
G1 X171.136 Y169.293 E-0.23028
G1 X171.021 Y169.76 E-0.36725
G1 X171.021 Y170.24 E-0.50422
G1 X171.136 Y170.707 E-0.64119
G1 X171.359 Y171.132 E-0.77817
G1 X171.678 Y171.492 E-0.91514
G1 X172.074 Y171.765 E-1.0521
G1 X172.362 Y171.875 E-1.14
;WIPE_END
G1 E-1.2 F7200
G1 X172.878 Y157.796 F30000
G1 E0 F3600
;TYPE:Internal perimeter
G1 F1500
G1 X173 Y157.811 E0.00327
G1 X173.673 Y157.729 E0.02131
G1 X174.306 Y157.489 E0.03936
G1 X174.864 Y157.104 E0.0574
G1 X175.313 Y156.597 E0.07544
G1 X175.628 Y155.997 E0.09348
G1 X175.79 Y155.339 E0.11153
G1 X175.79 Y154.661 E0.12957
G1 X175.628 Y154.003 E0.14761
G1 X175.313 Y153.403 E0.16565
G1 X174.864 Y152.896 E0.1837
G1 X174.306 Y152.511 E0.20174
G1 X173.673 Y152.271 E0.21978
G1 X173 Y152.189 E0.23782
G1 X172.327 Y152.271 E0.25587
G1 X171.694 Y152.511 E0.27391
G1 X171.136 Y152.896 E0.29195
G1 X170.687 Y153.403 E0.30999
G1 X170.372 Y154.003 E0.32804
G1 X170.21 Y154.661 E0.34608
G1 X170.21 Y155.339 E0.36412
G1 X170.372 Y155.997 E0.38216
G1 X170.687 Y156.597 E0.40021
G1 X171.136 Y157.104 E0.41825
G1 X171.694 Y157.489 E0.43629
G1 X172.327 Y157.729 E0.45433
G1 X172.819 Y157.789 E0.46751
G1 X172.919 Y157.461 F30000
G1 F1500
G1 X173 Y157.471 E0.46969
G1 X173.591 Y157.399 E0.48555
G1 X174.148 Y157.188 E0.50141
G1 X174.639 Y156.85 E0.51728
G1 X175.034 Y156.404 E0.53314
G1 X175.311 Y155.876 E0.549
G1 X175.453 Y155.298 E0.56487
G1 X175.453 Y154.702 E0.58073
G1 X175.311 Y154.124 E0.59659
G1 X175.034 Y153.596 E0.61245
G1 X174.639 Y153.15 E0.62832
G1 X174.148 Y152.812 E0.64418
G1 X173.591 Y152.601 E0.66004
G1 X173 Y152.529 E0.67591
G1 X172.409 Y152.601 E0.69177
G1 X171.852 Y152.812 E0.70763
G1 X171.361 Y153.15 E0.7235
G1 X170.966 Y153.596 E0.73936
G1 X170.689 Y154.124 E0.75522
G1 X170.547 Y154.702 E0.77108
G1 X170.547 Y155.298 E0.78695
G1 X170.689 Y155.876 E0.80281
G1 X170.966 Y156.404 E0.81867
G1 X171.361 Y156.85 E0.83454
G1 X171.852 Y157.188 E0.8504
G1 X172.409 Y157.399 E0.86626
G1 X172.859 Y157.454 E0.87835
G1 X172.959 Y157.127 F30000
G1 F1500
G1 X173 Y157.132 E0.87944
G1 X173.51 Y157.07 E0.89312
G1 X173.991 Y156.887 E0.9068
G1 X174.414 Y156.596 E0.92049
G1 X174.754 Y156.211 E0.93417
G1 X174.993 Y155.756 E0.94785
G1 X175.116 Y155.257 E0.96154
G1 X175.116 Y154.743 E0.97522
G1 X174.993 Y154.244 E0.9889
G1 X174.754 Y153.789 E1.00259
G1 X174.414 Y153.404 E1.01627
G1 X173.991 Y153.112 E1.02995
G1 X173.51 Y152.93 E1.04364
G1 X173 Y152.868 E1.05732
G1 X172.49 Y152.93 E1.071
G1 X172.009 Y153.112 E1.08469
G1 X171.586 Y153.404 E1.09837
G1 X171.246 Y153.789 E1.11205
G1 X171.007 Y154.244 E1.12574
G1 X170.884 Y154.743 E1.13942
G1 X170.884 Y155.257 E1.1531
G1 X171.007 Y155.756 E1.16679
G1 X171.246 Y156.211 E1.18047
G1 X171.586 Y156.596 E1.19415
G1 X172.009 Y156.887 E1.20784
G1 X172.49 Y157.07 E1.22152
G1 X172.9 Y157.12 E1.23252
G1 X173 Y156.792 F30000
;TYPE:External perimeter
G1 F1500
G1 X173.429 Y156.74 E1.24402
G1 X173.833 Y156.587 E1.25552
G1 X174.188 Y156.341 E1.26703
G1 X174.475 Y156.018 E1.27853
G1 X174.676 Y155.635 E1.29003
G1 X174.779 Y155.216 E1.30154
G1 X174.779 Y154.784 E1.31304
G1 X174.676 Y154.364 E1.32455
G1 X174.475 Y153.982 E1.33605
G1 X174.188 Y153.659 E1.34755
G1 X173.833 Y153.413 E1.35906
G1 X173.429 Y153.26 E1.37056
G1 X173 Y153.208 E1.38206
G1 X172.571 Y153.26 E1.39357
G1 X172.167 Y153.413 E1.40507
G1 X171.812 Y153.659 E1.41658
G1 X171.525 Y153.982 E1.42808
G1 X171.324 Y154.364 E1.43958
G1 X171.221 Y154.784 E1.45109
G1 X171.221 Y155.216 E1.46259
G1 X171.324 Y155.635 E1.47409
G1 X171.525 Y156.018 E1.4856
G1 X171.812 Y156.341 E1.4971
G1 X172.167 Y156.587 E1.50861
G1 X172.571 Y156.74 E1.52011
G1 X172.94 Y156.785 E1.53002
;WIPE_START
G1 X173.214 Y157.13 F30000
;WIPE_END
G92 E0
;WIPE_START
G1 F24000
G1 X173.477 Y156.936 E-0.09331
G1 X173.926 Y156.765 E-0.23028
G1 X174.322 Y156.492 E-0.36725
G1 X174.641 Y156.132 E-0.50422
G1 X174.864 Y155.707 E-0.64119
G1 X174.979 Y155.24 E-0.77816
G1 X174.979 Y154.76 E-0.91514
G1 X174.864 Y154.293 E-1.05211
G1 X174.721 Y154.02 E-1.14
;WIPE_END
G1 E-1.2 F7200
G1 X159.79 Y155.216 F30000
G1 E0 F3600
;TYPE:Internal perimeter
G1 F1500
G1 X159.79 Y154.661 E0.01477
G1 X159.628 Y154.003 E0.03282
G1 X159.313 Y153.403 E0.05086
G1 X158.864 Y152.896 E0.0689
G1 X158.306 Y152.511 E0.08694
G1 X157.673 Y152.271 E0.10499
G1 X157 Y152.189 E0.12303
G1 X156.327 Y152.271 E0.14107
G1 X155.694 Y152.511 E0.15911
G1 X155.136 Y152.896 E0.17716
G1 X154.687 Y153.403 E0.1952
G1 X154.372 Y154.003 E0.21324
G1 X154.21 Y154.661 E0.23128
G1 X154.21 Y155.339 E0.24933
G1 X154.372 Y155.997 E0.26737
G1 X154.687 Y156.597 E0.28541
G1 X155.136 Y157.104 E0.30345
G1 X155.694 Y157.489 E0.3215
G1 X156.327 Y157.729 E0.33954
G1 X157 Y157.811 E0.35758
G1 X157.673 Y157.729 E0.37562
G1 X158.306 Y157.489 E0.39367
G1 X158.864 Y157.104 E0.41171
G1 X159.313 Y156.597 E0.42975
G1 X159.628 Y155.997 E0.44779
G1 X159.79 Y155.339 E0.46584
G1 X159.79 Y155.276 E0.46751
G1 X159.453 Y155.216 F30000
G1 F1500
G1 X159.453 Y154.702 E0.48119
G1 X159.311 Y154.124 E0.49706
G1 X159.034 Y153.596 E0.51292
G1 X158.639 Y153.15 E0.52878
G1 X158.148 Y152.812 E0.54464
G1 X157.591 Y152.601 E0.56051
G1 X157 Y152.529 E0.57637
G1 X156.409 Y152.601 E0.59223
G1 X155.852 Y152.812 E0.6081
G1 X155.361 Y153.15 E0.62396
G1 X154.966 Y153.596 E0.63982
G1 X154.689 Y154.124 E0.65568
G1 X154.547 Y154.702 E0.67155
G1 X154.547 Y155.298 E0.68741
G1 X154.689 Y155.876 E0.70327
G1 X154.966 Y156.404 E0.71914
G1 X155.361 Y156.85 E0.735
G1 X155.852 Y157.188 E0.75086
G1 X156.409 Y157.399 E0.76672
G1 X157 Y157.471 E0.78259
G1 X157.591 Y157.399 E0.79845
G1 X158.148 Y157.188 E0.81431
G1 X158.639 Y156.85 E0.83018
G1 X159.034 Y156.404 E0.84604
G1 X159.311 Y155.876 E0.8619
G1 X159.453 Y155.298 E0.87777
G1 X159.453 Y155.276 E0.87835
G1 X159.116 Y155.216 F30000
G1 F1500
G1 X159.116 Y154.743 E0.89094
G1 X158.993 Y154.244 E0.90462
G1 X158.754 Y153.789 E0.91831
G1 X158.414 Y153.404 E0.93199
G1 X157.991 Y153.112 E0.94567
G1 X157.51 Y152.93 E0.95936
G1 X157 Y152.868 E0.97304
G1 X156.49 Y152.93 E0.98672
G1 X156.009 Y153.112 E1.00041
G1 X155.586 Y153.404 E1.01409
G1 X155.246 Y153.789 E1.02777
G1 X155.007 Y154.244 E1.04146
G1 X154.884 Y154.743 E1.05514
G1 X154.884 Y155.257 E1.06882
G1 X155.007 Y155.756 E1.08251
G1 X155.246 Y156.211 E1.09619
G1 X155.586 Y156.596 E1.10987
G1 X156.009 Y156.887 E1.12356
G1 X156.49 Y157.07 E1.13724
G1 X157 Y157.132 E1.15092
G1 X157.51 Y157.07 E1.16461
G1 X157.991 Y156.887 E1.17829
G1 X158.414 Y156.596 E1.19197
G1 X158.754 Y156.211 E1.20566
G1 X158.993 Y155.756 E1.21934
G1 X159.112 Y155.275 E1.23252
G1 X158.779 Y155.216 F30000
;TYPE:External perimeter
G1 F1500
G1 X158.779 Y154.784 E1.24402
G1 X158.676 Y154.364 E1.25552
G1 X158.475 Y153.982 E1.26703
G1 X158.188 Y153.659 E1.27853
G1 X157.833 Y153.413 E1.29004
G1 X157.429 Y153.26 E1.30154
G1 X157 Y153.208 E1.31304
G1 X156.571 Y153.26 E1.32455
G1 X156.167 Y153.413 E1.33605
G1 X155.812 Y153.659 E1.34755
G1 X155.525 Y153.982 E1.35906
G1 X155.324 Y154.364 E1.37056
G1 X155.221 Y154.784 E1.38207
G1 X155.221 Y155.216 E1.39357
G1 X155.324 Y155.635 E1.40507
G1 X155.525 Y156.018 E1.41658
G1 X155.812 Y156.341 E1.42808
G1 X156.167 Y156.587 E1.43958
G1 X156.571 Y156.74 E1.45109
G1 X157 Y156.792 E1.46259
G1 X157.429 Y156.74 E1.4741
G1 X157.833 Y156.587 E1.4856
G1 X158.188 Y156.341 E1.4971
G1 X158.475 Y156.018 E1.50861
G1 X158.676 Y155.635 E1.52011
G1 X158.765 Y155.274 E1.53002
;WIPE_START
G1 X159.14 Y155.045 F30000
;WIPE_END
G92 E0
;WIPE_START
G1 F24000
G1 X158.979 Y154.76 E-0.09331
G1 X158.864 Y154.293 E-0.23028
G1 X158.641 Y153.868 E-0.36725
G1 X158.322 Y153.508 E-0.50422
G1 X157.926 Y153.235 E-0.64119
G1 X157.477 Y153.064 E-0.77817
G1 X157 Y153.006 E-0.91514
G1 X156.523 Y153.064 E-1.05211
G1 X156.235 Y153.174 E-1.14
;WIPE_END
G1 E-1.2 F7200
G1 X157.673 Y167.271 F30000
G1 E0 F3600
;TYPE:Internal perimeter
G1 F1500
G1 X157 Y167.189 E0.01804
G1 X156.327 Y167.271 E0.03608
G1 X155.694 Y167.511 E0.05413
G1 X155.136 Y167.896 E0.07217
G1 X154.687 Y168.403 E0.09021
G1 X154.372 Y169.003 E0.10825
G1 X154.21 Y169.661 E0.1263
G1 X154.21 Y170.339 E0.14434
G1 X154.372 Y170.997 E0.16238
G1 X154.687 Y171.597 E0.18043
G1 X155.136 Y172.104 E0.19847
G1 X155.694 Y172.489 E0.21651
G1 X156.327 Y172.729 E0.23455
G1 X157 Y172.811 E0.2526
G1 X157.673 Y172.729 E0.27064
G1 X158.306 Y172.489 E0.28868
G1 X158.864 Y172.104 E0.30672
G1 X159.313 Y171.597 E0.32477
G1 X159.628 Y170.997 E0.34281
G1 X159.79 Y170.339 E0.36085
G1 X159.79 Y169.661 E0.37889
G1 X159.628 Y169.003 E0.39694
G1 X159.313 Y168.403 E0.41498
G1 X158.864 Y167.896 E0.43302
G1 X158.306 Y167.511 E0.45106
G1 X157.729 Y167.292 E0.46751
G1 X157.591 Y167.601 F30000
G1 F1500
G1 X157 Y167.529 E0.48337
G1 X156.409 Y167.601 E0.49923
G1 X155.852 Y167.812 E0.5151
G1 X155.361 Y168.15 E0.53096
G1 X154.966 Y168.596 E0.54682
G1 X154.689 Y169.124 E0.56269
G1 X154.547 Y169.702 E0.57855
G1 X154.547 Y170.298 E0.59441
G1 X154.689 Y170.876 E0.61028
G1 X154.966 Y171.404 E0.62614
G1 X155.361 Y171.85 E0.642
G1 X155.852 Y172.188 E0.65786
G1 X156.409 Y172.399 E0.67373
G1 X157 Y172.471 E0.68959
G1 X157.591 Y172.399 E0.70545
G1 X158.148 Y172.188 E0.72132
G1 X158.639 Y171.85 E0.73718
G1 X159.034 Y171.404 E0.75304
G1 X159.311 Y170.876 E0.7689
G1 X159.453 Y170.298 E0.78477
G1 X159.453 Y169.702 E0.80063
G1 X159.311 Y169.124 E0.81649
G1 X159.034 Y168.596 E0.83236
G1 X158.639 Y168.15 E0.84822
G1 X158.148 Y167.812 E0.86408
G1 X157.648 Y167.622 E0.87835
G1 X157.51 Y167.93 F30000
G1 F1500
G1 X157 Y167.868 E0.89203
G1 X156.49 Y167.93 E0.90571
G1 X156.009 Y168.112 E0.9194
G1 X155.586 Y168.404 E0.93308
G1 X155.246 Y168.789 E0.94676
G1 X155.007 Y169.244 E0.96045
G1 X154.884 Y169.743 E0.97413
G1 X154.884 Y170.257 E0.98781
G1 X155.007 Y170.756 E1.0015
G1 X155.246 Y171.211 E1.01518
G1 X155.586 Y171.596 E1.02886
G1 X156.009 Y171.887 E1.04255
G1 X156.49 Y172.07 E1.05623
G1 X157 Y172.132 E1.06991
G1 X157.51 Y172.07 E1.0836
G1 X157.991 Y171.887 E1.09728
G1 X158.414 Y171.596 E1.11096
G1 X158.754 Y171.211 E1.12465
G1 X158.993 Y170.756 E1.13833
G1 X159.116 Y170.257 E1.15201
G1 X159.116 Y169.743 E1.1657
G1 X158.993 Y169.244 E1.17938
G1 X158.754 Y168.789 E1.19306
G1 X158.414 Y168.404 E1.20675
G1 X157.991 Y168.112 E1.22043
G1 X157.566 Y167.952 E1.23252
G1 X157.199 Y168.232 F30000
;TYPE:External perimeter
G1 F1500
G1 X157 Y168.208 E1.23785
G1 X156.571 Y168.26 E1.24936
G1 X156.167 Y168.413 E1.26086
G1 X155.812 Y168.659 E1.27236
G1 X155.525 Y168.982 E1.28387
G1 X155.324 Y169.365 E1.29537
G1 X155.221 Y169.784 E1.30688
G1 X155.221 Y170.216 E1.31838
G1 X155.324 Y170.635 E1.32988
G1 X155.525 Y171.018 E1.34139
G1 X155.812 Y171.341 E1.35289
G1 X156.167 Y171.587 E1.36439
G1 X156.571 Y171.74 E1.3759
G1 X157 Y171.792 E1.3874
G1 X157.429 Y171.74 E1.39891
G1 X157.833 Y171.587 E1.41041
G1 X158.188 Y171.341 E1.42191
G1 X158.475 Y171.018 E1.43342
G1 X158.676 Y170.635 E1.44492
G1 X158.779 Y170.216 E1.45642
G1 X158.779 Y169.784 E1.46793
G1 X158.676 Y169.365 E1.47943
G1 X158.475 Y168.982 E1.49093
G1 X158.188 Y168.659 E1.50244
