; generated by SuperSlicer 2.4 on 2022-11-12 at 16:02:27 UTC


;
;

;
;
; 

; external perimeters extrusion width = 0.60mm
; perimeters extrusion width = 0.60mm
; infill extrusion width = 0.45mm
; solid infill extrusion width = 0.45mm
; top infill extrusion width = 0.45mm
; first layer extrusion width = 0.45mm

; object:{"name":"rectangular 1","id":"rectangular 1.stl id:0 copy 0","object_center":[125.000000,105.000000,0.000000],"boundingbox_center":[125.000000,105.000000,40.000000],"boundingbox_size":[52.000000,15.000000,80.000000]}
; plater:{"center":[125.000000,105.000000,0.000000],"boundingbox_center":[125.000000,105.000000,40.000000],"boundingbox_size":[52.000000,15.000000,80.000000]}

M204 P6000 T7000 ; sets acceleration (P, T), mm/sec^2
;TYPE:Custom
; custom gcode: start_gcode
PRINT_START EXTRUDER_TEMP=220 BED_TEMP=50
; custom gcode end: start_gcode
M107 ; disable fan
G21 ; set units to millimeters
G90 ; use absolute coordinates
M82 ; use absolute distances for extrusion
G92 E0 ; reset extrusion distance
; custom gcode: start_filament_gcode
; Filament gcode
;SET_GCODE_OFFSET Z=0
;SET_PRESSURE_ADVANCE ADVANCE=0.05
; custom gcode end: start_filament_gcode
;_TOOLCHANGE 0
M109 S220 ; set temperature and wait for it to be reached
M190 S50 ; set bed temperature and wait for it to be reached
;LAYER_CHANGE
;Z:0.3
;HEIGHT:0.3
; custom gcode: before_layer_gcode
;BEFORE_LAYER_CHANGE
;0.3
; custom gcode end: before_layer_gcode

G1 Z0.3 F10800 ; move to next layer (0)
; custom gcode: layer_gcode
;AFTER_LAYER_CHANGE
;0.3
; custom gcode end: layer_gcode

G1 E-0.6 F7200 ; retract
; printing object rectangular 1.stl id:0 copy 0
M204 S800 ; adjust acceleration
G1 X126.592 Y107.032 F10800 ; move to first External perimeter point (minimum acceleration)
G1 E0 F3600 ; unretract
;TYPE:External perimeter
;WIDTH:0.45
G1 F3000
G1 X126.598 Y105.645 E0.05941 ; External perimeter
G1 X126.665 Y105.443 E0.06853 ; External perimeter
G1 X126.868 Y105.375 E0.07768 ; External perimeter
G1 X127.387 Y105.376 E0.09992 ; External perimeter
G1 X127.55 Y105.45 E0.10758 ; External perimeter
G1 X127.624 Y105.614 E0.11525 ; External perimeter
G1 X127.623 Y111.302 E0.35873 ; External perimeter
G1 X127.544 Y111.452 E0.36602 ; External perimeter
G1 X127.386 Y111.524 E0.37346 ; External perimeter
G1 X126.75 Y111.516 E0.40068 ; External perimeter
G1 X126.671 Y111.414 E0.40618 ; External perimeter
G1 X126.394 Y111.535 E0.41913 ; External perimeter
G1 X126.007 Y111.592 E0.43587 ; External perimeter
G1 X125.711 Y111.566 E0.44858 ; External perimeter
G1 X125.451 Y111.489 E0.46019 ; External perimeter
G1 X125.316 Y111.424 E0.46659 ; External perimeter
G1 X125.094 Y111.265 E0.47826 ; External perimeter
G1 X124.838 Y110.948 E0.49573 ; External perimeter
G1 X124.683 Y110.561 E0.51358 ; External perimeter
G1 X124.635 Y110.132 E0.53205 ; External perimeter
G1 X124.635 Y108.348 E0.60841 ; External perimeter
G1 X124.683 Y107.911 E0.62724 ; External perimeter
G1 X124.836 Y107.526 E0.64496 ; External perimeter
G1 X125.007 Y107.294 E0.65727 ; External perimeter
G1 X125.317 Y107.05 E0.67419 ; External perimeter
G1 X125.581 Y106.943 E0.68638 ; External perimeter
G1 X126.002 Y106.887 E0.70455 ; External perimeter
G1 X126.399 Y106.946 E0.72173 ; External perimeter
G1 X126.538 Y107.008 E0.72824 ; External perimeter
;WIPE_START
M204 S1000 ; adjust acceleration
G1 X126.988 Y107.089 F10800 ; move inwards before travel
;WIPE_END
G92 E0 ; reset extrusion distance
G1 E-0.6 F7200 ; retract
; acceleration to travel
M204 S1500 ; adjust acceleration
G1 X124.964 Y106.444 F10800 ; move to first External perimeter point (acceleration)
; decel to extrusion
M204 S800 ; adjust acceleration
G1 X123.885 Y106.1 ; move to first External perimeter point (deceleration)
; end travel
G1 E0 F3600 ; unretract
G1 F3000
G1 X123.818 Y106.302 E0.00912 ; External perimeter
G1 X123.654 Y106.507 E0.02035 ; External perimeter
G1 X123.421 Y106.632 E0.0317 ; External perimeter
G1 X123.147 Y106.656 E0.04344 ; External perimeter
G1 X122.887 Y106.583 E0.05502 ; External perimeter
G1 X122.679 Y106.41 E0.0666 ; External perimeter
G1 X122.557 Y106.17 E0.0781 ; External perimeter
G1 X122.543 Y105.841 E0.09223 ; External perimeter
G1 X122.64 Y105.588 E0.10383 ; External perimeter
G1 X122.831 Y105.397 E0.11539 ; External perimeter
G1 X123.08 Y105.301 E0.12678 ; External perimeter
G1 X123.348 Y105.301 E0.13828 ; External perimeter
G1 X123.546 Y105.368 E0.1472 ; External perimeter
G1 X123.749 Y105.533 E0.15841 ; External perimeter
G1 X123.871 Y105.774 E0.16998 ; External perimeter
G1 X123.882 Y106.04 E0.18136 ; External perimeter
;WIPE_START
M204 S1000 ; adjust acceleration
G1 X123.506 Y106.227 F10800 ; move inwards before travel
;WIPE_END
M204 S800 ; adjust acceleration
G1 X123.661 Y107.03 ; move to first External perimeter point (minimum acceleration)
G1 F3000
G1 X123.735 Y107.193 E0.18903 ; External perimeter
G1 X123.736 Y111.249 E0.36265 ; External perimeter
G1 X123.686 Y111.428 E0.37061 ; External perimeter
G1 X123.504 Y111.524 E0.3794 ; External perimeter
G1 X122.947 Y111.524 E0.40327 ; External perimeter
G1 X122.784 Y111.45 E0.41094 ; External perimeter
G1 X122.709 Y111.286 E0.41861 ; External perimeter
G1 X122.708 Y107.225 E0.59248 ; External perimeter
G1 X122.776 Y107.022 E0.60161 ; External perimeter
G1 X122.978 Y106.955 E0.61076 ; External perimeter
G1 X123.498 Y106.956 E0.63301 ; External perimeter
G1 X123.606 Y107.005 E0.63809 ; External perimeter
;WIPE_START
M204 S1000 ; adjust acceleration
G1 X123.512 Y107.401 F10800 ; move inwards before travel
;WIPE_END
G92 E0 ; reset extrusion distance
G1 E-0.6 F7200 ; retract
; acceleration to travel
M204 S1500 ; adjust acceleration
G1 X121.722 Y108.21 F10800 ; move to first External perimeter point (acceleration)
; decel to extrusion
M204 S800 ; adjust acceleration
G1 X120.767 Y108.642 ; move to first External perimeter point (deceleration)
; end travel
G1 E0 F3600 ; unretract
G1 F3000
G1 X120.762 Y108.351 E0.01245 ; External perimeter
G1 X120.712 Y108.147 E0.02143 ; External perimeter
G1 X120.663 Y108.047 E0.02622 ; External perimeter
G1 X120.599 Y107.963 E0.03072 ; External perimeter
G1 X120.529 Y107.905 E0.03459 ; External perimeter
G1 X120.452 Y107.868 E0.03825 ; External perimeter
G1 X120.358 Y107.848 E0.04236 ; External perimeter
G1 X120.27 Y107.847 E0.04613 ; External perimeter
G1 X120.156 Y107.873 E0.05115 ; External perimeter
G1 X120.104 Y107.9 E0.05365 ; External perimeter
G1 X120.01 Y107.98 E0.05894 ; External perimeter
G1 X119.971 Y108.032 E0.06173 ; External perimeter
G1 X119.92 Y108.145 E0.06703 ; External perimeter
G1 X119.883 Y108.336 E0.07537 ; External perimeter
G1 X119.742 Y108.496 E0.0845 ; External perimeter
G1 X119.085 Y108.496 E0.11262 ; External perimeter
G1 X118.838 Y108.363 E0.12463 ; External perimeter
G1 X118.86 Y108.035 E0.13875 ; External perimeter
G1 X118.931 Y107.774 E0.1503 ; External perimeter
G1 X119.049 Y107.539 E0.16158 ; External perimeter
G1 X119.214 Y107.332 E0.1729 ; External perimeter
G1 X119.419 Y107.157 E0.18444 ; External perimeter
G1 X119.656 Y107.022 E0.19609 ; External perimeter
G1 X120.035 Y106.911 E0.21302 ; External perimeter
G1 X120.323 Y106.889 E0.22539 ; External perimeter
G1 X120.628 Y106.915 E0.23848 ; External perimeter
G1 X120.786 Y106.952 E0.24541 ; External perimeter
G1 X121.054 Y107.06 E0.25778 ; External perimeter
G1 X121.294 Y107.228 E0.27032 ; External perimeter
G1 X121.496 Y107.446 E0.28306 ; External perimeter
G1 X121.645 Y107.698 E0.29558 ; External perimeter
G1 X121.706 Y107.849 E0.30253 ; External perimeter
G1 X121.778 Y108.145 E0.31561 ; External perimeter
G1 X121.801 Y108.466 E0.32938 ; External perimeter
G1 X121.801 Y111.244 E0.44829 ; External perimeter
G1 X121.766 Y111.397 E0.45499 ; External perimeter
G1 X121.606 Y111.521 E0.46365 ; External perimeter
G1 X120.902 Y111.512 E0.49382 ; External perimeter
G1 X120.83 Y111.393 E0.49976 ; External perimeter
G1 X120.53 Y111.525 E0.51379 ; External perimeter
G1 X120.218 Y111.584 E0.52742 ; External perimeter
G1 X119.808 Y111.573 E0.54497 ; External perimeter
G1 X119.564 Y111.515 E0.55568 ; External perimeter
G1 X119.342 Y111.42 E0.56605 ; External perimeter
G1 X119.131 Y111.283 E0.57683 ; External perimeter
G1 X118.946 Y111.087 E0.58836 ; External perimeter
G1 X118.814 Y110.827 E0.60081 ; External perimeter
G1 X118.725 Y110.375 E0.62056 ; External perimeter
G1 X118.747 Y109.849 E0.64307 ; External perimeter
G1 X118.786 Y109.668 E0.65099 ; External perimeter
G1 X118.903 Y109.371 E0.66464 ; External perimeter
G1 X119.082 Y109.123 E0.67776 ; External perimeter
G1 X119.206 Y109.009 E0.68498 ; External perimeter
G1 X119.46 Y108.843 E0.69794 ; External perimeter
G1 X119.889 Y108.691 E0.71744 ; External perimeter
G1 X120.221 Y108.645 E0.73176 ; External perimeter
G1 X120.707 Y108.642 E0.75259 ; External perimeter
;WIPE_START
M204 S1000 ; adjust acceleration
G1 X121.167 Y108.636 F10800 ; move inwards before travel
;WIPE_END
G92 E0 ; reset extrusion distance
G1 E-0.6 F7200 ; retract
; acceleration to travel
M204 S1500 ; adjust acceleration
G1 X117.908 Y107.582 F10800 ; move to first External perimeter point (acceleration)
; decel to extrusion
M204 S800 ; adjust acceleration
G1 X116.17 Y107.019 ; move to first External perimeter point (deceleration)
; end travel
G1 E0 F3600 ; unretract
G1 F3000
G1 X116.455 Y106.925 E0.01284 ; External perimeter
G1 X116.885 Y106.902 E0.03127 ; External perimeter
G1 X117.27 Y106.998 E0.04828 ; External perimeter
G1 X117.501 Y107.136 E0.05978 ; External perimeter
G1 X117.692 Y107.327 E0.07137 ; External perimeter
G1 X117.887 Y107.671 E0.0883 ; External perimeter
G1 X117.968 Y107.956 E0.10095 ; External perimeter
G1 X118.01 Y108.407 E0.12036 ; External perimeter
G1 X118.01 Y111.239 E0.24159 ; External perimeter
G1 X117.985 Y111.371 E0.24734 ; External perimeter
G1 X117.841 Y111.516 E0.25609 ; External perimeter
G1 X117.193 Y111.525 E0.28381 ; External perimeter
G1 X116.987 Y111.365 E0.29498 ; External perimeter
G1 X116.971 Y108.305 E0.42595 ; External perimeter
G1 X116.925 Y108.115 E0.43433 ; External perimeter
G1 X116.881 Y108.027 E0.43854 ; External perimeter
G1 X116.826 Y107.956 E0.44238 ; External perimeter
G1 X116.763 Y107.907 E0.44578 ; External perimeter
G1 X116.696 Y107.877 E0.44893 ; External perimeter
G1 X116.541 Y107.854 E0.45563 ; External perimeter
G1 X116.439 Y107.864 E0.46003 ; External perimeter
G1 X116.359 Y107.89 E0.46362 ; External perimeter
G1 X116.243 Y107.972 E0.46971 ; External perimeter
G1 X116.187 Y108.045 E0.47367 ; External perimeter
G1 X116.139 Y108.142 E0.47827 ; External perimeter
G1 X116.091 Y108.341 E0.48706 ; External perimeter
G1 X116.074 Y111.332 E0.61507 ; External perimeter
G1 X115.951 Y111.49 E0.62363 ; External perimeter
G1 X115.799 Y111.525 E0.63035 ; External perimeter
G1 X115.269 Y111.524 E0.65301 ; External perimeter
G1 X115.06 Y111.38 E0.66387 ; External perimeter
G1 X115.052 Y105.645 E0.90937 ; External perimeter
G1 X115.119 Y105.442 E0.91851 ; External perimeter
G1 X115.322 Y105.375 E0.92766 ; External perimeter
G1 X115.835 Y105.376 E0.94964 ; External perimeter
G1 X115.982 Y105.434 E0.95641 ; External perimeter
G1 X116.076 Y105.591 E0.96423 ; External perimeter
G1 X116.086 Y107.072 E1.02762 ; External perimeter
G1 X116.119 Y107.051 E1.02928 ; External perimeter
;WIPE_START
M204 S1000 ; adjust acceleration
G1 X116.489 Y107.261 F10800 ; move inwards before travel
;WIPE_END
G92 E0 ; reset extrusion distance
G1 E-0.6 F7200 ; retract
; acceleration to travel
M204 S1500 ; adjust acceleration
G1 X114.96 Y106.636 F10800 ; move to first External perimeter point (acceleration)
; decel to extrusion
M204 S800 ; adjust acceleration
G1 X114.145 Y106.302 ; move to first External perimeter point (deceleration)
; end travel
G1 E0 F3600 ; unretract
G1 F3000
G1 X113.981 Y106.507 E0.01123 ; External perimeter
G1 X113.747 Y106.632 E0.02257 ; External perimeter
G1 X113.474 Y106.656 E0.03431 ; External perimeter
G1 X113.214 Y106.583 E0.0459 ; External perimeter
G1 X113.006 Y106.41 E0.05747 ; External perimeter
G1 X112.884 Y106.17 E0.06898 ; External perimeter
G1 X112.87 Y105.841 E0.08311 ; External perimeter
G1 X112.967 Y105.588 E0.09471 ; External perimeter
G1 X113.158 Y105.397 E0.10627 ; External perimeter
G1 X113.407 Y105.301 E0.11766 ; External perimeter
G1 X113.675 Y105.301 E0.12915 ; External perimeter
G1 X113.873 Y105.368 E0.13808 ; External perimeter
G1 X114.075 Y105.533 E0.14929 ; External perimeter
G1 X114.198 Y105.774 E0.16086 ; External perimeter
G1 X114.212 Y106.1 E0.1748 ; External perimeter
G1 X114.164 Y106.245 E0.18136 ; External perimeter
;WIPE_START
M204 S1000 ; adjust acceleration
G1 X113.745 Y106.29 F10800 ; move inwards before travel
;WIPE_END
M204 S800 ; adjust acceleration
G1 X113.988 Y107.03 ; move to first External perimeter point (minimum acceleration)
G1 F3000
G1 X114.062 Y107.193 E0.18903 ; External perimeter
G1 X114.063 Y111.249 E0.36266 ; External perimeter
G1 X114.013 Y111.428 E0.37061 ; External perimeter
G1 X113.831 Y111.524 E0.3794 ; External perimeter
G1 X113.274 Y111.524 E0.40327 ; External perimeter
G1 X113.111 Y111.45 E0.41094 ; External perimeter
G1 X113.036 Y111.286 E0.41861 ; External perimeter
G1 X113.035 Y107.225 E0.59248 ; External perimeter
G1 X113.103 Y107.022 E0.60161 ; External perimeter
G1 X113.305 Y106.955 E0.61076 ; External perimeter
G1 X113.825 Y106.956 E0.63301 ; External perimeter
G1 X113.933 Y107.005 E0.6381 ; External perimeter
;WIPE_START
M204 S1000 ; adjust acceleration
G1 X113.839 Y107.401 F10800 ; move inwards before travel
;WIPE_END
G92 E0 ; reset extrusion distance
G1 E-0.6 F7200 ; retract
; acceleration to travel
M204 S1500 ; adjust acceleration
G1 X111.25 Y107.344 F10800 ; move to first External perimeter point (acceleration)
; decel to extrusion
M204 S800 ; adjust acceleration
G1 X109.869 Y107.313 ; move to first External perimeter point (deceleration)
; end travel
G1 E0 F3600 ; unretract
G1 F3000
G1 X110.038 Y107.157 E0.00984 ; External perimeter
G1 X110.335 Y106.99 E0.0244 ; External perimeter
G1 X110.653 Y106.908 E0.03846 ; External perimeter
G1 X110.832 Y106.897 E0.04617 ; External perimeter
G1 X111.099 Y106.923 E0.05764 ; External perimeter
G1 X111.242 Y106.961 E0.06395 ; External perimeter
G1 X111.469 Y107.068 E0.07471 ; External perimeter
G1 X111.587 Y107.155 E0.08097 ; External perimeter
G1 X111.766 Y107.344 E0.09214 ; External perimeter
G1 X111.907 Y107.58 E0.10392 ; External perimeter
G1 X112.005 Y107.849 E0.11614 ; External perimeter
G1 X112.061 Y108.147 E0.12913 ; External perimeter
G1 X112.079 Y108.468 E0.1429 ; External perimeter
G1 X112.079 Y111.249 E0.26196 ; External perimeter
G1 X112.025 Y111.443 E0.27056 ; External perimeter
G1 X111.815 Y111.525 E0.2802 ; External perimeter
G1 X111.34 Y111.525 E0.30054 ; External perimeter
G1 X111.188 Y111.49 E0.30725 ; External perimeter
G1 X111.065 Y111.332 E0.31581 ; External perimeter
G1 X111.049 Y108.348 E0.44353 ; External perimeter
G1 X111.023 Y108.211 E0.44951 ; External perimeter
G1 X110.983 Y108.1 E0.45457 ; External perimeter
G1 X110.892 Y107.96 E0.46172 ; External perimeter
G1 X110.834 Y107.908 E0.46504 ; External perimeter
G1 X110.775 Y107.877 E0.46789 ; External perimeter
G1 X110.641 Y107.854 E0.47368 ; External perimeter
G1 X110.551 Y107.864 E0.47758 ; External perimeter
G1 X110.478 Y107.888 E0.48088 ; External perimeter
G1 X110.367 Y107.97 E0.48677 ; External perimeter
G1 X110.312 Y108.043 E0.49071 ; External perimeter
G1 X110.265 Y108.14 E0.49532 ; External perimeter
G1 X110.218 Y108.341 E0.50413 ; External perimeter
G1 X110.201 Y111.332 E0.63217 ; External perimeter
G1 X110.078 Y111.49 E0.64073 ; External perimeter
G1 X109.926 Y111.525 E0.64743 ; External perimeter
G1 X109.442 Y111.525 E0.66812 ; External perimeter
G1 X109.233 Y111.443 E0.67776 ; External perimeter
G1 X109.178 Y111.25 E0.68635 ; External perimeter
G1 X109.167 Y108.348 E0.81057 ; External perimeter
G1 X109.142 Y108.211 E0.81654 ; External perimeter
