; generated by SuperSlicer 2.4 on 2022-10-22 at 20:55:30 UTC


;
;

;
;
; 

; external perimeters extrusion width = 0.45mm
; perimeters extrusion width = 0.45mm
; infill extrusion width = 0.45mm
; solid infill extrusion width = 0.48mm
; top infill extrusion width = 0.42mm
; support material extrusion width = 0.45mm
; first layer extrusion width = 0.38mm

; external perimeters extrusion width = 0.45mm
; perimeters extrusion width = 0.45mm
; infill extrusion width = 0.45mm
; solid infill extrusion width = 0.48mm
; top infill extrusion width = 0.42mm
; support material extrusion width = 0.45mm
; first layer extrusion width = 0.38mm

; object:{"name":"Soporte","id":"Soporte.STL id:0 copy 0","object_center":[165.000000,162.500000,0.000000],"boundingbox_center":[165.000000,162.500000,11.750000],"boundingbox_size":[55.099998,35.000000,23.500000]}
; object:{"name":"ArmDock","id":"ArmDock.STL id:1 copy 0","object_center":[172.616783,128.852480,0.000000],"boundingbox_center":[172.616783,128.852480,5.000001],"boundingbox_size":[40.000000,47.000000,10.000002]}
; plater:{"center":[165.033392,142.676240,0.000000],"boundingbox_center":[165.033392,142.676240,11.750000],"boundingbox_size":[55.166783,74.647520,23.500000]}

M73 P0 R56
;TYPE:Custom
; custom gcode: start_gcode
M104 S0 ; Stops PS/SS from sending temp waits separately
M140 S0
PRINT_START EXTRUDER_TEMP=235 BED_TEMP=65
; custom gcode end: start_gcode
M107
G21 ; set units to millimeters
G90 ; use absolute coordinates
M83 ; use relative distances for extrusion
; custom gcode: start_filament_gcode
; Filament gcode
;SET_GCODE_OFFSET Z=0
;SET_PRESSURE_ADVANCE ADVANCE=0.05
; custom gcode end: start_filament_gcode
;_TOOLCHANGE 0
;LAYER_CHANGE
;Z:0.2
;HEIGHT:0.2
G1 E-1.2 F1800
G1 Z0.2 F30000
G92 E0
M104 S235 ; set temperature
; printing object Soporte.STL id:0 copy 0
G1 X152.906 Y165.579
G1 E1.2 F1800
;TYPE:Internal perimeter
;WIDTH:0.38
G1 F1500
G1 X152.645 Y165.862 E0.01014
G1 X152.404 Y166.23 E0.01161
G1 X152.227 Y166.634 E0.01161
G1 X152.119 Y167.061 E0.01161
G1 X152.086 Y167.46 E0.01055
G1 X152.086 Y175.54 E0.21287
G1 X152.119 Y175.939 E0.01055
G1 X152.227 Y176.366 E0.01161
G1 X152.404 Y176.77 E0.01161
G1 X152.645 Y177.138 E0.01161
G1 X152.943 Y177.463 E0.01161
G1 X153.291 Y177.733 E0.01161
G1 X153.678 Y177.943 E0.01161
G1 X154.095 Y178.086 E0.01161
G1 X154.53 Y178.158 E0.01161
G1 X154.97 Y178.158 E0.01161
G1 X155.405 Y178.086 E0.01161
G1 X155.822 Y177.943 E0.01161
G1 X156.209 Y177.733 E0.01161
G1 X156.557 Y177.463 E0.01161
G1 X156.855 Y177.138 E0.01161
G1 X157.096 Y176.77 E0.01161
G1 X157.273 Y176.366 E0.01161
G1 X157.381 Y175.939 E0.01161
G1 X157.414 Y175.54 E0.01055
G1 X157.414 Y167.46 E0.21287
G1 X157.381 Y167.061 E0.01055
G1 X157.273 Y166.634 E0.01161
G1 X157.096 Y166.23 E0.01161
G1 X156.855 Y165.862 E0.01161
G1 X156.557 Y165.537 E0.01161
G1 X156.209 Y165.267 E0.01161
G1 X155.822 Y165.057 E0.01161
G1 X155.405 Y164.914 E0.01161
G1 X154.97 Y164.842 E0.01161
G1 X154.53 Y164.842 E0.01161
G1 X154.095 Y164.914 E0.01161
G1 X153.678 Y165.057 E0.01161
G1 X153.291 Y165.267 E0.01161
G1 X152.943 Y165.537 E0.01161
G1 X152.906 Y165.579 E0.00147
G1 X153.154 Y165.807 F30000
G1 F1500
G1 X152.912 Y166.069 E0.0094
G1 X152.702 Y166.391 E0.01014
G1 X152.547 Y166.744 E0.01014
G1 X152.453 Y167.117 E0.01013
G1 X152.423 Y167.474 E0.00945
G1 X152.423 Y175.526 E0.21214
G1 X152.453 Y175.883 E0.00945
G1 X152.547 Y176.256 E0.01014
G1 X152.702 Y176.609 E0.01014
G1 X152.912 Y176.931 E0.01014
G1 X153.172 Y177.214 E0.01014
G1 X153.476 Y177.45 E0.01014
G1 X153.814 Y177.633 E0.01014
G1 X154.178 Y177.758 E0.01014
G1 X154.558 Y177.821 E0.01014
G1 X154.942 Y177.821 E0.01014
G1 X155.322 Y177.758 E0.01014
G1 X155.686 Y177.633 E0.01014
G1 X156.024 Y177.45 E0.01014
G1 X156.328 Y177.214 E0.01014
G1 X156.588 Y176.931 E0.01014
G1 X156.798 Y176.609 E0.01014
G1 X156.953 Y176.256 E0.01014
G1 X157.047 Y175.883 E0.01014
G1 X157.077 Y175.526 E0.00945
G1 X157.077 Y167.474 E0.21214
G1 X157.047 Y167.117 E0.00945
G1 X156.953 Y166.744 E0.01014
G1 X156.798 Y166.391 E0.01014
G1 X156.588 Y166.069 E0.01014
G1 X156.328 Y165.786 E0.01014
G1 X156.024 Y165.55 E0.01014
G1 X155.686 Y165.367 E0.01014
G1 X155.322 Y165.242 E0.01013
G1 X154.942 Y165.179 E0.01014
G1 X154.558 Y165.179 E0.01014
G1 X154.178 Y165.242 E0.01014
G1 X153.814 Y165.367 E0.01014
G1 X153.476 Y165.55 E0.01014
G1 X153.172 Y165.786 E0.01014
G1 X153.154 Y165.807 E0.00074
G1 X153.402 Y166.035 F30000
;TYPE:External perimeter
G1 F1500
G1 X153.179 Y166.277 E0.00866
G1 X152.999 Y166.552 E0.00866
G1 X152.867 Y166.854 E0.00866
G1 X152.786 Y167.172 E0.00866
G1 X152.76 Y167.488 E0.00835
G1 X152.76 Y175.512 E0.2114
G1 X152.786 Y175.828 E0.00835
G1 X152.867 Y176.146 E0.00866
G1 X152.999 Y176.448 E0.00866
G1 X153.179 Y176.723 E0.00866
G1 X153.402 Y176.965 E0.00866
G1 X153.661 Y177.167 E0.00866
G1 X153.95 Y177.323 E0.00866
G1 X154.261 Y177.43 E0.00866
G1 X154.586 Y177.484 E0.00866
G1 X154.914 Y177.484 E0.00866
G1 X155.239 Y177.43 E0.00866
G1 X155.55 Y177.323 E0.00866
G1 X155.839 Y177.167 E0.00866
G1 X156.098 Y176.965 E0.00866
G1 X156.321 Y176.723 E0.00866
G1 X156.501 Y176.448 E0.00866
G1 X156.633 Y176.146 E0.00866
G1 X156.714 Y175.828 E0.00866
G1 X156.74 Y175.512 E0.00835
G1 X156.74 Y167.488 E0.2114
G1 X156.714 Y167.172 E0.00835
G1 X156.633 Y166.854 E0.00866
G1 X156.501 Y166.552 E0.00866
G1 X156.321 Y166.277 E0.00866
G1 X156.098 Y166.035 E0.00866
G1 X155.839 Y165.833 E0.00866
G1 X155.55 Y165.677 E0.00866
G1 X155.239 Y165.57 E0.00866
G1 X154.914 Y165.516 E0.00866
G1 X154.586 Y165.516 E0.00866
G1 X154.261 Y165.57 E0.00866
G1 X153.95 Y165.677 E0.00866
G1 X153.661 Y165.833 E0.00866
G1 X153.402 Y166.035 E0.00866
;WIPE_START
G1 X153.017 Y165.926 F30000
;WIPE_END
;WIPE_START
G1 F24000
G1 X152.822 Y166.457 E-0.04025
G1 X152.677 Y166.788 E-0.02579
G1 X152.588 Y167.139 E-0.02579
G1 X152.56 Y167.48 E-0.02434
G1 X152.56 Y175.52 E-0.57289
G1 X152.588 Y175.861 E-0.02434
G1 X152.677 Y176.212 E-0.02579
G1 X152.822 Y176.543 E-0.02579
G1 X153.02 Y176.846 E-0.02579
G1 X153.266 Y177.112 E-0.02579
G1 X153.551 Y177.335 E-0.02579
G1 X153.87 Y177.507 E-0.02579
G1 X154.212 Y177.625 E-0.02579
G1 X154.569 Y177.684 E-0.02579
G1 X154.931 Y177.684 E-0.02579
G1 X155.288 Y177.625 E-0.02579
G1 X155.63 Y177.507 E-0.02579
G1 X155.949 Y177.335 E-0.02579
G1 X156.234 Y177.112 E-0.02579
G1 X156.48 Y176.846 E-0.02579
G1 X156.678 Y176.543 E-0.02579
G1 X156.823 Y176.212 E-0.02579
G1 X156.871 Y176.022 E-0.01394
;WIPE_END
G1 E-0.06 F1800
G1 X179.049 Y167.488 F30000
G1 E1.2 F1800
;TYPE:Internal perimeter
G1 F1500
G1 X179.049 Y175.554 E0.21251
G1 X179.085 Y175.995 E0.01166
G1 X179.207 Y176.476 E0.01308
G1 X179.407 Y176.931 E0.01308
G1 X179.678 Y177.346 E0.01308
G1 X180.014 Y177.711 E0.01308
G1 X180.406 Y178.016 E0.01308
G1 X180.843 Y178.253 E0.01308
G1 X181.322 Y178.417 E0.01336
G1 X181.275 Y178.699 E0.00752
G1 X155.525 Y178.699 E0.67844
G1 X155.478 Y178.417 E0.00752
G1 X155.957 Y178.253 E0.01336
G1 X156.394 Y178.016 E0.01308
G1 X156.786 Y177.711 E0.01308
G1 X157.122 Y177.346 E0.01308
G1 X157.393 Y176.931 E0.01308
G1 X157.593 Y176.476 E0.01308
G1 X157.715 Y175.995 E0.01308
G1 X157.751 Y175.554 E0.01166
G1 X157.751 Y167.446 E0.21361
G1 X157.715 Y167.005 E0.01166
G1 X157.593 Y166.524 E0.01308
G1 X157.393 Y166.069 E0.01308
G1 X157.122 Y165.654 E0.01308
G1 X156.786 Y165.289 E0.01308
G1 X156.394 Y164.984 E0.01308
G1 X155.957 Y164.747 E0.01308
G1 X155.488 Y164.586 E0.01308
G1 X154.998 Y164.505 E0.01308
G1 X154.502 Y164.505 E0.01308
G1 X154.012 Y164.586 E0.01308
G1 X153.543 Y164.747 E0.01308
G1 X153.106 Y164.984 E0.01308
G1 X152.714 Y165.289 E0.01308
G1 X152.378 Y165.654 E0.01308
G1 X152.107 Y166.069 E0.01308
G1 X151.907 Y166.524 E0.01308
G1 X151.785 Y167.005 E0.01308
G1 X151.749 Y167.446 E0.01166
G1 X151.749 Y175.554 E0.21361
G1 X151.785 Y175.995 E0.01166
G1 X151.907 Y176.476 E0.01308
G1 X152.107 Y176.931 E0.01308
G1 X152.378 Y177.346 E0.01308
G1 X152.714 Y177.711 E0.01308
G1 X153.106 Y178.016 E0.01308
G1 X153.543 Y178.253 E0.01308
G1 X154.022 Y178.417 E0.01336
G1 X153.975 Y178.699 E0.00752
G1 X138.751 Y178.699 E0.4011
G1 X138.751 Y146.301 E0.85356
G1 X145.526 Y146.301 E0.1785
G1 X148.435 Y158.319 E0.32577
G1 X157.27 Y162.301 E0.25533
G1 X191.249 Y162.301 E0.89522
G1 X191.249 Y178.699 E0.43202
G1 X182.825 Y178.699 E0.22194
G1 X182.778 Y178.417 E0.00752
G1 X183.257 Y178.253 E0.01336
G1 X183.694 Y178.016 E0.01308
G1 X184.086 Y177.711 E0.01308
G1 X184.422 Y177.346 E0.01308
G1 X184.693 Y176.931 E0.01308
G1 X184.893 Y176.476 E0.01308
G1 X185.015 Y175.995 E0.01308
G1 X185.051 Y175.554 E0.01166
G1 X185.051 Y167.446 E0.21361
G1 X185.015 Y167.005 E0.01166
G1 X184.893 Y166.524 E0.01308
G1 X184.693 Y166.069 E0.01308
G1 X184.422 Y165.654 E0.01308
G1 X184.086 Y165.289 E0.01308
G1 X183.694 Y164.984 E0.01308
G1 X183.257 Y164.747 E0.01308
G1 X182.788 Y164.586 E0.01308
G1 X182.298 Y164.505 E0.01308
G1 X181.802 Y164.505 E0.01308
G1 X181.312 Y164.586 E0.01308
G1 X180.843 Y164.747 E0.01308
G1 X180.406 Y164.984 E0.01308
G1 X180.014 Y165.289 E0.01308
G1 X179.678 Y165.654 E0.01308
G1 X179.407 Y166.069 E0.01308
G1 X179.207 Y166.524 E0.01308
G1 X179.085 Y167.005 E0.01308
G1 X179.049 Y167.446 E0.01166
G1 X179.049 Y167.488 E0.0011
G1 X179.386 Y167.488 F30000
G1 F1500
G1 X179.386 Y175.54 E0.21214
M73 P1 R56
G1 X179.419 Y175.939 E0.01055
G1 X179.527 Y176.366 E0.01161
G1 X179.704 Y176.77 E0.01161
G1 X179.945 Y177.138 E0.01161
G1 X180.243 Y177.463 E0.01161
G1 X180.591 Y177.733 E0.01161
G1 X180.978 Y177.943 E0.01161
G1 X181.395 Y178.086 E0.01161
G1 X181.83 Y178.158 E0.01161
G1 X182.27 Y178.158 E0.01161
G1 X182.705 Y178.086 E0.01161
G1 X183.122 Y177.943 E0.01161
G1 X183.509 Y177.733 E0.01161
G1 X183.857 Y177.463 E0.01161
G1 X184.155 Y177.138 E0.01161
G1 X184.396 Y176.77 E0.01161
G1 X184.573 Y176.366 E0.01161
G1 X184.681 Y175.939 E0.01161
G1 X184.714 Y175.54 E0.01055
G1 X184.714 Y167.46 E0.21287
G1 X184.681 Y167.061 E0.01055
G1 X184.573 Y166.634 E0.01161
G1 X184.396 Y166.23 E0.01161
G1 X184.155 Y165.862 E0.01161
G1 X183.857 Y165.537 E0.01161
G1 X183.509 Y165.267 E0.01161
G1 X183.122 Y165.057 E0.01161
G1 X182.705 Y164.914 E0.01161
G1 X182.27 Y164.842 E0.01161
G1 X181.83 Y164.842 E0.01161
G1 X181.395 Y164.914 E0.01161
G1 X180.979 Y165.057 E0.01161
G1 X180.591 Y165.267 E0.01161
G1 X180.243 Y165.537 E0.01161
G1 X179.945 Y165.862 E0.01161
G1 X179.704 Y166.23 E0.01161
G1 X179.527 Y166.634 E0.01161
G1 X179.419 Y167.061 E0.01161
G1 X179.386 Y167.46 E0.01055
G1 X179.386 Y167.488 E0.00073
G1 X179.723 Y167.488 F30000
G1 F1500
G1 X179.723 Y175.526 E0.21177
G1 X179.753 Y175.883 E0.00945
G1 X179.847 Y176.256 E0.01014
G1 X180.002 Y176.609 E0.01014
G1 X180.212 Y176.931 E0.01014
G1 X180.472 Y177.214 E0.01014
G1 X180.776 Y177.45 E0.01014
G1 X181.114 Y177.633 E0.01014
G1 X181.478 Y177.758 E0.01014
G1 X181.858 Y177.821 E0.01014
G1 X182.242 Y177.821 E0.01013
G1 X182.622 Y177.758 E0.01014
G1 X182.986 Y177.633 E0.01014
G1 X183.324 Y177.45 E0.01014
G1 X183.628 Y177.214 E0.01014
G1 X183.888 Y176.931 E0.01013
G1 X184.098 Y176.609 E0.01014
G1 X184.253 Y176.256 E0.01014
G1 X184.347 Y175.883 E0.01014
G1 X184.377 Y175.526 E0.00945
G1 X184.377 Y167.474 E0.21214
G1 X184.347 Y167.117 E0.00945
G1 X184.253 Y166.744 E0.01014
G1 X184.098 Y166.391 E0.01014
G1 X183.888 Y166.069 E0.01013
G1 X183.628 Y165.786 E0.01014
G1 X183.324 Y165.55 E0.01014
G1 X182.986 Y165.367 E0.01014
G1 X182.622 Y165.242 E0.01014
G1 X182.242 Y165.179 E0.01014
G1 X181.858 Y165.179 E0.01014
G1 X181.478 Y165.242 E0.01014
G1 X181.114 Y165.367 E0.01013
G1 X180.776 Y165.55 E0.01014
G1 X180.472 Y165.786 E0.01014
G1 X180.212 Y166.069 E0.01014
G1 X180.002 Y166.391 E0.01014
G1 X179.847 Y166.744 E0.01014
G1 X179.753 Y167.117 E0.01014
G1 X179.723 Y167.474 E0.00945
G1 X179.723 Y167.488 E0.00037
G1 X180.06 Y167.488 F30000
;TYPE:External perimeter
G1 F1500
G1 X180.06 Y175.512 E0.2114
G1 X180.086 Y175.828 E0.00835
G1 X180.167 Y176.146 E0.00866
G1 X180.299 Y176.448 E0.00866
G1 X180.479 Y176.723 E0.00866
G1 X180.702 Y176.965 E0.00866
G1 X180.961 Y177.167 E0.00866
G1 X181.25 Y177.323 E0.00866
G1 X181.561 Y177.43 E0.00866
G1 X181.886 Y177.484 E0.00866
G1 X182.214 Y177.484 E0.00866
G1 X182.539 Y177.43 E0.00866
G1 X182.85 Y177.323 E0.00866
G1 X183.139 Y177.167 E0.00866
G1 X183.398 Y176.965 E0.00866
G1 X183.621 Y176.723 E0.00866
G1 X183.801 Y176.448 E0.00866
G1 X183.933 Y176.146 E0.00866
G1 X184.014 Y175.828 E0.00866
G1 X184.04 Y175.512 E0.00835
G1 X184.04 Y167.488 E0.2114
G1 X184.014 Y167.172 E0.00835
G1 X183.933 Y166.854 E0.00866
G1 X183.801 Y166.552 E0.00866
G1 X183.621 Y166.277 E0.00866
G1 X183.398 Y166.035 E0.00866
G1 X183.139 Y165.833 E0.00866
G1 X182.85 Y165.677 E0.00866
G1 X182.539 Y165.57 E0.00866
G1 X182.214 Y165.516 E0.00866
G1 X181.886 Y165.516 E0.00866
G1 X181.561 Y165.57 E0.00866
G1 X181.25 Y165.677 E0.00866
G1 X180.961 Y165.833 E0.00866
G1 X180.702 Y166.035 E0.00866
G1 X180.479 Y166.277 E0.00866
G1 X180.299 Y166.552 E0.00866
G1 X180.167 Y166.854 E0.00866
G1 X180.086 Y167.172 E0.00866
G1 X180.06 Y167.488 E0.00835
;WIPE_START
G1 X179.708 Y167.678 F30000
;WIPE_END
;WIPE_START
G1 F24000
G1 X179.86 Y175.52 E-0.55884
G1 X179.888 Y175.861 E-0.02434
G1 X179.977 Y176.212 E-0.02579
G1 X180.122 Y176.543 E-0.02579
G1 X180.32 Y176.846 E-0.02579
G1 X180.566 Y177.112 E-0.02579
G1 X180.851 Y177.335 E-0.02579
G1 X181.17 Y177.507 E-0.02579
G1 X181.512 Y177.625 E-0.02579
G1 X181.869 Y177.684 E-0.02579
G1 X182.231 Y177.684 E-0.02579
G1 X182.588 Y177.625 E-0.02579
G1 X182.93 Y177.507 E-0.02579
G1 X183.249 Y177.335 E-0.02579
G1 X183.534 Y177.112 E-0.02579
G1 X183.78 Y176.846 E-0.02579
G1 X183.978 Y176.543 E-0.02579
G1 X184.123 Y176.212 E-0.02579
G1 X184.212 Y175.861 E-0.02579
G1 X184.24 Y175.52 E-0.02434
G1 X184.24 Y174.2 E-0.09404
;WIPE_END
G1 E-0.06 F1800
G1 X191.586 Y161.964 F30000
G1 E1.2 F1800
;TYPE:Internal perimeter
G1 F1500
G1 X191.586 Y179.036 E0.44978
G1 X138.414 Y179.036 E1.40089
G1 X138.414 Y145.964 E0.87133
G1 X145.791 Y145.964 E0.19436
G1 X145.844 Y146.18 E0.00586
G1 X148.724 Y158.08 E0.32256
G1 X157.343 Y161.964 E0.24908
G1 X191.586 Y161.964 E0.90219
G1 X191.923 Y161.627 F30000
G1 F1500
G1 X191.923 Y179.373 E0.46754
G1 X138.077 Y179.373 E1.41865
G1 X138.077 Y145.627 E0.88909
G1 X146.057 Y145.627 E0.21023
G1 X146.171 Y146.101 E0.01285
G1 X149.013 Y157.84 E0.31822
G1 X157.415 Y161.627 E0.24282
G1 X191.923 Y161.627 E0.90916
G1 X192.26 Y161.29 F30000
;TYPE:External perimeter
G1 F1500
G1 X192.26 Y179.71 E0.4853
G1 X137.74 Y179.71 E1.43642
G1 X137.74 Y145.29 E0.90685
G1 X146.322 Y145.29 E0.2261
G1 X146.499 Y146.022 E0.01983
G1 X149.302 Y157.6 E0.31387
M73 P1 R55
G1 X157.488 Y161.29 E0.23657
G1 X192.26 Y161.29 E0.91613
;WIPE_START
G1 X192.06 Y161.636 F30000
;WIPE_END
G1 X191.148 Y163.084
;TYPE:Solid infill
;WIDTH:0.38189
G1 F2100
G1 X190.611 Y162.547 E0.02009
G1 X190.134 Y162.547 E0.01262
G1 X191.003 Y163.416 E0.03251
G1 X191.003 Y163.892 E0.01262
G1 X189.658 Y162.547 E0.05036
G1 X189.181 Y162.547 E0.01262
G1 X191.003 Y164.369 E0.06821
G1 X191.003 Y164.846 E0.01262
G1 X188.704 Y162.547 E0.08606
G1 X188.228 Y162.547 E0.01262
G1 X191.003 Y165.322 E0.10391
G1 X191.003 Y165.799 E0.01262
G1 X187.751 Y162.547 E0.12176
G1 X187.274 Y162.547 E0.01262
G1 X191.003 Y166.276 E0.13961
G1 X191.003 Y166.752 E0.01262
G1 X186.798 Y162.547 E0.15746
G1 X186.321 Y162.547 E0.01262
G1 X191.003 Y167.229 E0.17531
G1 X191.003 Y167.706 E0.01262
G1 X185.844 Y162.547 E0.19316
G1 X185.367 Y162.547 E0.01262
G1 X191.003 Y168.183 E0.21101
G1 X191.003 Y168.659 E0.01262
G1 X184.891 Y162.547 E0.22886
G1 X184.414 Y162.547 E0.01262
G1 X191.003 Y169.136 E0.24671
G1 X191.003 Y169.613 E0.01262
G1 X183.937 Y162.547 E0.26456
G1 X183.461 Y162.547 E0.01262
G1 X191.003 Y170.089 E0.28241
G1 X191.003 Y170.566 E0.01262
G1 X182.984 Y162.547 E0.30026
G1 X182.507 Y162.547 E0.01262
G1 X191.003 Y171.043 E0.31811
G1 X191.003 Y171.519 E0.01262
G1 X182.031 Y162.547 E0.33596
G1 X181.554 Y162.547 E0.01262
G1 X191.003 Y171.996 E0.35381
G1 X191.003 Y172.473 E0.01262
G1 X185.161 Y166.631 E0.21875
G1 X185.26 Y167.207 E0.01546
G1 X191.003 Y172.95 E0.21505
G1 X191.003 Y173.426 E0.01262
