; generated by SuperSlicer 2.4 on 2022-10-16 at 09:58:59 UTC


;
;

;
;
; 

; external perimeters extrusion width = 0.45mm
; perimeters extrusion width = 0.45mm
; infill extrusion width = 0.45mm
; solid infill extrusion width = 0.48mm
; top infill extrusion width = 0.40mm
; support material extrusion width = 0.45mm
; first layer extrusion width = 0.38mm

; object:{"name":"szczota","id":"szczota.stl id:0 copy 0","object_center":[128.760729,139.212205,0.000000],"boundingbox_center":[128.760729,139.212205,7.000000],"boundingbox_size":[80.500000,19.000004,14.000000]}
; plater:{"center":[128.760729,139.212205,0.000000],"boundingbox_center":[128.760729,139.212205,7.000000],"boundingbox_size":[80.500000,19.000004,14.000000]}

M73 P0 R17
;TYPE:Custom
; custom gcode: start_gcode
M104 S0 ; Stops PS/SS from sending temp waits separately
M140 S0
PRINT_START EXTRUDER_TEMP=235 BED_TEMP=65
; custom gcode end: start_gcode
M107
G21 ; set units to millimeters
G90 ; use absolute coordinates
M83 ; use relative distances for extrusion
; custom gcode: start_filament_gcode
; Filament gcode
;SET_GCODE_OFFSET Z=0
;SET_PRESSURE_ADVANCE ADVANCE=0.05
; custom gcode end: start_filament_gcode
;_TOOLCHANGE 0
;LAYER_CHANGE
;Z:0.24
;HEIGHT:0.24
G1 E-1.2 F1800
M73 P1 R17
G1 Z0.24 F30000
G92 E0
M104 S235 ; set temperature
; printing object szczota.stl id:0 copy 0
G1 X135.598 Y136.5
G1 E1.2 F1800
;TYPE:Internal perimeter
;WIDTH:0.38
G1 F4500
G1 X135.546 Y136.54 E0.00205
G1 X135.275 Y136.822 E0.01218
G1 X135.042 Y137.137 E0.01218
G1 X134.854 Y137.48 E0.01218
G1 X134.714 Y137.845 E0.01218
G1 X134.623 Y138.225 E0.01218
G1 X134.584 Y138.614 E0.01218
G1 X134.597 Y139.005 E0.01218
G1 X134.662 Y139.391 E0.01218
G1 X134.778 Y139.765 E0.01218
G1 X134.943 Y140.119 E0.01218
G1 X135.153 Y140.449 E0.01218
G1 X135.406 Y140.748 E0.01218
G1 X135.696 Y141.01 E0.01218
G1 X136.018 Y141.232 E0.01218
G1 X136.368 Y141.408 E0.01218
G1 X136.737 Y141.536 E0.01218
G1 X137.12 Y141.614 E0.01218
G1 X137.511 Y141.641 E0.01218
G1 X137.901 Y141.614 E0.01218
G1 X138.284 Y141.536 E0.01218
G1 X138.654 Y141.408 E0.01218
G1 X139.003 Y141.232 E0.01218
G1 X139.326 Y141.01 E0.01218
G1 X139.616 Y140.748 E0.01218
G1 X139.868 Y140.449 E0.01218
G1 X140.079 Y140.119 E0.01218
G1 X140.243 Y139.765 E0.01218
G1 X140.359 Y139.391 E0.01218
G1 X140.424 Y139.005 E0.01218
G1 X140.437 Y138.614 E0.01218
G1 X140.398 Y138.225 E0.01218
G1 X140.308 Y137.845 E0.01218
G1 X140.167 Y137.48 E0.01218
G1 X139.979 Y137.137 E0.01218
G1 X139.747 Y136.822 E0.01218
G1 X139.475 Y136.54 E0.01218
G1 X139.168 Y136.298 E0.01218
G1 X138.831 Y136.099 E0.01218
G1 X138.471 Y135.946 E0.01218
G1 X138.094 Y135.843 E0.01218
G1 X137.706 Y135.79 E0.01218
G1 X137.315 Y135.79 E0.01218
G1 X136.927 Y135.843 E0.01218
G1 X136.55 Y135.946 E0.01218
G1 X136.19 Y136.099 E0.01218
G1 X135.853 Y136.298 E0.01218
G1 X135.598 Y136.5 E0.01013
G1 X135.802 Y136.757 F30000
G1 F4500
G1 X135.767 Y136.785 E0.00137
G1 X135.526 Y137.034 E0.01081
G1 X135.32 Y137.314 E0.01081
G1 X135.153 Y137.618 E0.01081
G1 X135.028 Y137.942 E0.01081
G1 X134.948 Y138.28 E0.01081
G1 X134.913 Y138.625 E0.01081
G1 X134.925 Y138.972 E0.01081
G1 X134.982 Y139.315 E0.01081
G1 X135.085 Y139.646 E0.01081
G1 X135.231 Y139.961 E0.01081
G1 X135.418 Y140.254 E0.01081
G1 X135.642 Y140.519 E0.01081
G1 X135.9 Y140.752 E0.01081
G1 X136.186 Y140.948 E0.01081
G1 X136.496 Y141.105 E0.01081
G1 X136.824 Y141.219 E0.01081
G1 X137.164 Y141.288 E0.01081
G1 X137.511 Y141.311 E0.01081
G1 X137.857 Y141.288 E0.01081
G1 X138.197 Y141.219 E0.01081
G1 X138.525 Y141.105 E0.01081
G1 X138.835 Y140.948 E0.01081
G1 X139.122 Y140.752 E0.01081
G1 X139.379 Y140.519 E0.01081
G1 X139.603 Y140.254 E0.01081
G1 X139.79 Y139.961 E0.01081
G1 X139.936 Y139.646 E0.01081
G1 X140.039 Y139.315 E0.01081
G1 X140.097 Y138.972 E0.01081
G1 X140.108 Y138.625 E0.01081
G1 X140.074 Y138.28 E0.01081
G1 X139.993 Y137.942 E0.01081
G1 X139.868 Y137.618 E0.01081
G1 X139.701 Y137.314 E0.01081
G1 X139.496 Y137.034 E0.01081
G1 X139.254 Y136.785 E0.01081
G1 X138.982 Y136.569 E0.01081
G1 X138.683 Y136.392 E0.01081
G1 X138.363 Y136.257 E0.01081
G1 X138.028 Y136.165 E0.01081
G1 X137.684 Y136.119 E0.01081
G1 X137.337 Y136.119 E0.01081
G1 X136.993 Y136.165 E0.01081
G1 X136.658 Y136.257 E0.01081
G1 X136.339 Y136.392 E0.01081
G1 X136.04 Y136.569 E0.01081
G1 X135.802 Y136.757 E0.00944
G1 X136.005 Y137.015 F30000
G1 F4500
G1 X135.777 Y137.247 E0.01012
G1 X135.597 Y137.491 E0.00944
G1 X135.452 Y137.757 E0.00944
G1 X135.343 Y138.04 E0.00944
G1 X135.272 Y138.335 E0.00944
G1 X135.242 Y138.636 E0.00944
G1 X135.252 Y138.939 E0.00944
G1 X135.303 Y139.238 E0.00944
G1 X135.393 Y139.528 E0.00944
G1 X135.52 Y139.803 E0.00944
G1 X135.683 Y140.059 E0.00944
G1 X135.879 Y140.29 E0.00944
G1 X136.104 Y140.494 E0.00944
G1 X136.354 Y140.665 E0.00944
G1 X136.625 Y140.802 E0.00944
G1 X136.911 Y140.901 E0.00944
G1 X137.208 Y140.962 E0.00944
G1 X137.511 Y140.982 E0.00944
G1 X137.813 Y140.962 E0.00944
G1 X138.11 Y140.901 E0.00944
G1 X138.397 Y140.802 E0.00944
G1 X138.667 Y140.665 E0.00944
G1 X138.917 Y140.494 E0.00944
G1 X139.142 Y140.29 E0.00944
G1 X139.338 Y140.059 E0.00944
G1 X139.501 Y139.803 E0.00944
G1 X139.629 Y139.528 E0.00944
G1 X139.719 Y139.238 E0.00944
G1 X139.769 Y138.939 E0.00944
G1 X139.779 Y138.636 E0.00944
G1 X139.749 Y138.335 E0.00944
G1 X139.679 Y138.04 E0.00944
G1 X139.57 Y137.757 E0.00944
G1 X139.424 Y137.491 E0.00944
G1 X139.244 Y137.247 E0.00944
G1 X139.033 Y137.029 E0.00944
G1 X138.795 Y136.841 E0.00944
G1 X138.534 Y136.686 E0.00944
G1 X138.255 Y136.568 E0.00944
G1 X137.963 Y136.488 E0.00944
G1 X137.662 Y136.447 E0.00944
G1 X137.359 Y136.447 E0.00944
G1 X137.059 Y136.488 E0.00944
G1 X136.766 Y136.568 E0.00944
G1 X136.487 Y136.686 E0.00944
G1 X136.226 Y136.841 E0.00944
G1 X136.005 Y137.015 E0.00876
G1 X136.209 Y137.273 F30000
;TYPE:External perimeter
G1 F4500
G1 X136.029 Y137.459 E0.00807
G1 X135.875 Y137.668 E0.00807
G1 X135.75 Y137.895 E0.00807
G1 X135.657 Y138.137 E0.00807
G1 X135.597 Y138.389 E0.00807
G1 X135.571 Y138.647 E0.00807
G1 X135.58 Y138.906 E0.00807
G1 X135.623 Y139.162 E0.00807
G1 X135.7 Y139.41 E0.00807
G1 X135.809 Y139.645 E0.00807
G1 X135.948 Y139.863 E0.00807
G1 X136.116 Y140.061 E0.00807
G1 X136.308 Y140.235 E0.00807
G1 X136.522 Y140.382 E0.00807
G1 X136.753 Y140.499 E0.00807
G1 X136.998 Y140.584 E0.00807
G1 X137.252 Y140.636 E0.00807
G1 X137.511 Y140.653 E0.00807
M73 P2 R17
G1 X137.769 Y140.636 E0.00807
G1 X138.023 Y140.584 E0.00807
G1 X138.268 Y140.499 E0.00807
G1 X138.5 Y140.382 E0.00807
G1 X138.713 Y140.235 E0.00807
G1 X138.906 Y140.061 E0.00807
G1 X139.073 Y139.863 E0.00807
G1 X139.213 Y139.645 E0.00807
G1 X139.322 Y139.41 E0.00807
G1 X139.399 Y139.162 E0.00807
G1 X139.442 Y138.906 E0.00807
G1 X139.45 Y138.647 E0.00807
G1 X139.424 Y138.389 E0.00807
G1 X139.364 Y138.137 E0.00807
G1 X139.271 Y137.895 E0.00807
G1 X139.146 Y137.668 E0.00807
G1 X138.993 Y137.459 E0.00807
G1 X138.812 Y137.273 E0.00807
G1 X138.609 Y137.112 E0.00807
G1 X138.386 Y136.98 E0.00807
G1 X138.147 Y136.879 E0.00807
G1 X137.897 Y136.81 E0.00807
G1 X137.64 Y136.776 E0.00807
G1 X137.381 Y136.776 E0.00807
G1 X137.124 Y136.81 E0.00807
G1 X136.874 Y136.879 E0.00807
G1 X136.635 Y136.98 E0.00807
G1 X136.412 Y137.112 E0.00807
G1 X136.209 Y137.273 E0.00807
;WIPE_START
G1 X135.826 Y137.159 F30000
;WIPE_END
;WIPE_START
G1 F24000
G1 X135.706 Y137.56 E-0.02985
G1 X135.569 Y137.811 E-0.02038
G1 X135.466 Y138.078 E-0.02038
G1 X135.399 Y138.356 E-0.02038
G1 X135.371 Y138.641 E-0.02038
G1 X135.38 Y138.927 E-0.02038
G1 X135.428 Y139.209 E-0.02038
G1 X135.513 Y139.482 E-0.02038
G1 X135.633 Y139.741 E-0.02038
G1 X135.787 Y139.982 E-0.02038
G1 X135.972 Y140.201 E-0.02038
G1 X136.184 Y140.393 E-0.02038
G1 X136.42 Y140.554 E-0.02038
G1 X136.675 Y140.683 E-0.02038
G1 X136.945 Y140.777 E-0.02038
G1 X137.225 Y140.834 E-0.02038
G1 X137.511 Y140.853 E-0.02038
G1 X137.796 Y140.834 E-0.02038
G1 X138.076 Y140.777 E-0.02038
G1 X138.347 Y140.683 E-0.02038
G1 X138.602 Y140.554 E-0.02038
G1 X138.838 Y140.393 E-0.02038
G1 X139.05 Y140.201 E-0.02038
G1 X139.234 Y139.982 E-0.02038
G1 X139.388 Y139.741 E-0.02038
G1 X139.509 Y139.482 E-0.02038
G1 X139.594 Y139.209 E-0.02038
G1 X139.641 Y138.927 E-0.02038
G1 X139.651 Y138.641 E-0.02038
G1 X139.622 Y138.356 E-0.02038
G1 X139.556 Y138.078 E-0.02038
G1 X139.453 Y137.811 E-0.02038
G1 X139.315 Y137.56 E-0.02038
G1 X139.146 Y137.33 E-0.02038
G1 X138.947 Y137.124 E-0.02038
G1 X138.722 Y136.947 E-0.02038
G1 X138.476 Y136.801 E-0.02038
G1 X138.213 Y136.69 E-0.02038
G1 X137.937 Y136.614 E-0.02038
G1 X137.654 Y136.576 E-0.02038
G1 X137.368 Y136.576 E-0.02038
G1 X137.084 Y136.614 E-0.02038
G1 X136.808 Y136.69 E-0.02038
G1 X136.545 Y136.801 E-0.02038
G1 X136.299 Y136.947 E-0.02038
G1 X136.075 Y137.124 E-0.02038
;WIPE_END
G1 E-0.25311 F1800
G1 X126.062 Y138.042 F30000
G1 E1.2 F1800
;TYPE:Internal perimeter
G1 F4500
G1 X126.062 Y137.995 E0.00147
G1 X126.021 Y137.562 E0.01353
G1 X125.939 Y137.135 E0.01354
G1 X125.816 Y136.718 E0.01354
G1 X125.654 Y136.315 E0.01353
G1 X125.454 Y135.929 E0.01354
G1 X125.218 Y135.564 E0.01354
G1 X124.936 Y135.206 E0.0142
G1 X124.435 Y134.717 E0.0218
G1 X124.07 Y134.442 E0.0142
G1 X123.699 Y134.216 E0.01354
G1 X123.309 Y134.025 E0.01354
G1 X122.902 Y133.873 E0.01354
G1 X122.482 Y133.76 E0.01354
G1 X122.053 Y133.688 E0.01354
G1 X121.619 Y133.657 E0.01354
G1 X121.185 Y133.667 E0.01354
G1 X120.753 Y133.719 E0.01354
G1 X120.328 Y133.811 E0.01354
G1 X119.915 Y133.944 E0.01354
G1 X119.515 Y134.116 E0.01354
G1 X119.134 Y134.325 E0.01354
G1 X118.774 Y134.569 E0.01353
G1 X118.44 Y134.846 E0.01353
G1 X118.133 Y135.154 E0.01353
G1 X117.857 Y135.49 E0.01353
G1 X117.622 Y135.841 E0.01315
G1 X117.455 Y136.135 E0.01053
G1 X117.246 Y136.613 E0.01625
G1 X117.134 Y136.941 E0.01078
G1 X117.017 Y137.467 E0.01677
G1 X116.966 Y137.916 E0.01408
G1 X116.966 Y138.513 E0.01859
G1 X117.033 Y139.064 E0.01727
G1 X117.139 Y139.499 E0.01395
G1 X117.282 Y139.91 E0.01354
G1 X117.463 Y140.305 E0.01354
G1 X117.681 Y140.681 E0.01354
G1 X117.946 Y141.052 E0.01421
G1 X118.423 Y141.564 E0.0218
G1 X118.774 Y141.855 E0.0142
G1 X119.134 Y142.1 E0.01354
G1 X119.515 Y142.309 E0.01353
G1 X119.915 Y142.48 E0.01354
G1 X120.328 Y142.613 E0.01354
G1 X120.753 Y142.706 E0.01354
G1 X121.185 Y142.757 E0.01354
G1 X121.619 Y142.768 E0.01354
G1 X122.053 Y142.737 E0.01354
G1 X122.482 Y142.664 E0.01354
G1 X122.902 Y142.552 E0.01354
G1 X123.309 Y142.399 E0.01354
G1 X123.699 Y142.209 E0.01354
G1 X124.07 Y141.982 E0.01353
G1 X124.435 Y141.708 E0.0142
G1 X124.936 Y141.219 E0.0218
G1 X125.218 Y140.861 E0.0142
G1 X125.454 Y140.496 E0.01354
G1 X125.654 Y140.109 E0.01354
G1 X125.816 Y139.706 E0.01354
G1 X125.939 Y139.289 E0.01354
G1 X126.021 Y138.862 E0.01354
G1 X126.062 Y138.43 E0.01353
G1 X126.062 Y138.042 E0.01207
G1 X125.734 Y138.042 F30000
G1 F4500
G1 X125.734 Y138.011 E0.00098
G1 X125.696 Y137.609 E0.01256
G1 X125.619 Y137.213 E0.01256
G1 X125.505 Y136.826 E0.01256
G1 X125.355 Y136.452 E0.01256
G1 X125.169 Y136.094 E0.01256
G1 X124.951 Y135.755 E0.01256
G1 X124.691 Y135.426 E0.01305
G1 X124.22 Y134.966 E0.02048
G1 X123.885 Y134.715 E0.01305
G1 X123.541 Y134.504 E0.01256
G1 X123.179 Y134.327 E0.01256
G1 X122.801 Y134.186 E0.01256
G1 X122.412 Y134.081 E0.01256
G1 X122.014 Y134.014 E0.01256
G1 X121.612 Y133.985 E0.01256
G1 X121.208 Y133.995 E0.01256
G1 X120.808 Y134.043 E0.01256
G1 X120.414 Y134.129 E0.01256
G1 X120.03 Y134.252 E0.01256
G1 X119.659 Y134.411 E0.01256
G1 X119.306 Y134.605 E0.01256
G1 X118.972 Y134.832 E0.01256
G1 X118.662 Y135.089 E0.01256
G1 X118.377 Y135.375 E0.01256
G1 X118.121 Y135.687 E0.01255
G1 X117.901 Y136.014 E0.01227
G1 X117.749 Y136.282 E0.00961
G1 X117.553 Y136.732 E0.01529
G1 X117.451 Y137.03 E0.00979
G1 X117.342 Y137.521 E0.01568
G1 X117.294 Y137.935 E0.01296
G1 X117.294 Y138.493 E0.01737
G1 X117.357 Y139.005 E0.01605
G1 X117.455 Y139.406 E0.01287
G1 X117.587 Y139.787 E0.01256
G1 X117.755 Y140.154 E0.01256
G1 X117.957 Y140.503 E0.01256
G1 X118.201 Y140.844 E0.01306
G1 X118.649 Y141.325 E0.02048
G1 X118.972 Y141.593 E0.01305
G1 X119.306 Y141.819 E0.01256
G1 X119.659 Y142.013 E0.01256
G1 X120.03 Y142.172 E0.01256
G1 X120.414 Y142.295 E0.01256
G1 X120.808 Y142.381 E0.01256
G1 X121.208 Y142.429 E0.01256
G1 X121.612 Y142.439 E0.01256
G1 X122.014 Y142.41 E0.01256
G1 X122.412 Y142.343 E0.01256
G1 X122.801 Y142.238 E0.01256
G1 X123.179 Y142.097 E0.01256
G1 X123.541 Y141.92 E0.01256
G1 X123.885 Y141.71 E0.01256
G1 X124.22 Y141.458 E0.01305
G1 X124.691 Y140.998 E0.02048
G1 X124.951 Y140.67 E0.01305
G1 X125.169 Y140.331 E0.01256
G1 X125.355 Y139.972 E0.01256
G1 X125.505 Y139.598 E0.01256
G1 X125.619 Y139.211 E0.01256
G1 X125.696 Y138.815 E0.01256
G1 X125.734 Y138.414 E0.01256
G1 X125.734 Y138.042 E0.01158
G1 X125.405 Y138.026 F30000
G1 F4500
G1 X125.37 Y137.656 E0.01158
G1 X125.299 Y137.291 E0.01158
G1 X125.194 Y136.934 E0.01158
G1 X125.056 Y136.589 E0.01158
G1 X124.885 Y136.259 E0.01158
G1 X124.683 Y135.946 E0.01158
G1 X124.446 Y135.646 E0.0119
G1 X124.006 Y135.216 E0.01916
G1 X123.701 Y134.987 E0.0119
G1 X123.383 Y134.792 E0.01158
G1 X123.049 Y134.629 E0.01158
G1 X122.701 Y134.499 E0.01158
G1 X122.341 Y134.403 E0.01158
G1 X121.975 Y134.341 E0.01158
G1 X121.604 Y134.314 E0.01158
G1 X121.232 Y134.323 E0.01158
G1 X120.863 Y134.367 E0.01158
G1 X120.499 Y134.447 E0.01158
G1 X120.145 Y134.56 E0.01158
G1 X119.803 Y134.707 E0.01158
G1 X119.477 Y134.886 E0.01158
G1 X119.17 Y135.095 E0.01158
G1 X118.883 Y135.332 E0.01158
G1 X118.621 Y135.596 E0.01158
G1 X118.385 Y135.883 E0.01158
G1 X118.181 Y136.187 E0.01139
G1 X118.043 Y136.429 E0.00869
G1 X117.859 Y136.851 E0.01434
G1 X117.768 Y137.119 E0.00881
G1 X117.666 Y137.576 E0.01459
G1 X117.623 Y137.954 E0.01184
G1 X117.623 Y138.473 E0.01616
G1 X117.681 Y138.946 E0.01483
G1 X117.77 Y139.313 E0.01178
G1 X117.892 Y139.665 E0.01158
G1 X118.047 Y140.003 E0.01158
G1 X118.234 Y140.324 E0.01158
G1 X118.456 Y140.635 E0.01191
G1 X118.875 Y141.086 E0.01916
G1 X119.17 Y141.33 E0.0119
G1 X119.477 Y141.539 E0.01158
G1 X119.803 Y141.717 E0.01158
G1 X120.145 Y141.864 E0.01158
G1 X120.499 Y141.978 E0.01158
G1 X120.863 Y142.057 E0.01158
G1 X121.232 Y142.101 E0.01158
G1 X121.604 Y142.11 E0.01158
G1 X121.975 Y142.084 E0.01158
G1 X122.341 Y142.022 E0.01158
G1 X122.701 Y141.925 E0.01158
G1 X123.049 Y141.795 E0.01158
G1 X123.383 Y141.632 E0.01158
G1 X123.701 Y141.438 E0.01158
G1 X124.006 Y141.208 E0.0119
G1 X124.446 Y140.778 E0.01916
G1 X124.683 Y140.478 E0.0119
G1 X124.885 Y140.166 E0.01158
G1 X125.056 Y139.835 E0.01158
G1 X125.194 Y139.49 E0.01158
G1 X125.299 Y139.134 E0.01158
G1 X125.37 Y138.768 E0.01158
G1 X125.405 Y138.398 E0.01158
G1 X125.405 Y138.026 E0.01158
G1 X125.077 Y138.042 F30000
;TYPE:External perimeter
G1 F4500
G1 X125.045 Y137.703 E0.0106
G1 X124.98 Y137.369 E0.0106
G1 X124.884 Y137.042 E0.0106
G1 X124.757 Y136.726 E0.0106
G1 X124.6 Y136.423 E0.0106
G1 X124.416 Y136.137 E0.0106
G1 X124.202 Y135.866 E0.01075
G1 X123.792 Y135.466 E0.01784
G1 X123.516 Y135.259 E0.01075
G1 X123.225 Y135.081 E0.0106
G1 X122.919 Y134.932 E0.0106
G1 X122.6 Y134.812 E0.0106
G1 X122.271 Y134.724 E0.0106
G1 X121.936 Y134.667 E0.0106
G1 X121.596 Y134.643 E0.0106
G1 X121.255 Y134.651 E0.0106
G1 X120.917 Y134.692 E0.0106
G1 X120.585 Y134.764 E0.0106
G1 X120.26 Y134.868 E0.0106
G1 X119.947 Y135.003 E0.0106
G1 X119.649 Y135.166 E0.0106
G1 X119.367 Y135.358 E0.0106
G1 X119.105 Y135.575 E0.0106
G1 X118.865 Y135.816 E0.0106
G1 X118.649 Y136.079 E0.0106
G1 X118.46 Y136.36 E0.01051
G1 X118.337 Y136.576 E0.00776
G1 X118.166 Y136.97 E0.01338
G1 X118.085 Y137.208 E0.00782
G1 X117.991 Y137.631 E0.01349
G1 X117.951 Y137.973 E0.01072
G1 X117.951 Y138.453 E0.01495
G1 X118.005 Y138.886 E0.01361
G1 X118.086 Y139.22 E0.0107
G1 X118.197 Y139.542 E0.0106
G1 X118.339 Y139.852 E0.0106
G1 X118.51 Y140.146 E0.0106
G1 X118.711 Y140.427 E0.01076
G1 X119.101 Y140.846 E0.01784
G1 X119.367 Y141.067 E0.01075
G1 X119.649 Y141.258 E0.0106
G1 X119.947 Y141.422 E0.0106
G1 X120.26 Y141.556 E0.0106
G1 X120.585 Y141.66 E0.0106
G1 X120.917 Y141.733 E0.0106
G1 X121.255 Y141.773 E0.0106
