; generated by SuperSlicer 2.4 on 2022-10-22 at 13:53:04 UTC


;
;

;
;
; 

; external perimeters extrusion width = 0.45mm
; perimeters extrusion width = 0.45mm
; infill extrusion width = 0.45mm
; solid infill extrusion width = 0.48mm
; top infill extrusion width = 0.42mm
; support material extrusion width = 0.45mm
; first layer extrusion width = 0.38mm

; object:{"name":"tension arm helical gears","id":"tension arm helical gears.stl id:0 copy 0","object_center":[175.735023,87.152592,0.000000],"boundingbox_center":[175.735023,87.152592,6.779791],"boundingbox_size":[20.850000,38.512156,13.559583]}
; plater:{"center":[175.735023,87.152592,0.000000],"boundingbox_center":[175.735023,87.152592,6.779791],"boundingbox_size":[20.850000,38.512156,13.559583]}

M73 P0 R11
;TYPE:Custom
; custom gcode: start_gcode
M104 S0 ; Stops PS/SS from sending temp waits separately
M140 S0
PRINT_START EXTRUDER_TEMP=235 BED_TEMP=65
; custom gcode end: start_gcode
M107
G21 ; set units to millimeters
G90 ; use absolute coordinates
M83 ; use relative distances for extrusion
; custom gcode: start_filament_gcode
; Filament gcode
;SET_GCODE_OFFSET Z=0
;SET_PRESSURE_ADVANCE ADVANCE=0.05
; custom gcode end: start_filament_gcode
;_TOOLCHANGE 0
;LAYER_CHANGE
;Z:0.2
;HEIGHT:0.2
G1 E-1.2 F1800
M73 P2 R11
G1 Z0.2 F30000
G92 E0
M104 S235 ; set temperature
; printing object tension arm helical gears.stl id:0 copy 0
G1 X164.292 Y74.335
G1 E1.2 F1800
;TYPE:Support material interface
;WIDTH:0.38
G1 F1500
G1 X165.053 Y73.573 E0.02838
G1 X165.765 Y74.285 E0.02653
G1 X166.478 Y73.573 E0.02653
G1 X167.19 Y74.285 E0.02653
M73 P3 R11
G1 X167.902 Y73.573 E0.02653
G1 X168.614 Y74.285 E0.02653
G1 X169.326 Y73.573 E0.02653
G1 X170.088 Y74.335 E0.02838
G1 X169.707 Y74.715 E0.01417
G1 X169.287 Y74.295 E0.01566
G1 X165.083 Y74.295 E0.11076
G1 X164.667 Y74.71 E0.01549
G1 X164.292 Y74.335 E0.014
;WIPE_START
G1 F24000
G1 X165.053 Y73.573 E-0.07674
G1 X165.765 Y74.285 E-0.07175
G1 X166.478 Y73.573 E-0.07175
G1 X167.19 Y74.285 E-0.07175
G1 X167.902 Y73.573 E-0.07175
G1 X168.614 Y74.285 E-0.07175
G1 X169.326 Y73.573 E-0.07175
G1 X170.088 Y74.335 E-0.07674
G1 X169.707 Y74.715 E-0.03833
G1 X169.287 Y74.295 E-0.04235
G1 X165.083 Y74.295 E-0.29952
G1 X164.667 Y74.71 E-0.04188
G1 X164.292 Y74.335 E-0.03786
;WIPE_END
G1 E-0.15604 F1800
G1 X169.678 Y74.044 F30000
G1 E1.2 F1800
G1 F1500
G1 X168.974 Y74.044 E0.01854
;WIPE_START
G1 F24000
G1 X169.678 Y74.044 E-0.05014
;WIPE_END
G1 E-1.14986 F1800
G1 X165.405 Y74.044 F30000
G1 E1.2 F1800
G1 F1500
G1 X164.701 Y74.044 E0.01854
;WIPE_START
G1 F24000
G1 X165.405 Y74.044 E-0.05014
;WIPE_END
G1 E-1.14986 F1800
G1 X168.254 Y74.044 F30000
G1 E1.2 F1800
G1 F1500
G1 X167.55 Y74.044 E0.01854
G1 X166.829 Y74.044 F30000
G1 F1500
G1 X166.126 Y74.044 E0.01854
G1 X165.765 Y73.54 F30000
;TYPE:Support material
G1 F1500
G1 X165.053 Y72.827 E0.02653
G1 X163.546 Y74.335 E0.05616
G1 X164.551 Y75.34 E0.03746
G1 X164.551 Y77.144 E0.04753
G1 X160.318 Y72.91 E0.15774
G1 X161.03 Y72.198 E0.02653
G1 X160.318 Y71.486 E0.02653
G1 X165.053 Y66.751 E0.17644
G1 X165.765 Y67.463 E0.02653
G1 X166.478 Y66.751 E0.02653
G1 X167.19 Y67.463 E0.02653
G1 X167.902 Y66.751 E0.02653
G1 X168.614 Y67.463 E0.02653
G1 X169.326 Y66.751 E0.02653
G1 X174.061 Y71.486 E0.17644
G1 X173.349 Y72.198 E0.02653
G1 X174.061 Y72.91 E0.02653
G1 X173.349 Y73.622 E0.02653
G1 X174.061 Y74.335 E0.02653
G1 X172.197 Y76.199 E0.06946
G1 X170.328 Y78.068 E0.06966
G1 X170.324 Y78.068 E0.0001
G1 X169.819 Y77.563 E0.01884
G1 X169.819 Y75.349 E0.05832
G1 X170.833 Y74.335 E0.0378
G1 X169.326 Y72.827 E0.05616
G1 X168.614 Y73.54 E0.02653
G1 X167.902 Y72.827 E0.02653
G1 X167.19 Y73.54 E0.02653
G1 X166.478 Y72.827 E0.02653
G1 X165.765 Y73.54 E0.02653
;WIPE_START
G1 F24000
G1 X165.053 Y72.827 E-0.07175
G1 X163.546 Y74.335 E-0.15187
G1 X163.546 Y74.335 E-0
G1 X164.551 Y75.34 E-0.1013
G1 X164.551 Y77.144 E-0.12854
G1 X160.318 Y72.91 E-0.42658
G1 X161.03 Y72.198 E-0.07175
G1 X160.318 Y71.486 E-0.07175
G1 X161.474 Y70.33 E-0.11646
;WIPE_END
G1 E-0.06 F1800
G1 X170.216 Y77.841 F30000
G1 E1.2 F1800
G1 F1500
G1 X173.73 Y74.327 E0.13092
G1 X173.465 Y74.062 E0.00987
G1 X170.054 Y77.474 E0.1271
G1 X170.048 Y77.468 E0.00022
G1 X170.048 Y76.95 E0.01364
G1 X173.2 Y73.797 E0.11746
G1 X173.025 Y73.622 E0.00652
G1 X173.737 Y72.91 E0.02653
G1 X173.647 Y72.82 E0.00335
G1 X170.048 Y76.42 E0.13412
G1 X170.048 Y75.89 E0.01395
G1 X173.383 Y72.556 E0.12425
G1 X173.118 Y72.291 E0.00987
G1 X171.116 Y74.293 E0.0746
G1 X170.851 Y74.028 E0.00987
G1 X173.565 Y71.314 E0.10113
G1 X173.3 Y71.049 E0.00987
G1 X170.586 Y73.763 E0.10113
G1 X170.321 Y73.498 E0.00987
G1 X173.035 Y70.784 E0.10113
G1 X172.771 Y70.519 E0.00987
G1 X170.056 Y73.234 E0.10113
G1 X169.791 Y72.969 E0.00987
G1 X172.506 Y70.255 E0.10113
G1 X172.241 Y69.99 E0.00987
G1 X169.527 Y72.704 E0.10113
G1 X169.326 Y72.503 E0.00748
G1 X168.614 Y73.215 E0.02653
G1 X168.55 Y73.151 E0.00239
G1 X171.976 Y69.725 E0.12766
G1 X171.711 Y69.46 E0.00987
G1 X168.285 Y72.886 E0.12766
G1 X168.02 Y72.622 E0.00987
G1 X171.446 Y69.195 E0.12766
G1 X171.182 Y68.93 E0.00987
G1 X167.043 Y73.069 E0.1542
M73 P4 R11
G1 X166.778 Y72.804 E0.00987
G1 X170.917 Y68.666 E0.1542
G1 X170.652 Y68.401 E0.00987
G1 X166.513 Y72.539 E0.1542
G1 X166.478 Y72.503 E0.00134
G1 X165.765 Y73.215 E0.02653
G1 X165.536 Y72.986 E0.00853
G1 X170.387 Y68.136 E0.18073
G1 X170.122 Y67.871 E0.00987
G1 X165.272 Y72.722 E0.18073
G1 X165.053 Y72.503 E0.00813
G1 X163.222 Y74.335 E0.06823
G1 X163.44 Y74.553 E0.00813
G1 X162.862 Y75.131 E0.02153
G1 X163.127 Y75.396 E0.00987
G1 X163.705 Y74.818 E0.02153
G1 X163.97 Y75.083 E0.00987
G1 X163.392 Y75.66 E0.02153
G1 X163.657 Y75.925 E0.00987
G1 X164.235 Y75.347 E0.02153
G1 X164.322 Y75.435 E0.00326
G1 X164.322 Y75.79 E0.00935
G1 X163.922 Y76.19 E0.01492
G1 X164.187 Y76.455 E0.00987
G1 X164.467 Y76.174 E0.01045
G1 X162.495 Y74.968 F30000
G1 F1500
G1 X169.857 Y67.606 E0.27431
G1 X169.593 Y67.341 E0.00987
G1 X162.333 Y74.601 E0.27049
G1 X162.068 Y74.336 E0.00987
G1 X169.328 Y67.077 E0.27049
G1 X169.326 Y67.075 E0.00006
G1 X168.614 Y67.787 E0.02653
G1 X168.351 Y67.524 E0.00981
G1 X161.803 Y74.071 E0.24396
G1 X161.538 Y73.807 E0.00987
G1 X168.086 Y67.259 E0.24396
G1 X167.902 Y67.075 E0.00686
G1 X167.19 Y67.787 E0.02653
G1 X167.109 Y67.706 E0.00301
G1 X161.273 Y73.542 E0.21743
G1 X161.009 Y73.277 E0.00987
G1 X166.844 Y67.441 E0.21743
M73 P4 R10
G1 X166.579 Y67.177 E0.00987
G1 X160.744 Y73.012 E0.21743
G1 X160.642 Y72.91 E0.00379
G1 X161.354 Y72.198 E0.02653
G1 X161.191 Y72.035 E0.00608
G1 X165.602 Y67.624 E0.16436
G1 X165.338 Y67.359 E0.00987
G1 X160.926 Y71.77 E0.16436
G1 X160.661 Y71.505 E0.00987
G1 X165.175 Y66.992 E0.16818
;WIPE_START
G1 F24000
G1 X160.661 Y71.505 E-0.45482
G1 X160.926 Y71.77 E-0.02669
G1 X165.338 Y67.359 E-0.44449
G1 X165.602 Y67.624 E-0.02669
G1 X163.743 Y69.483 E-0.18732
;WIPE_END
G1 E-0.06 F1800
G1 X179.042 Y71.277 F30000
G1 E1.2 F1800
G1 F1500
G1 X183.568 Y66.751 E0.16864
G1 X184.28 Y67.463 E0.02653
G1 X184.992 Y66.751 E0.02653
G1 X190.44 Y72.198 E0.20297
G1 X186.512 Y76.126 E0.14635
M73 P5 R10
G1 X186.512 Y75.499 E0.01652
G1 X186.512 Y75.005 E0.013
G1 X186.512 Y74.512 E0.013
G1 X186.512 Y74.018 E0.013
G1 X186.512 Y73.525 E0.013
G1 X186.511 Y73.031 E0.013
G1 X186.511 Y72.477 E0.01459
G1 X186.483 Y72.323 E0.00414
G1 X186.298 Y71.839 E0.01364
G1 X186.211 Y71.78 E0.00276
G1 X185.859 Y71.537 E0.01129
G1 X184.722 Y71.536 E0.02995
G1 X184.253 Y71.535 E0.01237
G1 X183.323 Y71.534 E0.0245
G1 X182.978 Y71.277 E0.01133
G1 X179.042 Y71.277 E0.1037
;WIPE_START
G1 F24000
G1 X183.568 Y66.751 E-0.45606
G1 X184.28 Y67.463 E-0.07175
G1 X184.28 Y67.463 E-0
G1 X184.992 Y66.751 E-0.07175
G1 X190.356 Y72.114 E-0.54043
;WIPE_END
G1 E-0.06 F1800
G1 X186.596 Y75.232 F30000
G1 E1.2 F1800
G1 F1500
G1 X189.873 Y71.955 E0.12209
G1 X189.608 Y71.69 E0.00987
G1 X186.741 Y74.558 E0.10683
G1 X186.741 Y74.512 E0.00121
G1 X186.741 Y74.028 E0.01274
G1 X189.343 Y71.426 E0.09696
G1 X189.078 Y71.161 E0.00987
G1 X186.741 Y73.499 E0.0871
G1 X186.741 Y73.031 E0.01232
G1 X186.741 Y72.969 E0.00163
G1 X188.814 Y70.896 E0.07724
G1 X188.549 Y70.631 E0.00987
G1 X186.738 Y72.442 E0.06747
G1 X186.704 Y72.26 E0.00487
G1 X186.617 Y72.033 E0.00642
G1 X188.284 Y70.366 E0.0621
G1 X188.019 Y70.101 E0.00987
G1 X186.453 Y71.668 E0.05836
G1 X186.341 Y71.591 E0.00357
G1 X186.139 Y71.452 E0.00647
G1 X187.754 Y69.837 E0.06017
G1 X187.489 Y69.572 E0.00987
G1 X185.754 Y71.307 E0.06467
G1 X185.225 Y71.307 E0.01394
G1 X187.225 Y69.307 E0.07451
G1 X186.96 Y69.042 E0.00987
G1 X184.696 Y71.306 E0.08436
G1 X184.253 Y71.306 E0.01167
G1 X184.166 Y71.306 E0.00227
G1 X186.695 Y68.777 E0.09421
G1 X186.43 Y68.512 E0.00987
G1 X183.637 Y71.305 E0.10406
G1 X183.399 Y71.305 E0.00628
G1 X183.232 Y71.181 E0.00548
G1 X186.165 Y68.248 E0.10928
G1 X185.9 Y67.983 E0.00987
G1 X182.836 Y71.048 E0.11419
G1 X182.306 Y71.048 E0.01395
G1 X185.636 Y67.718 E0.12406
G1 X185.371 Y67.453 E0.00987
G1 X181.776 Y71.048 E0.13393
G1 X181.247 Y71.048 E0.01395
G1 X185.106 Y67.188 E0.14379
G1 X184.992 Y67.075 E0.00423
G1 X184.28 Y67.787 E0.02653
G1 X184.129 Y67.636 E0.00564
G1 X180.717 Y71.048 E0.12713
G1 X180.187 Y71.048 E0.01395
G1 X183.864 Y67.371 E0.137
G1 X183.599 Y67.106 E0.00987
G1 X179.513 Y71.192 E0.15226
G1 X179.001 Y71.317 F30000
G1 F1500
G1 X179.001 Y72.402 E0.02857
G1 X177.917 Y72.402 E0.02857
G1 X179.001 Y71.317 E0.0404
G1 X178.388 Y72.317 F30000
G1 F1500
G1 X178.917 Y71.788 E0.01973
;WIPE_START
G1 F24000
G1 X178.388 Y72.317 E-0.05335
;WIPE_END
G1 E-1.14665 F1800
G1 X175.31 Y93.439 F30000
G1 E1.2 F1800
;TYPE:Internal perimeter
G1 F1500
G1 X175.018 Y93.439 E0.00769
G1 X174.489 Y93.526 E0.01413
G1 X174.134 Y93.645 E0.00986
G1 X173.661 Y93.897 E0.01413
G1 X173.391 Y94.102 E0.00893
G1 X173.145 Y94.335 E0.00893
G1 X172.799 Y94.79 E0.01507
G1 X172.559 Y95.309 E0.01507
G1 X172.458 Y95.67 E0.00986
G1 X172.404 Y96.168 E0.0132
G1 X172.404 Y99.309 E0.08276
G1 X172.462 Y99.842 E0.01413
G1 X172.656 Y100.418 E0.016
G1 X172.969 Y100.938 E0.016
G1 X173.387 Y101.379 E0.016
G1 X173.89 Y101.72 E0.016
G1 X174.421 Y101.932 E0.01507
G1 X174.787 Y102.012 E0.00986
G1 X175.322 Y102.041 E0.01413
G1 X175.694 Y102.001 E0.00986
G1 X176.211 Y101.857 E0.01413
G1 X176.551 Y101.7 E0.00986
G1 X177.024 Y101.379 E0.01507
G1 X177.442 Y100.938 E0.016
G1 X177.736 Y100.448 E0.01507
G1 X177.862 Y100.133 E0.00893
G1 X177.953 Y99.807 E0.00893
G1 X178.007 Y99.309 E0.0132
G1 X178.007 Y96.168 E0.08276
G1 X177.949 Y95.634 E0.01413
G1 X177.755 Y95.059 E0.016
G1 X177.442 Y94.538 E0.016
G1 X177.024 Y94.097 E0.016
G1 X176.521 Y93.757 E0.016
G1 X175.957 Y93.532 E0.016
G1 X175.393 Y93.439 E0.01507
G1 X175.31 Y93.439 E0.00217
G1 X175.31 Y93.776 F30000
G1 F1500
G1 X175.046 Y93.776 E0.00697
G1 X174.571 Y93.854 E0.01268
G1 X174.268 Y93.956 E0.00842
G1 X173.843 Y94.182 E0.01268
G1 X173.609 Y94.359 E0.00772
G1 X173.396 Y94.561 E0.00773
G1 X173.089 Y94.965 E0.01338
G1 X172.876 Y95.426 E0.01338
G1 X172.791 Y95.733 E0.00842
G1 X172.741 Y96.186 E0.01199
G1 X172.741 Y99.29 E0.08179
G1 X172.793 Y99.769 E0.01269
G1 X172.964 Y100.275 E0.01407
G1 X173.239 Y100.733 E0.01407
G1 X173.607 Y101.121 E0.01407
G1 X174.049 Y101.42 E0.01407
G1 X174.52 Y101.608 E0.01338
G1 X174.832 Y101.677 E0.00842
G1 X175.313 Y101.703 E0.01268
G1 X175.63 Y101.668 E0.00842
G1 X176.094 Y101.54 E0.01268
G1 X176.384 Y101.406 E0.00842
G1 X176.804 Y101.121 E0.01338
G1 X177.172 Y100.733 E0.01407
G1 X177.433 Y100.298 E0.01338
G1 X177.542 Y100.025 E0.00773
G1 X177.62 Y99.743 E0.00772
G1 X177.67 Y99.29 E0.01199
G1 X177.67 Y96.186 E0.08179
G1 X177.618 Y95.707 E0.01269
G1 X177.447 Y95.201 E0.01407
G1 X177.172 Y94.744 E0.01407
G1 X176.804 Y94.356 E0.01407
G1 X176.362 Y94.056 E0.01407
G1 X175.866 Y93.858 E0.01407
G1 X175.365 Y93.776 E0.01338
G1 X175.31 Y93.776 E0.00145
G1 X175.31 Y94.113 F30000
G1 F1500
G1 X175.073 Y94.113 E0.00625
G1 X174.652 Y94.182 E0.01124
G1 X174.402 Y94.267 E0.00697
G1 X174.025 Y94.467 E0.01124
G1 X173.828 Y94.616 E0.00652
G1 X173.648 Y94.787 E0.00652
G1 X173.38 Y95.14 E0.01169
M73 P6 R10
G1 X173.193 Y95.542 E0.01169
G1 X173.123 Y95.797 E0.00697
G1 X173.078 Y96.204 E0.01079
G1 X173.078 Y99.272 E0.08083
G1 X173.124 Y99.696 E0.01124
G1 X173.272 Y100.133 E0.01214
G1 X173.509 Y100.528 E0.01214
G1 X173.826 Y100.862 E0.01214
G1 X174.207 Y101.121 E0.01214
G1 X174.619 Y101.285 E0.01169
G1 X174.878 Y101.342 E0.00697
G1 X175.304 Y101.365 E0.01124
G1 X175.567 Y101.336 E0.00697
G1 X175.978 Y101.222 E0.01124
G1 X176.218 Y101.111 E0.00697
G1 X176.585 Y100.862 E0.01169
G1 X176.902 Y100.528 E0.01214
G1 X177.13 Y100.148 E0.01169
G1 X177.222 Y99.918 E0.00652
G1 X177.288 Y99.679 E0.00652
G1 X177.333 Y99.272 E0.01079
G1 X177.333 Y96.204 E0.08083
G1 X177.286 Y95.78 E0.01124
G1 X177.139 Y95.344 E0.01214
G1 X176.902 Y94.949 E0.01214
G1 X176.585 Y94.614 E0.01214
G1 X176.204 Y94.356 E0.01214
G1 X175.776 Y94.185 E0.01214
G1 X175.338 Y94.113 E0.01169
G1 X175.31 Y94.113 E0.00072
G1 X175.31 Y94.45 F30000
;TYPE:External perimeter
G1 F1500
G1 X175.101 Y94.45 E0.00552
G1 X174.734 Y94.511 E0.00979
G1 X174.535 Y94.577 E0.00552
G1 X174.207 Y94.752 E0.00979
G1 X174.046 Y94.874 E0.00532
G1 X173.9 Y95.012 E0.00532
G1 X173.67 Y95.314 E0.01
G1 X173.511 Y95.659 E0.01
G1 X173.455 Y95.861 E0.00552
G1 X173.415 Y96.222 E0.00958
G1 X173.415 Y99.254 E0.07987
G1 X173.456 Y99.623 E0.00979
G1 X173.579 Y99.991 E0.01021
G1 X173.779 Y100.323 E0.01021
G1 X174.046 Y100.604 E0.01021
G1 X174.366 Y100.821 E0.01021
G1 X174.719 Y100.962 E0.01
G1 X174.923 Y101.007 E0.00552
G1 X175.295 Y101.027 E0.00979
G1 X175.503 Y101.004 E0.00552
G1 X175.861 Y100.905 E0.00979
G1 X176.051 Y100.817 E0.00552
G1 X176.365 Y100.604 E0.01
G1 X176.632 Y100.323 E0.01021
G1 X176.827 Y99.997 E0.01
G1 X176.902 Y99.81 E0.00532
G1 X176.956 Y99.615 E0.00532
G1 X176.995 Y99.254 E0.00958
G1 X176.995 Y96.222 E0.07987
G1 X176.955 Y95.853 E0.00979
G1 X176.832 Y95.486 E0.01021
G1 X176.632 Y95.154 E0.01021
G1 X176.365 Y94.873 E0.01021
G1 X176.045 Y94.655 E0.01021
G1 X175.685 Y94.512 E0.01021
G1 X175.31 Y94.45 E0.01
;WIPE_START
G1 X175.129 Y94.094 F30000
;WIPE_END
;WIPE_START
G1 F24000
G1 X174.686 Y94.316 E-0.03536
G1 X174.456 Y94.393 E-0.01726
G1 X174.099 Y94.582 E-0.0288
G1 X173.917 Y94.721 E-0.01631
G1 X173.751 Y94.878 E-0.01631
G1 X173.498 Y95.211 E-0.02975
G1 X173.323 Y95.59 E-0.02975
G1 X173.258 Y95.823 E-0.01726
G1 X173.215 Y96.212 E-0.02785
G1 X173.215 Y99.265 E-0.21754
G1 X173.259 Y99.667 E-0.0288
G1 X173.397 Y100.075 E-0.0307
G1 X173.619 Y100.444 E-0.0307
G1 X173.915 Y100.757 E-0.0307
G1 X174.272 Y100.999 E-0.0307
G1 X174.66 Y101.153 E-0.02975
G1 X174.896 Y101.206 E-0.01726
G1 X175.3 Y101.227 E-0.0288
G1 X175.541 Y101.201 E-0.01726
G1 X175.93 Y101.093 E-0.0288
G1 X176.15 Y100.991 E-0.01726
G1 X176.496 Y100.757 E-0.02975
G1 X176.792 Y100.444 E-0.0307
G1 X177.007 Y100.086 E-0.02975
G1 X177.092 Y99.874 E-0.01631
G1 X177.153 Y99.653 E-0.01631
G1 X177.195 Y99.265 E-0.02785
G1 X177.195 Y96.212 E-0.21754
G1 X177.152 Y95.81 E-0.0288
G1 X177.08 Y95.596 E-0.01609
;WIPE_END
G1 E-0.06 F1800
G1 X167.759 Y80.128 F30000
G1 E1.2 F1800
;TYPE:Internal perimeter
G1 F1500
G1 X181.061 Y80.128 E0.35047
G1 X181.061 Y73.337 E0.17893
G1 X181.795 Y73.337 E0.01934
G1 X181.87 Y73.591 E0.00699
G1 X184.452 Y73.599 E0.06801
G1 X184.459 Y104.691 E0.81915
G1 X166.611 Y104.691 E0.47022
G1 X166.611 Y76.94 E0.73113
G1 X167.759 Y76.94 E0.03023
G1 X167.759 Y80.128 E0.08399
G1 X168.096 Y79.791 F30000
G1 F1500
G1 X180.724 Y79.791 E0.33271
G1 X180.724 Y72.999 E0.17893
G1 X182.047 Y72.999 E0.03485
G1 X182.122 Y73.255 E0.00701
G1 X184.789 Y73.263 E0.07025
M73 P7 R10
G1 X184.796 Y105.028 E0.83688
G1 X166.274 Y105.028 E0.48798
G1 X166.274 Y76.603 E0.74889
G1 X168.096 Y76.603 E0.048
G1 X168.096 Y79.791 E0.08399
G1 X168.433 Y79.454 F30000
G1 F1500
G1 X180.387 Y79.454 E0.31495
G1 X180.387 Y72.662 E0.17893
G1 X182.299 Y72.662 E0.05037
G1 X182.375 Y72.918 E0.00703
G1 X185.126 Y72.927 E0.07249
G1 X185.133 Y105.365 E0.85462
G1 X165.937 Y105.365 E0.50574
G1 X165.937 Y76.266 E0.76665
M73 P8 R10
G1 X168.433 Y76.266 E0.06576
G1 X168.433 Y79.454 E0.08399
