; generated by SuperSlicer 2.4 on 2022-09-25 at 15:09:21 UTC


;
;

;
;
; 

; external perimeters extrusion width = 0.45mm
; perimeters extrusion width = 0.45mm
; infill extrusion width = 0.45mm
; solid infill extrusion width = 0.48mm
; top infill extrusion width = 0.42mm
; support material extrusion width = 0.45mm
; first layer extrusion width = 0.38mm

; object:{"name":"Toothbrush_holder","id":"Toothbrush_holder.stl id:0 copy 0","object_center":[117.633909,109.981451,0.000000],"boundingbox_center":[117.633909,109.981451,15.748500],"boundingbox_size":[45.000000,45.000000,31.497000]}
; plater:{"center":[117.633909,109.981451,0.000000],"boundingbox_center":[117.633909,109.981451,15.748500],"boundingbox_size":[45.000000,45.000000,31.497000]}

M73 P0 R24
;TYPE:Custom
; custom gcode: start_gcode
M104 S0 ; Stops PS/SS from sending temp waits separately
M140 S0
PRINT_START EXTRUDER_TEMP=240 BED_TEMP=65
; custom gcode end: start_gcode
M107
G21 ; set units to millimeters
G90 ; use absolute coordinates
M83 ; use relative distances for extrusion
; custom gcode: start_filament_gcode
; Filament gcode
;SET_GCODE_OFFSET Z=0
;SET_PRESSURE_ADVANCE ADVANCE=0.05
; custom gcode end: start_filament_gcode
;_TOOLCHANGE 0
;LAYER_CHANGE
;Z:0.24
;HEIGHT:0.24
G1 E-1.2 F1800
M73 P1 R24
G1 Z0.24 F30000
G92 E0
M104 S240 ; set temperature
; printing object Toothbrush_holder.stl id:0 copy 0
G1 X109.397 Y101.623
G1 E1.2 F1800
;TYPE:Internal perimeter
;WIDTH:0.38
G1 F2400
G1 X109.329 Y101.676 E0.00267
G1 X107.462 Y104.108 E0.09447
G1 X106.289 Y106.942 E0.09449
G1 X105.889 Y109.981 E0.09446
G1 X106.289 Y113.021 E0.09446
G1 X107.462 Y115.854 E0.09448
G1 X109.329 Y118.287 E0.09447
G1 X111.761 Y120.153 E0.09446
G1 X114.594 Y121.327 E0.09448
G1 X117.634 Y121.727 E0.09447
G1 X120.675 Y121.327 E0.0945
G1 X123.507 Y120.153 E0.09446
G1 X125.939 Y118.287 E0.09446
G1 X127.806 Y115.854 E0.09448
G1 X128.98 Y113.021 E0.09448
G1 X129.38 Y109.981 E0.09446
G1 X128.98 Y106.942 E0.09446
G1 X127.806 Y104.108 E0.09449
G1 X125.939 Y101.676 E0.09448
G1 X123.507 Y99.809 E0.09447
G1 X120.675 Y98.636 E0.09447
G1 X117.634 Y98.236 E0.09449
G1 X117.045 Y98.313 E0.0183
G1 X114.594 Y98.636 E0.07616
G1 X111.761 Y99.809 E0.09448
G1 X109.397 Y101.623 E0.0918
G1 X109.597 Y101.884 F30000
G1 F2400
G1 X109.563 Y101.91 E0.00133
G1 X107.749 Y104.274 E0.0918
G1 X106.609 Y107.028 E0.09182
G1 X106.22 Y109.981 E0.0918
G1 X106.609 Y112.935 E0.0918
G1 X107.749 Y115.688 E0.09181
G1 X109.563 Y118.052 E0.0918
G1 X111.927 Y119.866 E0.0918
G1 X114.68 Y121.007 E0.09182
G1 X117.634 Y121.396 E0.0918
G1 X120.589 Y121.007 E0.09183
G1 X123.341 Y119.866 E0.0918
G1 X125.705 Y118.052 E0.0918
G1 X127.519 Y115.688 E0.09181
G1 X128.66 Y112.935 E0.09181
G1 X129.048 Y109.981 E0.0918
G1 X128.66 Y107.028 E0.09179
G1 X127.519 Y104.274 E0.09183
G1 X125.705 Y101.91 E0.09181
G1 X123.341 Y100.096 E0.0918
G1 X120.589 Y98.956 E0.0918
G1 X117.634 Y98.567 E0.09183
G1 X117.088 Y98.639 E0.01697
G1 X114.68 Y98.956 E0.07483
G1 X111.927 Y100.096 E0.09182
G1 X109.597 Y101.884 E0.09047
G1 X109.797 Y102.144 F30000
;TYPE:External perimeter
G1 F2400
G1 X108.036 Y104.44 E0.08913
G1 X106.929 Y107.113 E0.08916
G1 X106.552 Y109.981 E0.08913
G1 X106.929 Y112.85 E0.08913
G1 X108.036 Y115.523 E0.08915
G1 X109.797 Y117.818 E0.08914
G1 X112.093 Y119.579 E0.08913
G1 X114.766 Y120.687 E0.08915
G1 X117.634 Y121.064 E0.08914
G1 X120.503 Y120.687 E0.08917
G1 X123.176 Y119.579 E0.08913
G1 X125.471 Y117.818 E0.08913
G1 X127.232 Y115.523 E0.08915
G1 X128.34 Y112.85 E0.08915
G1 X128.717 Y109.981 E0.08913
G1 X128.34 Y107.113 E0.08913
G1 X127.232 Y104.44 E0.08916
G1 X125.471 Y102.144 E0.08915
G1 X123.176 Y100.383 E0.08914
G1 X120.503 Y99.276 E0.08913
G1 X117.634 Y98.898 E0.08916
G1 X117.131 Y98.965 E0.01564
G1 X114.766 Y99.276 E0.07349
G1 X112.093 Y100.383 E0.08915
G1 X109.797 Y102.144 E0.08914
;WIPE_START
G1 X109.407 Y102.058 F30000
;WIPE_END
;WIPE_START
G1 F24000
G1 X107.862 Y104.339 E-0.1963
G1 X106.734 Y107.061 E-0.20993
G1 X106.35 Y109.981 E-0.20987
G1 X106.734 Y112.902 E-0.20987
G1 X107.862 Y115.624 E-0.20991
G1 X108.751 Y116.783 E-0.10412
;WIPE_END
G1 E-0.06 F1800
G1 X105.831 Y98.179 F30000
G1 E1.2 F1800
;TYPE:Internal perimeter
G1 F2400
G1 X109.289 Y95.526 E0.13426
G1 X113.315 Y93.858 E0.13426
G1 X117.634 Y93.29 E0.13423
G1 X117.967 Y93.334 E0.01036
G1 X121.954 Y93.858 E0.1239
G1 X125.98 Y95.526 E0.13425
G1 X129.437 Y98.179 E0.13425
G1 X132.089 Y101.635 E0.13425
G1 X133.757 Y105.661 E0.13425
G1 X134.326 Y109.981 E0.13426
G1 X133.757 Y114.302 E0.13426
G1 X132.089 Y118.327 E0.13425
G1 X129.437 Y121.784 E0.13425
G1 X125.98 Y124.436 E0.13424
G1 X121.954 Y126.104 E0.13426
G1 X117.634 Y126.673 E0.13426
G1 X113.315 Y126.104 E0.13423
G1 X109.289 Y124.436 E0.13427
G1 X105.831 Y121.784 E0.13425
G1 X103.179 Y118.327 E0.13424
G1 X101.512 Y114.302 E0.13426
G1 X100.943 Y109.981 E0.13426
G1 X101.512 Y105.661 E0.13426
G1 X103.179 Y101.635 E0.13426
G1 X105.831 Y98.179 E0.13424
G1 X105.597 Y97.944 F30000
G1 F2400
G1 X109.123 Y95.239 E0.13692
G1 X113.229 Y93.538 E0.13693
G1 X117.634 Y92.959 E0.13689
G1 X118.01 Y93.008 E0.01169
G1 X122.04 Y93.538 E0.12524
G1 X126.146 Y95.239 E0.13692
G1 X129.671 Y97.944 E0.13692
G1 X132.376 Y101.47 E0.13692
M73 P2 R24
G1 X134.077 Y105.575 E0.13692
G1 X134.657 Y109.981 E0.13693
G1 X134.077 Y114.388 E0.13693
G1 X132.376 Y118.493 E0.13692
G1 X129.671 Y122.019 E0.13692
G1 X126.146 Y124.723 E0.13691
G1 X122.04 Y126.424 E0.13692
G1 X117.634 Y127.004 E0.13692
G1 X113.229 Y126.424 E0.13689
G1 X109.123 Y124.723 E0.13693
G1 X105.597 Y122.019 E0.13691
G1 X102.892 Y118.493 E0.13691
G1 X101.192 Y114.387 E0.13692
G1 X100.611 Y109.981 E0.13693
G1 X101.192 Y105.575 E0.13693
G1 X102.892 Y101.47 E0.13692
G1 X105.597 Y97.944 E0.13691
G1 X104.864 Y98.36 F30000
;TYPE:External perimeter
G1 F2400
G1 X105.363 Y97.71 E0.02523
G1 X108.957 Y94.952 E0.13959
G1 X113.143 Y93.218 E0.13959
G1 X117.634 Y92.627 E0.13956
G1 X118.053 Y92.683 E0.01302
G1 X122.126 Y93.218 E0.12657
G1 X126.311 Y94.952 E0.13958
G1 X129.905 Y97.71 E0.13958
G1 X132.663 Y101.304 E0.13958
G1 X134.397 Y105.49 E0.13958
G1 X134.989 Y109.981 E0.13959
G1 X134.397 Y114.473 E0.13959
G1 X132.663 Y118.659 E0.13958
G1 X129.905 Y122.253 E0.13958
G1 X126.311 Y125.01 E0.13957
G1 X122.126 Y126.744 E0.13959
G1 X117.634 Y127.335 E0.13959
G1 X113.143 Y126.744 E0.13956
G1 X108.957 Y125.01 E0.1396
G1 X105.363 Y122.253 E0.13958
G1 X102.605 Y118.659 E0.13957
G1 X100.872 Y114.473 E0.13958
G1 X100.28 Y109.981 E0.13959
G1 X100.872 Y105.49 E0.13959
G1 X102.605 Y101.304 E0.13958
G1 X104.864 Y98.36 E0.11434
;WIPE_START
G1 X105.261 Y98.412 F30000
;WIPE_END
;WIPE_START
G1 F24000
G1 X105.506 Y97.853 E-0.0435
G1 X109.058 Y95.127 E-0.31905
G1 X113.195 Y93.413 E-0.31906
G1 X117.634 Y92.829 E-0.31898
G1 X118.027 Y92.881 E-0.02823
G1 X119.574 Y93.084 E-0.11118
;WIPE_END
G1 E-0.06 F1800
G1 X128.468 Y97.56 F30000
G1 E1.2 F1800
;TYPE:Solid infill
;WIDTH:0.382872
G1 F4800
G1 X129.29 Y98.382 E0.03609
G1 X130.823 Y100.379 E0.07815
G1 X127.237 Y96.792 E0.15745
G1 X125.859 Y95.735 E0.05391
G1 X125.613 Y95.633 E0.00827
G1 X131.982 Y102.002 E0.27962
G1 X132.31 Y102.796 E0.02665
G1 X124.82 Y95.305 E0.32886
G1 X124.027 Y94.976 E0.02665
G1 X132.639 Y103.589 E0.3781
G1 X132.968 Y104.382 E0.02665
G1 X123.234 Y94.648 E0.42734
G1 X122.441 Y94.319 E0.02665
G1 X133.296 Y105.175 E0.47658
G1 X133.523 Y105.724 E0.01845
G1 X133.545 Y105.888 E0.00516
G1 X121.727 Y94.07 E0.51885
G1 X121.192 Y94 E0.01675
G1 X133.616 Y106.423 E0.54542
G1 X133.686 Y106.958 E0.01675
G1 X120.657 Y93.93 E0.572
G1 X120.122 Y93.859 E0.01675
G1 X133.756 Y107.493 E0.59857
G1 X133.827 Y108.028 E0.01675
G1 X119.587 Y93.789 E0.62515
G1 X119.052 Y93.719 E0.01675
G1 X133.897 Y108.563 E0.65173
G1 X133.968 Y109.098 E0.01675
G1 X118.517 Y93.648 E0.6783
G1 X117.983 Y93.578 E0.01675
G1 X134.038 Y109.633 E0.70488
G1 X134.084 Y109.981 E0.0109
G1 X134.065 Y110.125 E0.00449
G1 X128.078 Y104.138 E0.26284
G1 X128.407 Y104.931 E0.02664
G1 X134.011 Y110.535 E0.24605
G1 X133.957 Y110.946 E0.01285
G1 X128.735 Y105.724 E0.22926
G1 X129.063 Y106.517 E0.02664
G1 X133.903 Y111.356 E0.21247
G1 X133.849 Y111.767 E0.01285
G1 X129.252 Y107.17 E0.20183
G1 X129.322 Y107.705 E0.01675
G1 X133.795 Y112.178 E0.19637
G1 X133.741 Y112.588 E0.01285
G1 X129.392 Y108.24 E0.19091
G1 X129.463 Y108.774 E0.01675
G1 X133.687 Y112.999 E0.18545
G1 X133.633 Y113.409 E0.01285
G1 X129.533 Y109.309 E0.17999
G1 X129.603 Y109.844 E0.01675
G1 X133.579 Y113.82 E0.17453
G1 X133.525 Y114.23 E0.01285
G1 X129.581 Y110.287 E0.17312
G1 X129.527 Y110.697 E0.01286
G1 X133.39 Y114.56 E0.1696
G1 X133.254 Y114.889 E0.01104
G1 X129.473 Y111.108 E0.166
G1 X129.419 Y111.518 E0.01286
G1 X133.118 Y115.217 E0.16239
G1 X132.982 Y115.546 E0.01104
G1 X129.365 Y111.929 E0.15879
G1 X129.311 Y112.34 E0.01286
G1 X132.846 Y115.874 E0.15519
G1 X132.71 Y116.203 E0.01104
G1 X129.257 Y112.75 E0.15158
G1 X129.213 Y113.084 E0.01044
G1 X129.188 Y113.145 E0.00207
G1 X132.574 Y116.531 E0.14866
G1 X132.438 Y116.86 E0.01104
G1 X129.052 Y113.474 E0.14865
G1 X128.916 Y113.802 E0.01104
G1 X132.302 Y117.188 E0.14865
G1 X132.166 Y117.517 E0.01104
G1 X128.78 Y114.131 E0.14865
G1 X128.644 Y114.459 E0.01104
G1 X132.03 Y117.845 E0.14865
G1 X131.894 Y118.174 E0.01104
G1 X128.508 Y114.788 E0.14865
G1 X128.372 Y115.116 E0.01104
G1 X131.698 Y118.443 E0.14606
G1 X131.497 Y118.706 E0.01029
G1 X128.235 Y115.445 E0.14318
G1 X128.099 Y115.773 E0.01104
G1 X131.295 Y118.969 E0.14029
G1 X131.093 Y119.232 E0.01029
G1 X127.938 Y116.076 E0.13852
G1 X127.736 Y116.339 E0.01029
G1 X130.892 Y119.495 E0.13852
M73 P2 R23
G1 X130.69 Y119.757 E0.01029
G1 X127.535 Y116.602 E0.13853
G1 X127.333 Y116.865 E0.01029
G1 X130.488 Y120.02 E0.13853
G1 X130.286 Y120.283 E0.01029
G1 X127.131 Y117.128 E0.13853
G1 X126.929 Y117.391 E0.01029
G1 X130.085 Y120.546 E0.13853
G1 X129.883 Y120.809 E0.01029
G1 X126.728 Y117.653 E0.13853
G1 X126.526 Y117.916 E0.01029
G1 X129.681 Y121.072 E0.13853
G1 X129.48 Y121.335 E0.01029
G1 X126.324 Y118.179 E0.13853
G1 X126.122 Y118.442 E0.01029
G1 X129.278 Y121.597 E0.13853
G1 X129.019 Y121.803 E0.01027
G1 X125.863 Y118.647 E0.13853
G1 X125.6 Y118.849 E0.01029
G1 X128.756 Y122.004 E0.13853
G1 X128.493 Y122.206 E0.01029
G1 X125.338 Y119.051 E0.13853
G1 X125.075 Y119.252 E0.01029
G1 X128.23 Y122.408 E0.13853
G1 X127.967 Y122.609 E0.01029
G1 X124.812 Y119.454 E0.13853
G1 X124.549 Y119.656 E0.01029
G1 X127.704 Y122.811 E0.13853
G1 X127.441 Y123.013 E0.01029
G1 X124.286 Y119.857 E0.13853
G1 X124.023 Y120.059 E0.01029
G1 X127.179 Y123.215 E0.13853
G1 X126.916 Y123.416 E0.01029
G1 X123.76 Y120.261 E0.13853
G1 X123.628 Y120.362 E0.00518
G1 X123.465 Y120.43 E0.00548
G1 X126.653 Y123.618 E0.13996
G1 X126.39 Y123.82 E0.01029
G1 X123.136 Y120.566 E0.14284
G1 X122.808 Y120.702 E0.01104
G1 X126.127 Y124.021 E0.14572
G1 X125.864 Y124.223 E0.01029
G1 X122.479 Y120.838 E0.1486
G1 X122.151 Y120.974 E0.01104
G1 X125.537 Y124.36 E0.14865
G1 X125.208 Y124.496 E0.01104
G1 X121.823 Y121.11 E0.14865
G1 X121.494 Y121.247 E0.01104
G1 X124.88 Y124.633 E0.14865
G1 X124.552 Y124.769 E0.01104
G1 X121.166 Y121.383 E0.14865
G1 X120.837 Y121.519 E0.01104
G1 X124.223 Y124.905 E0.14865
G1 X123.895 Y125.041 E0.01104
G1 X120.452 Y121.598 E0.15115
G1 X120.041 Y121.652 E0.01285
G1 X123.566 Y125.177 E0.15475
G1 X123.238 Y125.313 E0.01104
G1 X119.631 Y121.706 E0.15835
G1 X119.22 Y121.76 E0.01285
G1 X122.909 Y125.449 E0.16195
G1 X122.581 Y125.585 E0.01104
G1 X118.81 Y121.814 E0.16556
G1 X118.399 Y121.868 E0.01285
G1 X122.252 Y125.721 E0.16916
G1 X121.924 Y125.857 E0.01104
G1 X117.989 Y121.922 E0.17276
G1 X117.634 Y121.969 E0.01111
G1 X117.561 Y121.959 E0.00227
G1 X121.521 Y125.919 E0.17385
G1 X121.111 Y125.973 E0.01285
G1 X117.026 Y121.889 E0.17932
G1 X116.491 Y121.818 E0.01675
G1 X120.7 Y126.027 E0.18478
G1 X120.29 Y126.081 E0.01285
G1 X115.956 Y121.748 E0.19025
G1 X115.421 Y121.677 E0.01675
G1 X119.879 Y126.135 E0.19572
G1 X119.469 Y126.189 E0.01285
G1 X114.886 Y121.607 E0.20118
G1 X114.532 Y121.56 E0.0111
G1 X114.264 Y121.449 E0.00899
G1 X119.058 Y126.244 E0.21047
G1 X118.647 Y126.298 E0.01285
G1 X113.471 Y121.121 E0.22728
G1 X112.677 Y120.792 E0.02665
G1 X118.237 Y126.352 E0.24408
G1 X117.826 Y126.406 E0.01285
G1 X111.489 Y120.068 E0.27822
;WIPE_START
G1 F24000
G1 X117.826 Y126.406 E-0.63856
G1 X118.237 Y126.352 E-0.0295
G1 X113.553 Y121.668 E-0.47194
;WIPE_END
G1 E-0.06 F1800
G1 X124.016 Y100.076 F30000
G1 E1.2 F1800
G1 F4800
G1 X117.491 Y93.551 E0.28646
G1 X117.08 Y93.605 E0.01285
G1 X122.685 Y99.209 E0.24604
M73 P3 R23
G1 X121.891 Y98.88 E0.02666
G1 X116.67 Y93.659 E0.22923
G1 X116.259 Y93.713 E0.01285
G1 X121.098 Y98.551 E0.21243
G1 X120.737 Y98.402 E0.01212
G1 X120.446 Y98.364 E0.00913
G1 X115.849 Y93.767 E0.20181
G1 X115.438 Y93.821 E0.01285
G1 X119.911 Y98.293 E0.19635
G1 X119.376 Y98.223 E0.01675
G1 X115.028 Y93.875 E0.19089
G1 X114.617 Y93.929 E0.01285
G1 X118.841 Y98.153 E0.18543
G1 X118.306 Y98.082 E0.01675
G1 X114.207 Y93.983 E0.17998
G1 X113.796 Y94.037 E0.01285
G1 X117.771 Y98.012 E0.17452
G1 X117.634 Y97.994 E0.0043
G1 X117.329 Y98.034 E0.00956
G1 X113.385 Y94.091 E0.17312
G1 X113.377 Y94.092 E0.00026
G1 X113.055 Y94.225 E0.01081
G1 X116.918 Y98.088 E0.16959
G1 X116.508 Y98.142 E0.01286
G1 X112.727 Y94.361 E0.16598
G1 X112.398 Y94.497 E0.01104
G1 X116.097 Y98.196 E0.16238
G1 X115.686 Y98.25 E0.01286
G1 X112.07 Y94.633 E0.15878
G1 X111.741 Y94.77 E0.01104
G1 X115.276 Y98.304 E0.15518
G1 X114.865 Y98.358 E0.01286
G1 X111.413 Y94.906 E0.15157
G1 X111.084 Y95.042 E0.01104
G1 X114.47 Y98.427 E0.14864
G1 X114.142 Y98.564 E0.01104
G1 X110.756 Y95.178 E0.14865
G1 X110.427 Y95.314 E0.01104
G1 X113.813 Y98.7 E0.14865
G1 X113.485 Y98.836 E0.01104
G1 X110.099 Y95.45 E0.14865
G1 X109.77 Y95.586 E0.01104
G1 X113.156 Y98.972 E0.14865
G1 X112.828 Y99.108 E0.01104
G1 X109.442 Y95.722 E0.14865
G1 X109.409 Y95.735 E0.00109
G1 X109.172 Y95.917 E0.00927
G1 X112.499 Y99.244 E0.14605
G1 X112.171 Y99.38 E0.01104
G1 X108.91 Y96.119 E0.14317
G1 X108.647 Y96.321 E0.01029
G1 X111.842 Y99.516 E0.14029
G1 X111.64 Y99.6 E0.00679
G1 X111.539 Y99.678 E0.00396
G1 X108.384 Y96.522 E0.13852
G1 X108.121 Y96.724 E0.01029
G1 X111.276 Y99.879 E0.13852
G1 X111.013 Y100.081 E0.01029
G1 X107.858 Y96.926 E0.13852
G1 X107.595 Y97.127 E0.01029
G1 X110.751 Y100.283 E0.13852
G1 X110.488 Y100.484 E0.01029
G1 X107.332 Y97.329 E0.13852
G1 X107.07 Y97.531 E0.01029
G1 X110.225 Y100.686 E0.13852
G1 X109.962 Y100.888 E0.01029
G1 X106.807 Y97.733 E0.13852
G1 X106.544 Y97.934 E0.01029
G1 X109.699 Y101.089 E0.13852
G1 X109.436 Y101.291 E0.01029
G1 X106.281 Y98.136 E0.13852
G1 X106.018 Y98.338 E0.01029
G1 X109.173 Y101.493 E0.13852
G1 X108.968 Y101.752 E0.01027
G1 X105.813 Y98.597 E0.13852
G1 X105.611 Y98.86 E0.01029
G1 X108.766 Y102.015 E0.13852
G1 X108.565 Y102.278 E0.01029
G1 X105.409 Y99.123 E0.13852
G1 X105.208 Y99.386 E0.01029
G1 X108.363 Y102.541 E0.13852
G1 X108.161 Y102.804 E0.01029
G1 X105.006 Y99.648 E0.13852
G1 X104.804 Y99.911 E0.01029
G1 X107.96 Y103.066 E0.13852
G1 X107.758 Y103.329 E0.01029
G1 X104.603 Y100.174 E0.13852
G1 X104.401 Y100.437 E0.01029
G1 X107.556 Y103.592 E0.13852
G1 X107.355 Y103.855 E0.01029
G1 X104.199 Y100.7 E0.13852
G1 X103.998 Y100.963 E0.01029
G1 X107.185 Y104.151 E0.13995
G1 X107.049 Y104.479 E0.01104
G1 X103.796 Y101.226 E0.14283
G1 X103.594 Y101.489 E0.01029
G1 X106.913 Y104.808 E0.14571
G1 X106.777 Y105.136 E0.01104
G1 X103.393 Y101.751 E0.1486
G1 X103.389 Y101.756 E0.00019
G1 X103.255 Y102.079 E0.01083
G1 X106.641 Y105.465 E0.14865
G1 X106.505 Y105.793 E0.01104
G1 X103.119 Y102.407 E0.14865
G1 X102.983 Y102.736 E0.01104
G1 X106.369 Y106.122 E0.14865
G1 X106.233 Y106.45 E0.01104
G1 X102.847 Y103.064 E0.14865
G1 X102.711 Y103.393 E0.01104
G1 X106.097 Y106.779 E0.14866
G1 X106.055 Y106.879 E0.00338
G1 X106.018 Y107.164 E0.00892
G1 X102.575 Y103.721 E0.15115
G1 X102.439 Y104.05 E0.01104
G1 X105.964 Y107.575 E0.15476
G1 X105.91 Y107.985 E0.01285
G1 X102.303 Y104.378 E0.15836
G1 X102.167 Y104.707 E0.01104
G1 X105.856 Y108.396 E0.16196
G1 X105.802 Y108.806 E0.01285
G1 X102.031 Y105.035 E0.16556
