; generated by SuperSlicer 2.4 on 2022-10-22 at 13:36:25 UTC


;
;

;
;
; 

; external perimeters extrusion width = 0.45mm
; perimeters extrusion width = 0.45mm
; infill extrusion width = 0.45mm
; solid infill extrusion width = 0.48mm
; top infill extrusion width = 0.42mm
; first layer extrusion width = 0.38mm

; object:{"name":"Top-MGN9-Sherpa nini","id":"Top-MGN9-Sherpa nini.stl id:0 copy 0","object_center":[185.782274,200.291424,0.000000],"boundingbox_center":[185.782274,200.291424,11.000002],"boundingbox_size":[44.099998,27.000000,22.000004]}
; plater:{"center":[185.782274,200.291424,0.000000],"boundingbox_center":[185.782274,200.291424,11.000002],"boundingbox_size":[44.099998,27.000000,22.000004]}

M73 P0 R38
;TYPE:Custom
; custom gcode: start_gcode
M104 S0 ; Stops PS/SS from sending temp waits separately
M140 S0
PRINT_START EXTRUDER_TEMP=235 BED_TEMP=65
; custom gcode end: start_gcode
M107
G21 ; set units to millimeters
G90 ; use absolute coordinates
M83 ; use relative distances for extrusion
; custom gcode: start_filament_gcode
; Filament gcode
;SET_GCODE_OFFSET Z=0
;SET_PRESSURE_ADVANCE ADVANCE=0.05
; custom gcode end: start_filament_gcode
;_TOOLCHANGE 0
;LAYER_CHANGE
;Z:0.2
;HEIGHT:0.2
G1 E-1.2 F1800
G1 Z0.2 F30000
G92 E0
M104 S235 ; set temperature
; printing object Top-MGN9-Sherpa nini.stl id:0 copy 0
G1 X189.394 Y206.092
G1 E1.2 F1800
;TYPE:Internal perimeter
;WIDTH:0.38
G1 F1500
G1 X189.369 Y206.108 E0.00078
G1 X189.153 Y206.312 E0.00782
G1 X188.854 Y206.714 E0.01321
G1 X188.648 Y207.192 E0.0137
G1 X188.561 Y207.685 E0.01321
G1 X188.561 Y207.964 E0.00733
G1 X188.593 Y208.24 E0.00733
G1 X188.737 Y208.721 E0.01321
G1 X188.988 Y209.155 E0.01321
G1 X189.179 Y209.382 E0.00782
G1 X189.549 Y209.693 E0.01273
G1 X189.806 Y209.841 E0.00782
G1 X190.277 Y210.013 E0.01321
G1 X190.758 Y210.069 E0.01276
G1 X194.072 Y210.058 E0.08731
G1 X194.577 Y209.938 E0.01367
G1 X195.041 Y209.705 E0.0137
G1 X195.44 Y209.371 E0.0137
G1 X195.75 Y208.954 E0.0137
G1 X195.956 Y208.476 E0.0137
G1 X196.043 Y207.982 E0.01321
G1 X196.043 Y207.685 E0.00782
G1 X195.956 Y207.192 E0.01321
G1 X195.757 Y206.731 E0.01321
G1 X195.594 Y206.483 E0.00782
G1 X195.25 Y206.118 E0.01321
G1 X194.816 Y205.833 E0.0137
G1 X194.327 Y205.655 E0.0137
G1 X193.847 Y205.599 E0.01273
G1 X190.757 Y205.599 E0.08142
G1 X190.295 Y205.653 E0.01224
G1 X190.028 Y205.732 E0.00733
G1 X189.773 Y205.843 E0.00733
G1 X189.394 Y206.092 E0.01195
G1 X189.579 Y206.374 F30000
;TYPE:External perimeter
G1 F1500
G1 X189.406 Y206.537 E0.00626
G1 X189.148 Y206.884 E0.0114
G1 X188.973 Y207.289 E0.01162
G1 X188.898 Y207.715 E0.0114
G1 X188.898 Y207.944 E0.00604
G1 X188.925 Y208.172 E0.00604
G1 X189.049 Y208.586 E0.0114
G1 X189.265 Y208.961 E0.0114
G1 X189.418 Y209.143 E0.00626
G1 X189.743 Y209.416 E0.01117
G1 X189.949 Y209.535 E0.00626
G1 X190.355 Y209.683 E0.0114
G1 X190.777 Y209.732 E0.01119
G1 X194.032 Y209.721 E0.08576
G1 X194.461 Y209.619 E0.01161
G1 X194.855 Y209.421 E0.01162
G1 X195.193 Y209.138 E0.01162
G1 X195.456 Y208.784 E0.01162
G1 X195.631 Y208.379 E0.01162
G1 X195.706 Y207.953 E0.0114
G1 X195.706 Y207.715 E0.00626
G1 X195.631 Y207.289 E0.0114
G1 X195.46 Y206.892 E0.0114
G1 X195.329 Y206.693 E0.00626
G1 X195.032 Y206.378 E0.0114
G1 X194.663 Y206.136 E0.01162
G1 X194.249 Y205.985 E0.01162
G1 X193.828 Y205.936 E0.01117
G1 X190.776 Y205.936 E0.08039
G1 X190.364 Y205.984 E0.01095
G1 X190.144 Y206.05 E0.00604
G1 X189.933 Y206.141 E0.00604
G1 X189.579 Y206.374 E0.01117
;WIPE_START
G1 X189.203 Y206.237 F30000
;WIPE_END
;WIPE_START
G1 F24000
G1 X188.973 Y206.783 E-0.04223
G1 X188.78 Y207.231 E-0.03476
G1 X188.698 Y207.697 E-0.03374
G1 X188.698 Y207.956 E-0.01841
G1 X188.728 Y208.213 E-0.01841
G1 X188.864 Y208.666 E-0.03374
G1 X189.101 Y209.076 E-0.03374
G1 X189.276 Y209.285 E-0.01943
G1 X189.628 Y209.58 E-0.03271
G1 X189.864 Y209.717 E-0.01943
G1 X190.309 Y209.879 E-0.03374
G1 X190.766 Y209.932 E-0.03278
G1 X194.056 Y209.921 E-0.23441
G1 X194.529 Y209.808 E-0.0347
G1 X194.965 Y209.59 E-0.03476
G1 X195.339 Y209.276 E-0.03476
G1 X195.631 Y208.885 E-0.03476
G1 X195.824 Y208.437 E-0.03476
G1 X195.906 Y207.97 E-0.03374
G1 X195.906 Y207.697 E-0.01943
G1 X195.824 Y207.231 E-0.03374
G1 X195.636 Y206.796 E-0.03374
G1 X195.486 Y206.568 E-0.01943
G1 X195.161 Y206.224 E-0.03374
G1 X194.754 Y205.956 E-0.03476
G1 X194.295 Y205.789 E-0.03476
G1 X193.839 Y205.736 E-0.03272
G1 X192.398 Y205.736 E-0.10266
;WIPE_END
G1 E-0.06 F1800
G1 X182.903 Y207.192 F30000
G1 E1.2 F1800
;TYPE:Internal perimeter
G1 F1500
G1 X182.704 Y206.731 E0.01321
G1 X182.541 Y206.483 E0.00782
G1 X182.197 Y206.118 E0.01321
G1 X181.763 Y205.833 E0.0137
G1 X181.274 Y205.655 E0.0137
G1 X180.794 Y205.599 E0.01273
G1 X177.704 Y205.599 E0.08142
G1 X177.242 Y205.653 E0.01224
G1 X176.975 Y205.732 E0.00733
G1 X176.72 Y205.843 E0.00733
G1 X176.316 Y206.108 E0.01273
G1 X176.1 Y206.312 E0.00782
G1 X175.801 Y206.714 E0.01321
G1 X175.595 Y207.192 E0.0137
G1 X175.508 Y207.685 E0.01321
G1 X175.508 Y207.964 E0.00733
G1 X175.54 Y208.24 E0.00733
M73 P1 R38
G1 X175.684 Y208.721 E0.01321
G1 X175.935 Y209.155 E0.01321
G1 X176.125 Y209.382 E0.00782
G1 X176.495 Y209.693 E0.01273
G1 X176.752 Y209.841 E0.00782
G1 X177.224 Y210.013 E0.01321
G1 X177.705 Y210.069 E0.01276
G1 X181.019 Y210.058 E0.08731
G1 X181.524 Y209.938 E0.01367
G1 X181.988 Y209.705 E0.0137
G1 X182.386 Y209.371 E0.0137
G1 X182.697 Y208.954 E0.0137
G1 X182.903 Y208.476 E0.0137
G1 X182.99 Y207.982 E0.01321
G1 X182.99 Y207.685 E0.00782
G1 X182.903 Y207.192 E0.01321
G1 X182.632 Y207.599 F30000
;TYPE:External perimeter
G1 F1500
G1 X182.578 Y207.289 E0.00828
G1 X182.406 Y206.892 E0.0114
G1 X182.276 Y206.693 E0.00626
G1 X181.979 Y206.378 E0.0114
G1 X181.61 Y206.136 E0.01162
G1 X181.196 Y205.985 E0.01162
G1 X180.774 Y205.936 E0.01117
G1 X177.723 Y205.936 E0.08039
G1 X177.31 Y205.984 E0.01095
G1 X177.091 Y206.05 E0.00604
G1 X176.88 Y206.141 E0.00604
G1 X176.526 Y206.374 E0.01117
G1 X176.353 Y206.537 E0.00626
G1 X176.095 Y206.884 E0.0114
G1 X175.92 Y207.289 E0.01162
G1 X175.845 Y207.715 E0.0114
G1 X175.845 Y207.944 E0.00604
G1 X175.871 Y208.172 E0.00604
G1 X175.996 Y208.586 E0.0114
G1 X176.212 Y208.961 E0.0114
G1 X176.365 Y209.143 E0.00626
G1 X176.69 Y209.416 E0.01117
G1 X176.895 Y209.535 E0.00626
G1 X177.302 Y209.683 E0.0114
G1 X177.724 Y209.732 E0.01119
G1 X180.979 Y209.721 E0.08576
G1 X181.407 Y209.619 E0.01161
G1 X181.802 Y209.421 E0.01162
G1 X182.14 Y209.138 E0.01162
G1 X182.403 Y208.784 E0.01162
G1 X182.578 Y208.379 E0.01162
G1 X182.653 Y207.953 E0.0114
G1 X182.653 Y207.715 E0.00626
G1 X182.632 Y207.599 E0.00311
;WIPE_START
G1 X182.939 Y207.341 F30000
;WIPE_END
G1 X183.553 Y206.997
;TYPE:Internal perimeter
G1 F1500
G1 X183.3 Y206.41 E0.01684
G1 X183.072 Y206.063 E0.01093
G1 X182.628 Y205.593 E0.01705
G1 X188.848 Y205.593 E0.16389
G1 X188.266 Y206.375 E0.02569
G1 X187.998 Y206.997 E0.01785
G1 X187.887 Y207.626 E0.01684
G1 X187.887 Y208.003 E0.00992
G1 X187.93 Y208.377 E0.00992
G1 X188.114 Y208.99 E0.01684
G1 X188.433 Y209.543 E0.01684
G1 X188.7 Y209.861 E0.01093
G1 X189.16 Y210.247 E0.01584
G1 X189.52 Y210.455 E0.01093
G1 X190.12 Y210.673 E0.01684
G1 X190.72 Y210.743 E0.0159
G1 X194.152 Y210.732 E0.09042
G1 X194.809 Y210.576 E0.01779
G1 X195.414 Y210.272 E0.01785
G1 X195.933 Y209.836 E0.01785
G1 X196.338 Y209.293 E0.01785
G1 X196.606 Y208.671 E0.01785
G1 X196.717 Y208.041 E0.01684
G1 X196.717 Y207.626 E0.01092
G1 X196.606 Y206.997 E0.01684
G1 X196.353 Y206.41 E0.01684
G1 X196.125 Y206.063 E0.01093
G1 X195.681 Y205.593 E0.01705
G1 X205.631 Y205.593 E0.26215
G1 X205.631 Y212.49 E0.18173
G1 X165.934 Y212.49 E1.04589
G1 X165.934 Y205.593 E0.18173
G1 X175.795 Y205.593 E0.25982
G1 X175.213 Y206.375 E0.02569
G1 X174.945 Y206.997 E0.01785
G1 X174.834 Y207.626 E0.01684
G1 X174.834 Y208.003 E0.00992
G1 X174.877 Y208.377 E0.00992
G1 X175.061 Y208.99 E0.01684
G1 X175.38 Y209.543 E0.01684
G1 X175.647 Y209.861 E0.01093
G1 X176.107 Y210.247 E0.01584
G1 X176.466 Y210.455 E0.01093
G1 X177.067 Y210.673 E0.01684
G1 X177.667 Y210.743 E0.0159
M73 P1 R37
G1 X181.099 Y210.732 E0.09042
G1 X181.756 Y210.576 E0.01779
G1 X182.361 Y210.272 E0.01785
G1 X182.88 Y209.836 E0.01785
G1 X183.285 Y209.293 E0.01785
G1 X183.553 Y208.671 E0.01785
G1 X183.664 Y208.041 E0.01684
G1 X183.664 Y207.626 E0.01093
G1 X183.553 Y206.997 E0.01684
G1 X183.228 Y207.094 F30000
G1 F1500
G1 X183.002 Y206.57 E0.01503
G1 X182.807 Y206.273 E0.00937
G1 X182.415 Y205.858 E0.01503
G1 X181.864 Y205.496 E0.01738
G1 X181.936 Y205.256 E0.00661
G1 X189.615 Y205.256 E0.2023
G1 X189.687 Y205.496 E0.00661
G1 X189.159 Y205.843 E0.01663
G1 X188.901 Y206.087 E0.00937
G1 X188.56 Y206.544 E0.01503
G1 X188.323 Y207.094 E0.01578
G1 X188.224 Y207.656 E0.01503
G1 X188.224 Y207.983 E0.00863
G1 X188.262 Y208.309 E0.00863
G1 X188.425 Y208.855 E0.01503
G1 X188.711 Y209.349 E0.01503
G1 X188.939 Y209.622 E0.00937
G1 X189.355 Y209.97 E0.01428
G1 X189.663 Y210.148 E0.00937
G1 X190.199 Y210.343 E0.01503
G1 X190.739 Y210.406 E0.01433
G1 X194.112 Y210.395 E0.08887
G1 X194.693 Y210.257 E0.01573
G1 X195.228 Y209.988 E0.01578
G1 X195.686 Y209.603 E0.01578
G1 X196.044 Y209.123 E0.01578
G1 X196.281 Y208.573 E0.01578
G1 X196.38 Y208.012 E0.01503
G1 X196.38 Y207.656 E0.00937
G1 X196.281 Y207.094 E0.01503
G1 X196.055 Y206.57 E0.01503
G1 X195.86 Y206.273 E0.00937
G1 X195.468 Y205.858 E0.01503
G1 X194.917 Y205.496 E0.01738
G1 X194.989 Y205.256 E0.00661
G1 X205.968 Y205.256 E0.28925
G1 X205.968 Y212.827 E0.19949
G1 X165.596 Y212.827 E1.06366
G1 X165.596 Y205.256 E0.19949
G1 X176.562 Y205.256 E0.28889
G1 X176.634 Y205.496 E0.00661
G1 X176.106 Y205.843 E0.01663
G1 X175.847 Y206.087 E0.00937
G1 X175.507 Y206.544 E0.01503
G1 X175.27 Y207.094 E0.01578
G1 X175.171 Y207.656 E0.01503
G1 X175.171 Y207.983 E0.00863
G1 X175.209 Y208.309 E0.00863
G1 X175.372 Y208.855 E0.01503
G1 X175.657 Y209.349 E0.01503
G1 X175.886 Y209.622 E0.00937
G1 X176.301 Y209.97 E0.01428
G1 X176.609 Y210.148 E0.00937
G1 X177.145 Y210.343 E0.01503
G1 X177.686 Y210.406 E0.01433
G1 X181.059 Y210.395 E0.08887
G1 X181.64 Y210.257 E0.01573
G1 X182.175 Y209.988 E0.01578
G1 X182.633 Y209.603 E0.01578
G1 X182.991 Y209.123 E0.01578
G1 X183.228 Y208.573 E0.01578
G1 X183.327 Y208.012 E0.01503
G1 X183.327 Y207.656 E0.00937
G1 X183.228 Y207.094 E0.01503
;WIPE_START
G1 F24000
G1 X183.002 Y206.57 E-0.04064
G1 X182.807 Y206.273 E-0.02534
G1 X182.415 Y205.858 E-0.04064
G1 X181.864 Y205.496 E-0.04699
G1 X181.936 Y205.256 E-0.01788
G1 X189.615 Y205.256 E-0.5471
G1 X189.687 Y205.496 E-0.01788
G1 X189.159 Y205.843 E-0.04497
G1 X188.901 Y206.087 E-0.02534
G1 X188.56 Y206.544 E-0.04064
G1 X188.323 Y207.094 E-0.04266
G1 X188.224 Y207.656 E-0.04064
G1 X188.224 Y207.983 E-0.02334
G1 X188.262 Y208.309 E-0.02334
G1 X188.425 Y208.855 E-0.04064
G1 X188.711 Y209.349 E-0.04064
G1 X188.939 Y209.622 E-0.02534
G1 X189.355 Y209.97 E-0.03862
G1 X189.565 Y210.092 E-0.01735
;WIPE_END
G1 E-0.06 F1800
G1 X165.259 Y204.919 F30000
G1 E1.2 F1800
G1 F1500
G1 X206.305 Y204.919 E1.08142
G1 X206.305 Y213.164 E0.21725
G1 X165.259 Y213.164 E1.08142
G1 X165.259 Y204.919 E0.21725
G1 X164.922 Y204.581 F30000
;TYPE:External perimeter
G1 F1500
G1 X206.642 Y204.581 E1.09918
G1 X206.642 Y213.501 E0.23501
G1 X164.922 Y213.501 E1.09918
G1 X164.922 Y204.581 E0.23501
;WIPE_START
G1 X165.269 Y204.781 F30000
;WIPE_END
;WIPE_START
G1 F24000
G1 X181.269 Y204.781 E-1.14
;WIPE_END
G1 E-0.06 F1800
G1 X176.755 Y205.361 F30000
G1 E1.2 F1800
;TYPE:Gap fill
;WIDTH:0.560929
G1 F1500
G1 X176.84 Y205.343 E0.00355
;WIDTH:0.535463
G1 X176.992 Y205.314 E0.00595
;WIDTH:0.496847
G1 X177.186 Y205.288 E0.00693
;WIDTH:0.471427
G1 X177.429 Y205.273 E0.00817
;WIDTH:0.414661
G1 X177.673 Y205.259 E0.00709
G1 X177.695 Y205.259 E0.00063
G1 X180.803 Y205.259 E0.09032
G1 X180.825 Y205.259 E0.00063
G1 X181.08 Y205.274 E0.00743
;WIDTH:0.474103
G1 X181.335 Y205.289 E0.00861
;WIDTH:0.498942
G1 X181.504 Y205.316 E0.00608
;WIDTH:0.548836
G1 X181.673 Y205.353 E0.00686
G1 X181.743 Y205.359 E0.0028
;WIPE_START
G1 F24000
G1 X181.673 Y205.353 E-0.00505
G1 X181.504 Y205.316 E-0.01236
;WIPE_END
G1 E-1.1826 F1800
G1 X189.808 Y205.361 F30000
G1 E1.2 F1800
;WIDTH:0.560929
G1 F1500
G1 X189.894 Y205.343 E0.00355
;WIDTH:0.535462
G1 X190.045 Y205.314 E0.00595
;WIDTH:0.496847
G1 X190.239 Y205.288 E0.00693
;WIDTH:0.471427
G1 X190.483 Y205.273 E0.00817
;WIDTH:0.414661
G1 X190.726 Y205.259 E0.00709
G1 X190.748 Y205.259 E0.00063
G1 X193.856 Y205.259 E0.09032
G1 X193.878 Y205.259 E0.00063
G1 X194.133 Y205.274 E0.00743
;WIDTH:0.474103
G1 X194.388 Y205.289 E0.00861
;WIDTH:0.498942
G1 X194.557 Y205.316 E0.00608
;WIDTH:0.548836
G1 X194.726 Y205.353 E0.00686
G1 X194.797 Y205.359 E0.0028
;WIPE_START
G1 F24000
G1 X194.726 Y205.353 E-0.00505
G1 X194.557 Y205.316 E-0.01236
;WIPE_END
G1 E-1.1826 F1800
G1 X205.53 Y206.375 F30000
G1 E1.2 F1800
;TYPE:Solid infill
;WIDTH:0.383832
G1 F2100
G1 X204.993 Y205.839 E0.02019
G1 X204.517 Y205.839 E0.01269
G1 X205.385 Y206.707 E0.03268
G1 X205.385 Y207.184 E0.01269
G1 X204.04 Y205.839 E0.05062
G1 X203.563 Y205.839 E0.01269
G1 X205.385 Y207.66 E0.06856
G1 X205.385 Y208.137 E0.01269
G1 X203.087 Y205.839 E0.0865
G1 X202.61 Y205.839 E0.01269
G1 X205.385 Y208.614 E0.10444
G1 X205.385 Y209.09 E0.01269
G1 X202.133 Y205.839 E0.12238
G1 X201.657 Y205.839 E0.01269
G1 X205.385 Y209.567 E0.14032
G1 X205.385 Y210.044 E0.01269
G1 X201.18 Y205.839 E0.15826
G1 X200.703 Y205.839 E0.01269
G1 X205.385 Y210.521 E0.1762
G1 X205.385 Y210.997 E0.01269
G1 X200.226 Y205.839 E0.19414
G1 X199.75 Y205.839 E0.01269
G1 X205.385 Y211.474 E0.21209
G1 X205.385 Y211.951 E0.01269
G1 X199.273 Y205.839 E0.23003
G1 X198.796 Y205.839 E0.01269
G1 X205.202 Y212.244 E0.24107
G1 X204.725 Y212.244 E0.01269
G1 X198.32 Y205.839 E0.24107
G1 X197.843 Y205.839 E0.01269
G1 X204.248 Y212.244 E0.24107
G1 X203.772 Y212.244 E0.01269
G1 X197.366 Y205.839 E0.24107
G1 X196.89 Y205.839 E0.01269
G1 X203.295 Y212.244 E0.24107
M73 P2 R37
G1 X202.818 Y212.244 E0.01269
G1 X196.413 Y205.839 E0.24107
G1 X196.251 Y205.839 E0.0043
G1 X196.328 Y205.92 E0.00297
G1 X196.658 Y206.561 E0.01919
G1 X202.342 Y212.244 E0.21389
G1 X201.865 Y212.244 E0.01269
G1 X196.882 Y207.261 E0.18754
G1 X196.939 Y207.794 E0.01428
G1 X201.388 Y212.244 E0.16747
G1 X200.911 Y212.244 E0.01269
G1 X196.928 Y208.261 E0.14991
G1 X196.857 Y208.666 E0.01095
G1 X200.435 Y212.244 E0.13466
G1 X199.958 Y212.244 E0.01269
G1 X196.727 Y209.013 E0.12161
G1 X196.583 Y209.346 E0.00965
G1 X199.481 Y212.244 E0.10908
G1 X199.005 Y212.244 E0.01269
G1 X196.392 Y209.632 E0.09832
G1 X196.189 Y209.905 E0.00907
G1 X198.528 Y212.244 E0.08803
G1 X198.051 Y212.244 E0.01269
G1 X195.95 Y210.143 E0.07907
G1 X195.691 Y210.361 E0.009
G1 X197.575 Y212.244 E0.07088
G1 X197.098 Y212.244 E0.01269
G1 X195.405 Y210.552 E0.0637
G1 X195.088 Y210.711 E0.00945
G1 X196.621 Y212.244 E0.0577
G1 X196.144 Y212.244 E0.01269
G1 X194.744 Y210.844 E0.05269
G1 X194.359 Y210.935 E0.01054
G1 X195.668 Y212.244 E0.04925
G1 X195.191 Y212.244 E0.01269
G1 X193.925 Y210.979 E0.04763
G1 X193.45 Y210.98 E0.01264
G1 X194.714 Y212.244 E0.04757
G1 X194.238 Y212.244 E0.01269
G1 X192.975 Y210.982 E0.04751
G1 X192.5 Y210.983 E0.01264
G1 X193.761 Y212.244 E0.04745
G1 X193.284 Y212.244 E0.01269
G1 X192.025 Y210.985 E0.04739
G1 X191.55 Y210.987 E0.01264
G1 X192.808 Y212.244 E0.04733
G1 X192.331 Y212.244 E0.01269
G1 X191.075 Y210.988 E0.04727
G1 X190.706 Y210.989 E0.00982
G1 X190.585 Y210.975 E0.00323
G1 X191.854 Y212.244 E0.04775
G1 X191.377 Y212.244 E0.01269
G1 X189.796 Y210.663 E0.05951
;WIPE_START
G1 F24000
G1 X191.377 Y212.244 E-0.15933
G1 X191.854 Y212.244 E-0.03397
G1 X190.585 Y210.975 E-0.12784
G1 X190.706 Y210.989 E-0.00864
G1 X191.075 Y210.988 E-0.0263
G1 X192.331 Y212.244 E-0.12655
G1 X192.808 Y212.244 E-0.03397
G1 X191.55 Y210.987 E-0.12672
G1 X192.025 Y210.985 E-0.03385
G1 X193.284 Y212.244 E-0.12688
G1 X193.761 Y212.244 E-0.03396
G1 X192.5 Y210.983 E-0.12704
G1 X192.975 Y210.982 E-0.03385
G1 X194.238 Y212.244 E-0.1272
G1 X194.433 Y212.244 E-0.01391
;WIPE_END
G1 E-0.06 F1800
G1 X188.164 Y205.694 F30000
G1 E1.2 F1800
G1 F2100
