; generated by SuperSlicer 2.4 on 2022-11-06 at 20:36:15 UTC


;
;

;
;
; 

; external perimeters extrusion width = 0.45mm
; perimeters extrusion width = 0.45mm
; infill extrusion width = 0.45mm
; solid infill extrusion width = 0.48mm
; top infill extrusion width = 0.40mm
; first layer extrusion width = 0.38mm

; object:{"name":"Mickey_Mouse-Black_Base","id":"Mickey_Mouse-Black_Base.stl id:0 copy 0","object_center":[165.000000,162.500000,0.000000],"boundingbox_center":[165.000000,162.500000,3.750000],"boundingbox_size":[99.817368,85.537857,7.500000]}
; plater:{"center":[165.000000,162.500000,0.000000],"boundingbox_center":[165.000000,162.500000,3.750000],"boundingbox_size":[99.817368,85.537857,7.500000]}

M204 P6000 T7000 ; sets acceleration (P, T), mm/sec^2
;TYPE:Custom
; custom gcode: start_gcode
PRINT_START EXTRUDER_TEMP=220 BED_TEMP=55
; custom gcode end: start_gcode
M107
G21 ; set units to millimeters
G90 ; use absolute coordinates
M82 ; use absolute distances for extrusion
G92 E0
; custom gcode: start_filament_gcode
; Filament gcode
;SET_GCODE_OFFSET Z=0
;SET_PRESSURE_ADVANCE ADVANCE=0.05
; custom gcode end: start_filament_gcode
;_TOOLCHANGE 0
M104 S220 ; set temperature
M109 S220 ; set temperature and wait for it to be reached
M190 S55 ; set bed temperature and wait for it to be reached
;LAYER_CHANGE
;Z:0.24
;HEIGHT:0.24
; custom gcode: before_layer_gcode
;BEFORE_LAYER_CHANGE
;0.24
; custom gcode end: before_layer_gcode

G1 E-1 F7200
G1 Z0.24 F24000
; custom gcode: layer_gcode
;AFTER_LAYER_CHANGE
;0.24
; custom gcode end: layer_gcode

G92 E0
; printing object Mickey_Mouse-Black_Base.stl id:0 copy 0
G1 X178.263 Y139.623
G1 E1 F3600
;TYPE:Internal perimeter
;WIDTH:0.38
G1 F4500
G1 X178.263 Y146.174 E1.1911
G1 X190.814 Y146.174 E1.55724
G1 X190.814 Y139.623 E1.74834
G1 X178.323 Y139.623 E2.11273
G1 X178.592 Y139.952 F24000
G1 F4500
G1 X178.592 Y145.846 E2.28467
G1 X190.486 Y145.846 E2.63164
G1 X190.486 Y139.952 E2.80358
G1 X178.652 Y139.952 E3.1488
G1 X178.92 Y140.28 F24000
G1 F4500
G1 X178.92 Y145.517 E3.30157
G1 X190.157 Y145.517 E3.62937
G1 X190.157 Y140.28 E3.78215
G1 X178.98 Y140.28 E4.1082
G1 X179.249 Y140.609 F24000
;TYPE:External perimeter
G1 F4500
G1 X179.249 Y145.189 E4.24181
G1 X184.079 Y145.189 E4.38271
G1 X184.079 Y140.609 E4.51631
G1 X179.309 Y140.609 E4.65546
;WIPE_START
G1 X178.849 Y140.609 F24000
;WIPE_END
G92 E0
G1 E-1 F7200
G1 X184.999 Y140.609 F24000
G1 E0 F3600
G1 F4500
G1 X184.999 Y145.189 E0.13361
G1 X189.829 Y145.189 E0.27451
G1 X189.829 Y140.609 E0.40811
G1 X185.059 Y140.609 E0.54726
;WIPE_START
G1 X184.599 Y140.609 F24000
;WIPE_END
G92 E0
G1 E-1 F7200
G1 X157.814 Y139.623 F24000
G1 E0 F3600
;TYPE:Internal perimeter
G1 F4500
G1 X145.263 Y139.623 E0.36614
G1 X145.263 Y146.174 E0.55724
G1 X157.814 Y146.174 E0.92338
G1 X157.814 Y139.683 E1.11273
G1 X157.486 Y139.952 F24000
G1 F4500
G1 X145.592 Y139.952 E1.4597
G1 X145.592 Y145.846 E1.63164
G1 X157.486 Y145.846 E1.97861
G1 X157.486 Y140.012 E2.1488
G1 X157.157 Y140.28 F24000
G1 F4500
G1 X145.92 Y140.28 E2.4766
G1 X145.92 Y145.517 E2.62937
G1 X157.157 Y145.517 E2.95718
G1 X157.157 Y140.34 E3.1082
G1 X156.829 Y140.609 F24000
;TYPE:External perimeter
G1 F4500
G1 X151.999 Y140.609 E3.2491
G1 X151.999 Y145.189 E3.38271
G1 X156.829 Y145.189 E3.52361
G1 X156.829 Y140.669 E3.65546
;WIPE_START
G1 X156.829 Y140.209 F24000
;WIPE_END
G92 E0
G1 E-1 F7200
G1 X151.079 Y140.609 F24000
G1 E0 F3600
G1 F4500
G1 X146.249 Y140.609 E0.1409
G1 X146.249 Y145.189 E0.27451
G1 X151.079 Y145.189 E0.41541
G1 X151.079 Y140.669 E0.54726
;WIPE_START
G1 X151.079 Y140.209 F24000
;WIPE_END
G92 E0
G1 E-1 F7200
G1 X151.999 Y185.623 F24000
G1 E0 F3600
;TYPE:Internal perimeter
G1 F4500
G1 X145.263 Y185.623 E0.19649
G1 X145.263 Y192.174 E0.38759
G1 X157.814 Y192.174 E0.75373
G1 X157.814 Y185.623 E0.94483
G1 X152.059 Y185.623 E1.11273
G1 X151.999 Y185.952 F24000
G1 F4500
G1 X145.592 Y185.952 E1.29963
G1 X145.592 Y191.846 E1.47157
G1 X157.486 Y191.846 E1.81854
G1 X157.486 Y185.952 E1.99048
G1 X152.059 Y185.952 E2.1488
G1 X151.999 Y186.28 F24000
G1 F4500
G1 X145.92 Y186.28 E2.32612
G1 X145.92 Y191.517 E2.47889
G1 X157.157 Y191.517 E2.80669
G1 X157.157 Y186.28 E2.95947
G1 X152.059 Y186.28 E3.1082
G1 X151.999 Y186.609 F24000
;TYPE:External perimeter
G1 F4500
G1 X151.999 Y191.189 E3.24181
G1 X156.829 Y191.189 E3.38271
G1 X156.829 Y186.609 E3.51631
G1 X152.059 Y186.609 E3.65546
;WIPE_START
G1 X151.599 Y186.609 F24000
;WIPE_END
G1 X151.079 Y186.609
G1 F4500
G1 X146.249 Y186.609 E3.79636
G1 X146.249 Y191.189 E3.92997
G1 X151.079 Y191.189 E4.07087
G1 X151.079 Y186.669 E4.20273
;WIPE_START
G1 X151.079 Y186.209 F24000
;WIPE_END
G92 E0
G1 E-1 F7200
G1 X178.263 Y185.623 F24000
G1 E0 F3600
;TYPE:Internal perimeter
G1 F4500
G1 X178.263 Y192.174 E0.1911
G1 X190.814 Y192.174 E0.55724
G1 X190.814 Y185.623 E0.74834
G1 X178.323 Y185.623 E1.11273
G1 X178.592 Y185.952 F24000
G1 F4500
G1 X178.592 Y191.846 E1.28467
G1 X190.486 Y191.846 E1.63164
G1 X190.486 Y185.952 E1.80358
G1 X178.652 Y185.952 E2.1488
G1 X178.92 Y186.28 F24000
G1 F4500
G1 X178.92 Y191.517 E2.30157
G1 X190.157 Y191.517 E2.62937
G1 X190.157 Y186.28 E2.78215
G1 X178.98 Y186.28 E3.1082
G1 X179.249 Y186.609 F24000
;TYPE:External perimeter
G1 F4500
G1 X179.249 Y191.189 E3.24181
G1 X184.079 Y191.189 E3.38271
G1 X184.079 Y186.609 E3.51631
G1 X179.309 Y186.609 E3.65546
;WIPE_START
G1 X178.849 Y186.609 F24000
;WIPE_END
G92 E0
G1 E-1 F7200
G1 X184.999 Y186.609 F24000
G1 E0 F3600
G1 F4500
G1 X184.999 Y191.189 E0.13361
G1 X189.829 Y191.189 E0.27451
G1 X189.829 Y186.609 E0.40811
G1 X185.059 Y186.609 E0.54726
;WIPE_START
G1 X184.599 Y186.609 F24000
;WIPE_END
G92 E0
G1 E-1 F7200
G1 X183.988 Y196.544 F24000
G1 E0 F3600
;TYPE:Internal perimeter
G1 F4500
G1 X181.187 Y197.997 E0.09205
G1 X179.381 Y198.825 E0.15002
G1 X177.536 Y199.564 E0.208
G1 X175.657 Y200.212 E0.26597
G1 X173.749 Y200.769 E0.32395
G1 X171.816 Y201.231 E0.38192
G1 X169.863 Y201.599 E0.4399
G1 X167.928 Y201.866 E0.4969
G1 X166.646 Y201.913 E0.53432
G1 X165.33 Y201.898 E0.57271
G1 X164.016 Y201.82 E0.61111
G1 X162.707 Y201.679 E0.6495
G1 X161.407 Y201.476 E0.6879
G1 X160.118 Y201.21 E0.72629
G1 X158.843 Y200.883 E0.76469
G1 X157.586 Y200.495 E0.80308
G1 X156.348 Y200.047 E0.84148
G1 X155.133 Y199.54 E0.87988
G1 X153.095 Y198.572 E0.9457
G1 X151.93 Y199.758 E0.99422
G1 X151.398 Y200.25 E1.01534
G1 X150.844 Y200.715 E1.03645
G1 X150.268 Y201.153 E1.05757
G1 X149.671 Y201.563 E1.07868
G1 X149.055 Y201.943 E1.0998
G1 X148.421 Y202.293 E1.12091
G1 X147.772 Y202.612 E1.14203
G1 X147.108 Y202.9 E1.16314
G1 X146.43 Y203.155 E1.18426
G1 X145.741 Y203.377 E1.20537
G1 X145.042 Y203.565 E1.22649
G1 X144.335 Y203.72 E1.2476
G1 X143.622 Y203.84 E1.26872
G1 X142.903 Y203.926 E1.28983
G1 X142.181 Y203.977 E1.31095
G1 X141.457 Y203.993 E1.33206
G1 X140.734 Y203.974 E1.35318
G1 X140.012 Y203.92 E1.37429
G1 X139.293 Y203.832 E1.39541
G1 X138.58 Y203.709 E1.41652
G1 X137.874 Y203.551 E1.43764
G1 X137.176 Y203.36 E1.45875
G1 X136.488 Y203.135 E1.47987
G1 X135.811 Y202.877 E1.50098
G1 X135.166 Y202.595 E1.52152
G1 X134.346 Y202.156 E1.54866
G1 X133.531 Y201.667 E1.57639
G1 X132.741 Y201.14 E1.60411
G1 X131.976 Y200.575 E1.63183
G1 X131.241 Y199.973 E1.65956
G1 X130.535 Y199.337 E1.68728
G1 X129.86 Y198.667 E1.715
G1 X129.219 Y197.966 E1.74273
G1 X128.612 Y197.235 E1.77045
G1 X128.042 Y196.475 E1.79817
G1 X127.509 Y195.688 E1.8259
G1 X127.014 Y194.876 E1.85362
G1 X126.559 Y194.042 E1.88134
G1 X126.145 Y193.186 E1.90907
G1 X125.773 Y192.312 E1.93679
G1 X125.444 Y191.421 E1.96451
G1 X125.158 Y190.514 E1.99224
G1 X124.916 Y189.595 E2.01996
G1 X124.719 Y188.665 E2.04768
G1 X124.567 Y187.727 E2.07541
G1 X124.46 Y186.783 E2.10313
G1 X124.399 Y185.835 E2.13085
G1 X124.385 Y184.941 E2.15694
G1 X124.492 Y184.056 E2.18293
G1 X124.652 Y183.123 E2.21055
G1 X124.857 Y182.198 E2.23817
G1 X125.107 Y181.285 E2.26579
G1 X125.402 Y180.386 E2.29341
G1 X125.74 Y179.501 E2.32102
G1 X126.122 Y178.635 E2.34864
G1 X127.513 Y175.851 E2.43943
G1 X123.095 Y175.981 E2.56838
G1 X123.372 Y175.619 E2.58166
G1 X120.712 Y174.847 E2.66247
G1 X119.889 Y174.568 E2.68782
G1 X118.904 Y174.175 E2.71875
G1 X118.607 Y174.014 E2.7286
G1 X118.318 Y173.819 E2.73876
G1 X118.051 Y173.597 E2.74891
G1 X117.806 Y173.349 E2.75907
G1 X117.587 Y173.079 E2.76922
G1 X117.396 Y172.788 E2.77938
G1 X117.234 Y172.48 E2.78953
G1 X117.103 Y172.157 E2.79969
G1 X117.01 Y171.838 E2.80938
G1 X116.92 Y171.292 E2.82552
G1 X116.907 Y170.96 E2.83521
G1 X116.95 Y170.247 E2.85606
G1 X116.576 Y169.381 E2.88357
G1 X116.436 Y168.853 E2.8995
G1 X116.373 Y168.311 E2.91543
G1 X116.391 Y167.765 E2.93135
G1 X116.488 Y167.228 E2.94729
G1 X116.662 Y166.71 E2.96321
G1 X116.917 Y166.21 E2.9796
G1 X117.104 Y165.934 E2.98932
G1 X117.472 Y165.51 E3.00571
G1 X117.887 Y165.154 E3.02164
G1 X118.349 Y164.863 E3.03756
G1 X118.848 Y164.643 E3.05349
G1 X119.377 Y164.497 E3.06949
G1 X120.818 Y164.314 E3.11186
G1 X121.258 Y162.652 E3.16201
G1 X121.168 Y162.585 E3.16529
G1 X121.521 Y162.315 E3.17827
G1 X121.777 Y162.157 E3.18704
G1 X122.048 Y162.025 E3.19582
G1 X122.33 Y161.921 E3.20459
G1 X122.606 Y161.849 E3.21291
G1 X123.068 Y161.788 E3.22652
G1 X123.698 Y161.8 E3.2449
G1 X124.354 Y161.726 E3.26417
G1 X124.839 Y161.741 E3.27832
G1 X125.317 Y161.824 E3.29247
G1 X125.779 Y161.974 E3.30663
G1 X126.181 Y162.172 E3.31969
G1 X126.375 Y162.321 E3.32684
G1 X126.923 Y162.808 E3.34823
G1 X127.416 Y163.331 E3.3692
G1 X128.356 Y164.526 E3.41354
G1 X129.722 Y164.295 E3.45398
G1 X129.939 Y164.531 E3.46334
G1 X130.063 Y164.724 E3.47
G1 X130.193 Y165.03 E3.47973
G1 X130.543 Y166.357 E3.51974
G1 X132.469 Y166.029 E3.57675
G1 X133.221 Y165.937 E3.59886
G1 X133.977 Y165.879 E3.62097
G1 X134.735 Y165.857 E3.64308
G1 X135.485 Y165.871 E3.66496
G1 X136.625 Y165.962 E3.69834
G1 X137.758 Y166.123 E3.73171
G1 X138.492 Y166.275 E3.7536
G1 X139.227 Y166.463 E3.77571
G1 X140.714 Y166.918 E3.82107
G1 X141.798 Y165.833 E3.86582
G1 X141.112 Y163.598 E3.93402
G1 X140.729 Y162.105 E3.97898
G1 X140.416 Y160.595 E4.02394
G1 X140.174 Y159.073 E4.0689
G1 X140.003 Y157.542 E4.11386
G1 X139.904 Y156.004 E4.15883
G1 X139.877 Y154.463 E4.20379
G1 X139.921 Y152.922 E4.24875
G1 X140.037 Y151.385 E4.29371
G1 X140.225 Y149.855 E4.33867
G1 X140.484 Y148.336 E4.38363
G1 X140.881 Y146.523 E4.43777
G1 X140.616 Y145.362 E4.47249
G1 X140.56 Y144.985 E4.48362
G1 X140.497 Y144.145 E4.50818
G1 X140.517 Y143.32 E4.53228
G1 X140.62 Y142.5 E4.55639
G1 X140.807 Y141.679 E4.58095
G1 X140.924 Y141.298 E4.59257
G1 X141.218 Y140.483 E4.61784
G1 X141.551 Y139.683 E4.64312
G1 X141.923 Y138.901 E4.66839
G1 X142.331 Y138.137 E4.69367
G1 X142.776 Y137.393 E4.71894
G1 X143.257 Y136.672 E4.74422
G1 X143.771 Y135.975 E4.7695
G1 X144.318 Y135.303 E4.79477
G1 X144.897 Y134.659 E4.82005
G1 X145.507 Y134.043 E4.84532
G1 X146.145 Y133.457 E4.8706
G1 X146.811 Y132.902 E4.89587
G1 X147.547 Y132.346 E4.92279
G1 X148.47 Y131.59 E4.95759
G1 X149.383 Y130.911 E4.99079
G1 X150.327 Y130.276 E5.02399
G1 X151.3 Y129.685 E5.05719
G1 X152.299 Y129.14 E5.09038
G1 X153.323 Y128.643 E5.12358
G1 X154.368 Y128.194 E5.15678
G1 X155.434 Y127.794 E5.18997
G1 X156.517 Y127.445 E5.22317
G1 X157.615 Y127.147 E5.25637
G1 X159.281 Y126.777 E5.30616
G1 X159.857 Y125.843 E5.33817
G1 X160.156 Y125.409 E5.35354
G1 X160.476 Y124.99 E5.36892
G1 X160.815 Y124.587 E5.38429
G1 X161.175 Y124.202 E5.39966
G1 X161.553 Y123.835 E5.41503
G1 X161.949 Y123.487 E5.4304
G1 X162.361 Y123.159 E5.44577
G1 X162.789 Y122.852 E5.46114
G1 X163.232 Y122.566 E5.47652
G1 X163.688 Y122.303 E5.49189
G1 X164.157 Y122.062 E5.50726
G1 X164.638 Y121.846 E5.52263
G1 X165.128 Y121.653 E5.538
G1 X165.627 Y121.484 E5.55337
G1 X166.134 Y121.341 E5.56874
G1 X166.648 Y121.223 E5.58411
G1 X167.166 Y121.13 E5.59949
G1 X167.689 Y121.063 E5.61486
G1 X168.205 Y121.023 E5.62994
G1 X169.005 Y121.013 E5.65328
G1 X169.803 Y121.056 E5.67661
G1 X170.317 Y121.118 E5.6917
G1 X170.836 Y121.207 E5.70707
G1 X171.35 Y121.322 E5.72244
G1 X171.858 Y121.462 E5.73781
G1 X172.359 Y121.626 E5.75318
G1 X172.851 Y121.816 E5.76855
G1 X173.332 Y122.029 E5.78393
G1 X173.803 Y122.266 E5.7993
G1 X174.261 Y122.526 E5.81467
G1 X174.706 Y122.808 E5.83004
G1 X175.137 Y123.112 E5.84541
G1 X175.551 Y123.437 E5.86078
G1 X175.95 Y123.782 E5.87615
G1 X176.33 Y124.146 E5.89152
G1 X176.693 Y124.529 E5.9069
G1 X177.036 Y124.929 E5.92227
G1 X177.358 Y125.346 E5.93764
G1 X177.954 Y126.199 E5.968
G1 X179.934 Y126.68 E6.02744
G1 X181.398 Y127.109 E6.07195
G1 X182.841 Y127.604 E6.11645
G1 X184.26 Y128.167 E6.16096
G1 X185.65 Y128.794 E6.20547
G1 X187.01 Y129.485 E6.24998
G1 X188.337 Y130.239 E6.29448
G1 X189.627 Y131.053 E6.33899
G1 X190.88 Y131.927 E6.38355
G1 X192.593 Y133.237 E6.44645
G1 X193.028 Y133.6 E6.46299
G1 X193.441 Y133.981 E6.4794
G1 X193.835 Y134.383 E6.49581
G1 X194.209 Y134.803 E6.51221
G1 X194.561 Y135.242 E6.52862
G1 X194.891 Y135.698 E6.54502
G1 X195.197 Y136.169 E6.56143
G1 X195.48 Y136.655 E6.57784
G1 X195.738 Y137.155 E6.59424
G1 X195.971 Y137.667 E6.61065
G1 X196.178 Y138.189 E6.62706
G1 X196.359 Y138.722 E6.64346
G1 X196.514 Y139.263 E6.65987
G1 X196.641 Y139.811 E6.67627
G1 X196.74 Y140.364 E6.69268
G1 X196.812 Y140.922 E6.70909
G1 X196.856 Y141.483 E6.72549
G1 X196.872 Y142.045 E6.7419
G1 X196.86 Y142.607 E6.75831
G1 X196.82 Y143.168 E6.77471
G1 X196.753 Y143.726 E6.79112
G1 X196.595 Y144.641 E6.81819
G1 X197.17 Y146.258 E6.86827
G1 X197.56 Y147.553 E6.9077
G1 X197.886 Y148.864 E6.94712
G1 X198.149 Y150.19 E6.98655
G1 X198.347 Y151.527 E7.02598
G1 X198.479 Y152.872 E7.06541
G1 X198.546 Y154.222 E7.10483
G1 X198.547 Y155.573 E7.14426
G1 X198.483 Y156.923 E7.18369
G1 X198.353 Y158.269 E7.22312
G1 X198.157 Y159.606 E7.26254
G1 X197.897 Y160.932 E7.30197
G1 X197.573 Y162.244 E7.3414
G1 X197.185 Y163.539 E7.38083
G1 X196.735 Y164.813 E7.42025
G1 X196.223 Y166.064 E7.45968
G1 X195.651 Y167.289 E7.49911
G1 X195.02 Y168.484 E7.53854
G1 X193.895 Y170.385 E7.60297
G1 X194.849 Y171.734 E7.65116
G1 X196.404 Y171.429 E7.69739
G1 X197.123 Y171.325 E7.7186
G1 X197.847 Y171.255 E7.73981
G1 X198.574 Y171.222 E7.76103
G1 X199.301 Y171.225 E7.78224
G1 X200.027 Y171.263 E7.80346
G1 X200.75 Y171.337 E7.82467
G1 X201.469 Y171.447 E7.84588
G1 X202.182 Y171.592 E7.8671
G1 X202.887 Y171.772 E7.88831
G1 X203.581 Y171.986 E7.90952
G1 X204.265 Y172.235 E7.93074
G1 X204.935 Y172.517 E7.95195
G1 X205.591 Y172.831 E7.97317
G1 X206.23 Y173.178 E7.99438
G1 X206.852 Y173.555 E8.01559
G1 X207.454 Y173.963 E8.03681
G1 X208.035 Y174.4 E8.05802
G1 X208.594 Y174.865 E8.07924
G1 X209.13 Y175.357 E8.10045
G1 X209.64 Y175.875 E8.12166
G1 X210.125 Y176.417 E8.14288
G1 X210.582 Y176.983 E8.16409
G1 X211.01 Y177.57 E8.18531
G1 X211.41 Y178.178 E8.20652
G1 X211.778 Y178.805 E8.22773
G1 X212.116 Y179.449 E8.24895
G1 X212.421 Y180.109 E8.27016
G1 X212.693 Y180.784 E8.29138
G1 X212.932 Y181.471 E8.31259
G1 X213.137 Y182.168 E8.3338
G1 X213.307 Y182.875 E8.35502
G1 X213.441 Y183.59 E8.37623
G1 X213.541 Y184.31 E8.39745
G1 X213.605 Y185.035 E8.41866
G1 X213.633 Y185.753 E8.43962
G1 X213.611 Y186.641 E8.46555
G1 X213.545 Y187.536 E8.49173
G1 X213.434 Y188.427 E8.51791
G1 X213.28 Y189.311 E8.5441
G1 X213.082 Y190.187 E8.57028
G1 X212.841 Y191.051 E8.59646
G1 X212.558 Y191.903 E8.62265
G1 X212.233 Y192.74 E8.64883
G1 X211.867 Y193.559 E8.67501
G1 X211.461 Y194.36 E8.7012
G1 X211.015 Y195.139 E8.72738
G1 X210.532 Y195.895 E8.75356
G1 X210.012 Y196.627 E8.77975
G1 X209.457 Y197.332 E8.80593
G1 X208.867 Y198.009 E8.83212
G1 X208.245 Y198.655 E8.8583
G1 X207.591 Y199.27 E8.88448
G1 X206.908 Y199.852 E8.91067
G1 X206.197 Y200.4 E8.93685
G1 X205.459 Y200.912 E8.96303
G1 X204.697 Y201.386 E8.98921
G1 X203.913 Y201.823 E9.0154
G1 X203.108 Y202.22 E9.04158
G1 X202.284 Y202.577 E9.06777
G1 X201.444 Y202.892 E9.09395
G1 X200.589 Y203.166 E9.12013
G1 X199.722 Y203.397 E9.14632
G1 X198.845 Y203.585 E9.1725
G1 X197.959 Y203.729 E9.19868
G1 X197.067 Y203.83 E9.22487
G1 X196.171 Y203.886 E9.25105
G1 X195.315 Y203.897 E9.27603
G1 X194.679 Y203.833 E9.29467
G1 X194.006 Y203.732 E9.31452
