; generated by SuperSlicer 2.4 on 2022-11-11 at 10:11:01 UTC


;
;

;
;
; 

; external perimeters extrusion width = 0.45mm
; perimeters extrusion width = 0.45mm
; infill extrusion width = 0.45mm
; solid infill extrusion width = 0.48mm
; top infill extrusion width = 0.42mm
; first layer extrusion width = 0.38mm

; object:{"name":"x_endstop_szerszy","id":"x_endstop_szerszy.stl id:0 copy 0","object_center":[164.999999,162.500047,0.000000],"boundingbox_center":[164.999999,162.500047,2.401039],"boundingbox_size":[42.839700,13.000219,4.802078]}
; plater:{"center":[164.999999,162.500047,0.000000],"boundingbox_center":[164.999999,162.500047,2.401039],"boundingbox_size":[42.839700,13.000219,4.802078]}

;TYPE:Custom
;  M190 S0
;  M109 S0 ; uncomment to remove set&wait temp gcode added automatically after this start gcode
;  PRINT_START EXTRUDER=235 BED=65 CHAMBER=0
;
PRINT_START EXTRUDER_TEMP=235 BED_TEMP=65
M107
G21 ; set units to millimeters
G90 ; use absolute coordinates
M83 ; use relative distances for extrusion
; Filament gcode
;SET_GCODE_OFFSET Z=0
;SET_PRESSURE_ADVANCE ADVANCE=0.05
;_TOOLCHANGE 0
M109 S235 ; set temperature and wait for it to be reached
M190 S65 ; set bed temperature and wait for it to be reached
M107
;LAYER_CHANGE
;Z:0.25
;HEIGHT:0.25
;BEFORE_LAYER_CHANGE
;0.25


G1 E-1.2 F3000
G1 Z0.25 F30000
;AFTER_LAYER_CHANGE
;0.25
G92 E0
; printing object x_endstop_szerszy.stl id:0 copy 0
G1 X179.165 Y165.9
G1 E1.2 F1800
;TYPE:Internal perimeter
;WIDTH:0.38
G1 F4500
G1 X179.185 Y166.204 E0.00984
G1 X179.37 Y166.738 E0.0182
G1 X179.547 Y167.036 E0.01116
G1 X179.761 Y167.308 E0.01116
G1 X180.262 Y167.731 E0.02114
G1 X179.206 Y167.731 E0.03404
G1 X178.849 Y167.374 E0.01626
G1 X178.849 Y165.91 E0.04718
G1 X179.105 Y165.902 E0.00824
G1 X180.37 Y164.105 F30000
G1 F4500
G1 X179.997 Y164.421 E0.01573
G1 X179.816 Y164.649 E0.00939
G1 X179.668 Y164.9 E0.00939
G1 X179.518 Y165.331 E0.0147
G1 X179.475 Y165.652 E0.01042
G1 X179.508 Y166.139 E0.01573
G1 X179.668 Y166.6 E0.01573
G1 X179.816 Y166.851 E0.00939
G1 X179.997 Y167.079 E0.00939
G1 X180.346 Y167.374 E0.0147
G1 X180.629 Y167.529 E0.01042
G1 X181.095 Y167.674 E0.01573
G1 X181.583 Y167.69 E0.01573
G1 X181.902 Y167.637 E0.01042
G1 X182.328 Y167.473 E0.0147
G1 X182.6 Y167.299 E0.01042
G1 X182.951 Y166.959 E0.01573
G1 X183.2 Y166.539 E0.01573
G1 X183.296 Y166.264 E0.00939
G1 X183.354 Y165.978 E0.00939
G1 X183.354 Y165.49 E0.01573
G1 X183.225 Y165.019 E0.01573
G1 X183.093 Y164.759 E0.00939
G1 X182.928 Y164.519 E0.00939
G1 X182.577 Y164.179 E0.01573
G1 X182.149 Y163.945 E0.01573
G1 X181.871 Y163.858 E0.00939
G1 X181.583 Y163.81 E0.00939
G1 X181.127 Y163.825 E0.0147
G1 X180.813 Y163.9 E0.01042
G1 X180.424 Y164.08 E0.0138
G1 X180.547 Y164.383 F30000
G1 F4500
G1 X180.233 Y164.649 E0.01326
G1 X180.086 Y164.834 E0.00763
G1 X179.965 Y165.038 E0.00763
G1 X179.837 Y165.407 E0.01259
G1 X179.803 Y165.663 E0.0083
G1 X179.83 Y166.073 E0.01326
G1 X179.965 Y166.462 E0.01326
G1 X180.086 Y166.666 E0.00763
G1 X180.233 Y166.851 E0.00763
G1 X180.531 Y167.104 E0.01259
G1 X180.757 Y167.227 E0.0083
G1 X181.15 Y167.349 E0.01326
G1 X181.561 Y167.363 E0.01326
G1 X181.815 Y167.32 E0.0083
G1 X182.18 Y167.18 E0.01259
G1 X182.397 Y167.041 E0.0083
G1 X182.693 Y166.755 E0.01326
G1 X182.902 Y166.401 E0.01326
G1 X182.98 Y166.177 E0.00763
G1 X183.027 Y165.945 E0.00763
G1 X183.027 Y165.534 E0.01326
G1 X182.919 Y165.137 E0.01326
G1 X182.812 Y164.926 E0.00763
G1 X182.678 Y164.73 E0.00763
G1 X182.382 Y164.444 E0.01326
G1 X182.021 Y164.247 E0.01326
G1 X181.795 Y164.176 E0.00763
G1 X181.561 Y164.137 E0.00763
G1 X181.171 Y164.15 E0.01259
G1 X180.92 Y164.21 E0.0083
G1 X180.602 Y164.358 E0.01133
G1 X180.356 Y165.02 F30000
;TYPE:External perimeter
G1 F4500
G1 X180.263 Y165.176 E0.00587
G1 X180.156 Y165.483 E0.01047
G1 X180.131 Y165.674 E0.00618
G1 X180.153 Y166.008 E0.01079
G1 X180.263 Y166.324 E0.01079
G1 X180.356 Y166.48 E0.00587
G1 X180.469 Y166.623 E0.00587
G1 X180.717 Y166.833 E0.01047
G1 X180.885 Y166.925 E0.00618
G1 X181.205 Y167.025 E0.01079
G1 X181.539 Y167.036 E0.01079
G1 X181.729 Y167.004 E0.00618
G1 X182.032 Y166.887 E0.01047
G1 X182.194 Y166.784 E0.00618
G1 X182.434 Y166.551 E0.01079
G1 X182.605 Y166.263 E0.01079
G1 X182.665 Y166.091 E0.00587
G1 X182.701 Y165.913 E0.00587
G1 X182.701 Y165.578 E0.01079
G1 X182.612 Y165.255 E0.01079
G1 X182.53 Y165.092 E0.00587
G1 X182.427 Y164.942 E0.00587
G1 X182.187 Y164.709 E0.01079
G1 X181.893 Y164.549 E0.01079
G1 X181.719 Y164.495 E0.00587
G1 X181.539 Y164.464 E0.00587
G1 X181.215 Y164.475 E0.01047
G1 X181.028 Y164.52 E0.00618
G1 X180.724 Y164.661 E0.01079
G1 X180.469 Y164.877 E0.01079
G1 X180.393 Y164.973 E0.00394
;WIPE_START
G1 X179.956 Y164.997 F30000
;WIPE_END
;WIPE_START
G1 F24000
G1 X179.961 Y165.437 E-0.05218
G1 X179.93 Y165.667 E-0.02757
G1 X179.955 Y166.048 E-0.04534
G1 X180.081 Y166.408 E-0.04533
G1 X180.19 Y166.594 E-0.02561
G1 X180.324 Y166.763 E-0.02561
G1 X180.603 Y166.999 E-0.04336
G1 X180.807 Y167.111 E-0.02757
G1 X181.171 Y167.224 E-0.04534
G1 X181.553 Y167.236 E-0.04534
G1 X181.782 Y167.198 E-0.02757
G1 X182.122 Y167.067 E-0.04336
G1 X182.318 Y166.942 E-0.02757
G1 X182.593 Y166.676 E-0.04534
G1 X182.787 Y166.348 E-0.04534
G1 X182.858 Y166.144 E-0.02561
G1 X182.901 Y165.933 E-0.02561
G1 X182.901 Y165.551 E-0.04534
G1 X182.8 Y165.183 E-0.04534
G1 X182.703 Y164.99 E-0.02561
G1 X182.581 Y164.812 E-0.02561
G1 X182.306 Y164.547 E-0.04534
G1 X181.971 Y164.363 E-0.04534
G1 X181.765 Y164.3 E-0.02561
G1 X181.553 Y164.264 E-0.02561
G1 X181.188 Y164.276 E-0.04336
G1 X180.962 Y164.33 E-0.02757
G1 X180.616 Y164.49 E-0.04534
G1 X180.324 Y164.737 E-0.04534
G1 X180.19 Y164.906 E-0.02561
;WIPE_END
G1 E-0.10535 F3000
G1 X181.002 Y161.145 F30000
G1 E1.2 F1800
;TYPE:Internal perimeter
G1 F4500
G1 X181.065 Y161.165 E0.00212
G1 X181.386 Y161.197 E0.01042
G1 X181.84 Y161.151 E0.0147
G1 X182.149 Y161.056 E0.01042
G1 X182.577 Y160.821 E0.01573
G1 X182.951 Y160.459 E0.01676
G1 X183.2 Y160.039 E0.01573
G1 X183.296 Y159.764 E0.00939
G1 X183.354 Y159.478 E0.00939
G1 X183.354 Y158.99 E0.01573
G1 X183.225 Y158.519 E0.01573
G1 X183.093 Y158.259 E0.00939
G1 X182.928 Y158.019 E0.00939
G1 X182.577 Y157.679 E0.01573
G1 X182.149 Y157.445 E0.01573
G1 X181.84 Y157.349 E0.01042
G1 X181.386 Y157.303 E0.0147
G1 X181.065 Y157.336 E0.01042
G1 X180.629 Y157.471 E0.0147
G1 X180.346 Y157.626 E0.01042
G1 X179.997 Y157.921 E0.0147
G1 X179.816 Y158.149 E0.00939
G1 X179.668 Y158.4 E0.00939
G1 X179.518 Y158.831 E0.0147
G1 X179.475 Y159.152 E0.01042
G1 X179.508 Y159.639 E0.01573
G1 X179.668 Y160.1 E0.01573
G1 X179.816 Y160.351 E0.00939
G1 X179.997 Y160.579 E0.00939
G1 X180.346 Y160.874 E0.0147
G1 X180.629 Y161.029 E0.01042
G1 X180.945 Y161.127 E0.01065
G1 X181.099 Y160.833 F30000
G1 F4500
G1 X181.13 Y160.843 E0.00106
G1 X181.386 Y160.869 E0.0083
G1 X181.775 Y160.83 E0.01259
G1 X182.021 Y160.754 E0.0083
G1 X182.382 Y160.556 E0.01326
G1 X182.693 Y160.255 E0.01393
G1 X182.902 Y159.901 E0.01326
G1 X182.98 Y159.677 E0.00763
G1 X183.027 Y159.445 E0.00763
G1 X183.027 Y159.034 E0.01326
G1 X182.919 Y158.637 E0.01326
G1 X182.812 Y158.426 E0.00763
G1 X182.678 Y158.23 E0.00763
G1 X182.382 Y157.944 E0.01326
G1 X182.021 Y157.747 E0.01326
G1 X181.775 Y157.67 E0.0083
G1 X181.386 Y157.631 E0.01259
G1 X181.13 Y157.657 E0.0083
G1 X180.757 Y157.773 E0.01259
G1 X180.531 Y157.896 E0.0083
G1 X180.233 Y158.149 E0.01259
G1 X180.086 Y158.334 E0.00763
G1 X179.965 Y158.538 E0.00763
G1 X179.837 Y158.907 E0.01259
G1 X179.803 Y159.163 E0.0083
G1 X179.83 Y159.573 E0.01326
G1 X179.965 Y159.962 E0.01326
G1 X180.086 Y160.166 E0.00763
G1 X180.233 Y160.351 E0.00763
G1 X180.531 Y160.604 E0.01259
G1 X180.757 Y160.727 E0.0083
G1 X181.041 Y160.816 E0.00959
G1 X181.195 Y160.522 F30000
;TYPE:External perimeter
G1 F4500
G1 X181.386 Y160.541 E0.00619
G1 X181.71 Y160.508 E0.01047
G1 X181.893 Y160.452 E0.00619
G1 X182.187 Y160.291 E0.01079
G1 X182.434 Y160.051 E0.0111
G1 X182.605 Y159.763 E0.01079
G1 X182.665 Y159.591 E0.00587
G1 X182.701 Y159.413 E0.00587
G1 X182.701 Y159.078 E0.01079
G1 X182.612 Y158.755 E0.01079
G1 X182.53 Y158.592 E0.00587
G1 X182.427 Y158.442 E0.00587
G1 X182.187 Y158.209 E0.01079
G1 X181.893 Y158.049 E0.01079
G1 X181.71 Y157.992 E0.00619
G1 X181.386 Y157.959 E0.01047
G1 X181.195 Y157.978 E0.00618
G1 X180.885 Y158.075 E0.01047
G1 X180.717 Y158.167 E0.00619
G1 X180.469 Y158.377 E0.01047
G1 X180.356 Y158.52 E0.00587
G1 X180.263 Y158.676 E0.00587
G1 X180.156 Y158.983 E0.01047
G1 X180.131 Y159.174 E0.00618
G1 X180.153 Y159.508 E0.01079
G1 X180.263 Y159.824 E0.01079
G1 X180.356 Y159.98 E0.00587
G1 X180.469 Y160.123 E0.00587
G1 X180.717 Y160.333 E0.01047
G1 X180.885 Y160.425 E0.00618
G1 X181.138 Y160.504 E0.00854
;WIPE_START
G1 X181.335 Y160.897 F30000
;WIPE_END
G1 X179.154 Y159.093
;TYPE:Internal perimeter
G1 F4500
G1 X178.849 Y159.072 E0.00984
G1 X178.849 Y157.626 E0.04662
G1 X179.206 Y157.269 E0.01626
G1 X180.262 Y157.269 E0.03404
G1 X179.761 Y157.693 E0.02114
G1 X179.547 Y157.964 E0.01116
G1 X179.37 Y158.262 E0.01116
G1 X179.199 Y158.755 E0.01682
G1 X179.162 Y159.033 E0.00904
;WIPE_START
G1 F24000
G1 X178.849 Y159.072 E-0.0374
G1 X178.849 Y157.626 E-0.17179
G1 X179.206 Y157.269 E-0.05991
G1 X180.262 Y157.269 E-0.12545
G1 X179.761 Y157.693 E-0.07791
G1 X179.547 Y157.964 E-0.04111
G1 X179.37 Y158.262 E-0.04111
G1 X179.199 Y158.755 E-0.06198
G1 X179.162 Y159.033 E-0.03332
;WIPE_END
G1 E-0.55002 F3000
G1 X179.154 Y165.593 F30000
G1 E1.2 F1800
G1 F4500
G1 X178.849 Y165.572 E0.00984
G1 X178.849 Y165.131 E0.01422
G1 X150.213 Y165.131 E0.92279
G1 X150.145 Y164.895 E0.00792
G1 X150.356 Y164.762 E0.00804
G1 X150.77 Y164.36 E0.01861
G1 X150.993 Y164.06 E0.01204
G1 X151.259 Y163.547 E0.0186
G1 X151.42 Y162.957 E0.0197
G1 X151.452 Y162.347 E0.0197
G1 X151.355 Y161.743 E0.0197
G1 X151.132 Y161.174 E0.0197
G1 X150.794 Y160.664 E0.0197
G1 X150.356 Y160.238 E0.0197
G1 X150.145 Y160.105 E0.00804
G1 X150.213 Y159.869 E0.00792
G1 X178.849 Y159.869 E0.92279
G1 X178.849 Y159.41 E0.01479
G1 X179.165 Y159.4 E0.01017
G1 X179.185 Y159.704 E0.00984
G1 X179.37 Y160.238 E0.0182
G1 X179.547 Y160.536 E0.01116
G1 X179.761 Y160.808 E0.01116
G1 X180.16 Y161.144 E0.01682
G1 X180.501 Y161.331 E0.01253
G1 X180.999 Y161.486 E0.01682
G1 X181.386 Y161.525 E0.01253
G1 X181.906 Y161.473 E0.01682
G1 X182.277 Y161.357 E0.01253
G1 X182.773 Y161.086 E0.0182
G1 X183.21 Y160.663 E0.01959
G1 X183.497 Y160.177 E0.0182
G1 X183.611 Y159.85 E0.01116
G1 X183.68 Y159.511 E0.01116
G1 X183.68 Y158.946 E0.0182
G1 X183.531 Y158.401 E0.0182
G1 X183.375 Y158.092 E0.01116
G1 X183.179 Y157.807 E0.01116
G1 X182.623 Y157.269 E0.02493
G1 X184.894 Y157.269 E0.0732
G1 X185.151 Y157.526 E0.01169
G1 X185.151 Y167.474 E0.32059
G1 X184.894 Y167.731 E0.01169
G1 X182.622 Y167.731 E0.0732
G1 X183.21 Y167.163 E0.02632
G1 X183.497 Y166.677 E0.0182
G1 X183.611 Y166.35 E0.01116
G1 X183.68 Y166.011 E0.01116
G1 X183.68 Y165.446 E0.0182
G1 X183.531 Y164.901 E0.0182
G1 X183.375 Y164.592 E0.01116
G1 X183.179 Y164.307 E0.01116
G1 X182.773 Y163.914 E0.0182
G1 X182.277 Y163.643 E0.0182
G1 X181.946 Y163.54 E0.01116
G1 X181.605 Y163.482 E0.01116
G1 X181.083 Y163.5 E0.01682
G1 X180.705 Y163.59 E0.01253
G1 X180.193 Y163.828 E0.0182
G1 X179.761 Y164.193 E0.0182
G1 X179.547 Y164.464 E0.01116
G1 X179.37 Y164.762 E0.01116
G1 X179.199 Y165.255 E0.01682
G1 X179.162 Y165.533 E0.00904
;WIPE_START
G1 F24000
G1 X178.849 Y165.572 E-0.0374
G1 X178.849 Y165.131 E-0.05241
G1 X170.006 Y165.131 E-1.05019
;WIPE_END
G1 E-0.06 F3000
G1 X151.121 Y162.434 F30000
G1 E1.2 F1800
G1 F4500
G1 X151.125 Y162.364 E0.00225
G1 X151.038 Y161.83 E0.01745
G1 X150.841 Y161.325 E0.01746
G1 X150.542 Y160.874 E0.01746
G1 X150.154 Y160.496 E0.01745
G1 X149.716 Y160.222 E0.01664
G1 X149.42 Y160.097 E0.01035
G1 X148.918 Y159.974 E0.01664
G1 X148.377 Y159.96 E0.01746
G1 X147.845 Y160.06 E0.01746
G1 X147.346 Y160.271 E0.01746
G1 X146.902 Y160.582 E0.01746
G1 X146.535 Y160.98 E0.01746
G1 X146.273 Y161.425 E0.01664
G1 X146.156 Y161.724 E0.01035
G1 X146.047 Y162.229 E0.01664
G1 X146.047 Y162.771 E0.01746
G1 X146.156 Y163.275 E0.01664
G1 X146.273 Y163.575 E0.01035
G1 X146.535 Y164.02 E0.01664
G1 X146.902 Y164.418 E0.01746
G1 X147.345 Y164.729 E0.01746
G1 X147.821 Y164.93 E0.01664
G1 X148.133 Y165.006 E0.01035
G1 X148.648 Y165.047 E0.01664
G1 X149.185 Y164.975 E0.01746
G1 X149.694 Y164.791 E0.01745
G1 X150.154 Y164.504 E0.01746
G1 X150.524 Y164.144 E0.01664
G1 X150.715 Y163.886 E0.01035
G1 X150.953 Y163.428 E0.01664
G1 X151.096 Y162.905 E0.01746
G1 X151.118 Y162.494 E0.01327
G1 X150.795 Y162.417 F30000
G1 F4500
G1 X150.797 Y162.382 E0.00112
G1 X150.722 Y161.916 E0.01521
G1 X150.55 Y161.476 E0.01521
G1 X150.289 Y161.083 E0.01521
G1 X149.951 Y160.754 E0.01521
G1 X149.565 Y160.512 E0.01467
G1 X149.317 Y160.408 E0.00867
G1 X148.875 Y160.3 E0.01467
G1 X148.403 Y160.287 E0.01521
G1 X147.939 Y160.375 E0.01521
G1 X147.505 Y160.558 E0.01521
G1 X147.118 Y160.829 E0.01521
G1 X146.798 Y161.176 E0.01521
G1 X146.567 Y161.568 E0.01467
G1 X146.469 Y161.819 E0.00867
G1 X146.373 Y162.264 E0.01467
G1 X146.373 Y162.736 E0.01521
G1 X146.469 Y163.181 E0.01467
G1 X146.567 Y163.431 E0.00867
G1 X146.798 Y163.824 E0.01467
G1 X147.118 Y164.171 E0.01521
G1 X147.505 Y164.442 E0.01521
G1 X147.924 Y164.619 E0.01467
G1 X148.185 Y164.683 E0.00867
G1 X148.639 Y164.719 E0.01467
G1 X149.107 Y164.656 E0.01521
G1 X149.551 Y164.496 E0.01521
G1 X149.951 Y164.246 E0.01521
G1 X150.277 Y163.928 E0.01467
G1 X150.438 Y163.712 E0.00867
G1 X150.648 Y163.308 E0.01467
G1 X150.772 Y162.853 E0.01521
G1 X150.792 Y162.477 E0.01215
G1 X150.469 Y162.399 F30000
;TYPE:External perimeter
G1 F4500
G1 X150.405 Y162.002 E0.01296
G1 X150.259 Y161.628 E0.01296
G1 X150.036 Y161.293 E0.01296
G1 X149.748 Y161.012 E0.01296
G1 X149.414 Y160.803 E0.01271
G1 X149.214 Y160.719 E0.00698
G1 X148.831 Y160.625 E0.01271
G1 X148.429 Y160.614 E0.01296
G1 X148.034 Y160.689 E0.01296
G1 X147.664 Y160.845 E0.01296
G1 X147.334 Y161.076 E0.01296
G1 X147.062 Y161.372 E0.01296
G1 X146.862 Y161.712 E0.01271
G1 X146.783 Y161.913 E0.00698
G1 X146.699 Y162.299 E0.01271
G1 X146.699 Y162.701 E0.01296
G1 X146.783 Y163.086 E0.01271
G1 X146.862 Y163.288 E0.00698
G1 X147.062 Y163.628 E0.01271
G1 X147.334 Y163.924 E0.01296
G1 X147.664 Y164.155 E0.01296
G1 X148.027 Y164.308 E0.01271
G1 X148.237 Y164.359 E0.00698
G1 X148.631 Y164.391 E0.01271
G1 X149.029 Y164.338 E0.01296
G1 X149.407 Y164.201 E0.01296
G1 X149.748 Y163.988 E0.01296
G1 X150.031 Y163.713 E0.01271
G1 X150.16 Y163.539 E0.00698
G1 X150.342 Y163.189 E0.01271
G1 X150.448 Y162.801 E0.01296
G1 X150.466 Y162.459 E0.01103
;WIPE_START
G1 X150.796 Y162.169 F30000
;WIPE_END
;WIPE_START
G1 F24000
G1 X150.599 Y161.949 E-0.03509
G1 X150.437 Y161.535 E-0.05283
G1 X150.191 Y161.164 E-0.05283
G1 X149.873 Y160.854 E-0.05283
G1 X149.507 Y160.625 E-0.05127
G1 X149.277 Y160.528 E-0.02954
G1 X148.858 Y160.426 E-0.05127
G1 X148.413 Y160.414 E-0.05283
G1 X147.976 Y160.496 E-0.05283
G1 X147.566 Y160.669 E-0.05283
G1 X147.202 Y160.925 E-0.05283
G1 X146.9 Y161.252 E-0.05283
G1 X146.681 Y161.624 E-0.05127
G1 X146.59 Y161.856 E-0.02954
G1 X146.499 Y162.277 E-0.05127
G1 X146.499 Y162.722 E-0.05283
G1 X146.59 Y163.144 E-0.05127
G1 X146.681 Y163.376 E-0.02954
G1 X146.9 Y163.748 E-0.05127
G1 X147.202 Y164.075 E-0.05283
G1 X147.566 Y164.331 E-0.05283
G1 X147.964 Y164.499 E-0.05127
G1 X148.206 Y164.558 E-0.02954
G1 X148.598 Y164.589 E-0.04672
;WIPE_END
G1 E-0.06 F3000
G1 X144.849 Y159.869 F30000
G1 E1.2 F1800
;TYPE:Internal perimeter
G1 F4500
G1 X146.953 Y159.869 E0.06781
G1 X147.025 Y160.097 E0.0077
G1 X146.686 Y160.335 E0.01336
G1 X146.271 Y160.785 E0.0197
G1 X145.978 Y161.282 E0.01861
G1 X145.842 Y161.63 E0.01203
G1 X145.72 Y162.194 E0.01861
G1 X145.72 Y162.806 E0.0197
G1 X145.842 Y163.37 E0.01861
G1 X145.978 Y163.718 E0.01203
G1 X146.271 Y164.215 E0.01861
G1 X146.686 Y164.665 E0.0197
G1 X147.025 Y164.903 E0.01336
G1 X146.953 Y165.131 E0.0077
G1 X144.849 Y165.131 E0.06781
G1 X144.849 Y159.929 E0.16763
G1 X144.523 Y159.543 F30000
G1 F4500
G1 X178.523 Y159.543 E1.09562
G1 X178.523 Y157.491 E0.06613
