;FLAVOR:Marlin
;TIME:863
;Filament used: 1.16298m
;Layer height: 0.2
;MINX:120.252
;MINY:145.137
;MINZ:0.2
;MAXX:177.929
;MAXY:190.514
;MAXZ:7.2
;Generated with Cura_SteamEngine 5.2.0
M82 ;absolute extrusion mode
PRINT_START BED_TEMP=65 EXTRUDER_TEMP=235
M82 ;absolute extrusion mode
G92 E0
G92 E0
G1 F1200 E-3
;LAYER_COUNT:35
;LAYER:0
M107
G1 F600 Z0.4
G0 F7200 X125.239 Y145.988 Z0.4
;TYPE:SKIRT
G1 F600 Z0.2
G1 F480 E0
G1 F1800 X125.64 Y145.677 E0.01899
G1 X126.084 Y145.432 E0.03796
G1 X126.562 Y145.26 E0.05697
G1 X127.06 Y145.165 E0.07594
G1 X127.321 Y145.147 E0.08573
G1 X127.641 Y145.138 E0.09771
G1 X170.142 Y145.137 E1.688
G1 X170.84 Y145.147 E1.71412
G1 X171.346 Y145.195 E1.73314
G1 X171.837 Y145.32 E1.75209
G1 X172.303 Y145.522 E1.7711
G1 X172.732 Y145.794 E1.7901
G1 X173.112 Y146.13 E1.80908
G1 X173.435 Y146.521 E1.82806
G1 X173.693 Y146.959 E1.84708
G1 X173.879 Y147.431 E1.86606
G1 X173.988 Y147.926 E1.88503
G1 X174.018 Y148.298 E1.89899
G1 X174.083 Y151.118 E2.00454
G1 X174.218 Y153.862 E2.10734
G1 X174.428 Y156.571 E2.20901
G1 X174.72 Y159.312 E2.31215
G1 X175.087 Y162.033 E2.41488
G1 X175.52 Y164.676 E2.5151
G1 X176.051 Y167.426 E2.6199
G1 X176.64 Y170.076 E2.72147
G1 X177.306 Y172.714 E2.82328
G1 X177.538 Y173.547 E2.85563
G1 X177.756 Y174.39 E2.88821
G1 X177.815 Y174.662 E2.89863
G1 X177.865 Y174.962 E2.91001
G1 X177.906 Y175.304 E2.9229
G1 X177.929 Y175.693 E2.93748
G1 X177.928 Y176.28 E2.95944
G1 X177.905 Y176.662 E2.97376
G1 X177.869 Y176.96 E2.98499
G1 X177.794 Y177.36 E3.00022
G1 X177.643 Y177.96 E3.02337
G1 X177.514 Y178.36 E3.0391
G1 X177.396 Y178.658 E3.05109
G1 X177.269 Y178.941 E3.0627
G1 X177.098 Y179.275 E3.07674
G1 X176.891 Y179.622 E3.09186
G1 X176.522 Y180.163 E3.11636
G1 X176.115 Y180.65 E3.14011
G1 X175.628 Y181.127 E3.16562
G1 X175.297 Y181.409 E3.18189
G1 X175.054 Y181.59 E3.19322
G1 X174.75 Y181.791 E3.20686
G1 X174.231 Y182.093 E3.22933
G1 X173.869 Y182.275 E3.24449
G1 X173.584 Y182.396 E3.25607
G1 X173.293 Y182.503 E3.26768
G1 X172.893 Y182.629 E3.28337
G1 X172.146 Y182.832 E3.31233
G1 X169.469 Y183.591 E3.41645
G1 X166.817 Y184.425 E3.52047
G1 X164.297 Y185.298 E3.62026
G1 X161.716 Y186.274 E3.72351
G1 X159.185 Y187.312 E3.82587
G1 X156.102 Y188.705 E3.95246
G1 X156.04 Y188.727 E3.95492
G1 X154.566 Y189.404 E4.01561
G1 X153.931 Y189.657 E4.04119
G1 X153.366 Y189.85 E4.06353
G1 X152.763 Y190.029 E4.08706
G1 X151.925 Y190.228 E4.11929
G1 X151.226 Y190.353 E4.14586
G1 X150.555 Y190.44 E4.17118
G1 X150.023 Y190.485 E4.19116
G1 X149.176 Y190.514 E4.22287
G1 X148.652 Y190.507 E4.24248
G1 X147.836 Y190.455 E4.27307
G1 X147.303 Y190.395 E4.29314
G1 X146.605 Y190.285 E4.31958
G1 X145.944 Y190.148 E4.34484
G1 X145.032 Y189.9 E4.3802
G1 X144.53 Y189.735 E4.39998
G1 X143.817 Y189.466 E4.42849
G1 X141.024 Y188.364 E4.54084
G1 X138.428 Y187.428 E4.6441
G1 X135.863 Y186.584 E4.74513
G1 X133.207 Y185.793 E4.84883
G1 X130.607 Y185.098 E4.94953
G1 X127.925 Y184.461 E5.05268
G1 X126.638 Y184.193 E5.10187
G1 X125.569 Y183.953 E5.14286
G1 X125.236 Y183.859 E5.15581
G1 X124.704 Y183.678 E5.17683
G1 X124.291 Y183.505 E5.19359
G1 X123.918 Y183.317 E5.20922
G1 X123.552 Y183.101 E5.22512
G1 X123.073 Y182.774 E5.24682
G1 X122.795 Y182.561 E5.25993
G1 X122.588 Y182.384 E5.27012
G1 X122.357 Y182.166 E5.282
G1 X122.074 Y181.871 E5.2973
G1 X121.869 Y181.636 E5.30897
G1 X121.605 Y181.293 E5.32516
G1 X121.404 Y181.007 E5.33824
G1 X121.136 Y180.55 E5.35807
G1 X120.839 Y179.932 E5.38372
G1 X120.668 Y179.498 E5.40118
G1 X120.571 Y179.188 E5.41333
G1 X120.487 Y178.86 E5.426
G1 X120.367 Y178.262 E5.44882
G1 X120.309 Y177.809 E5.46591
G1 X120.279 Y177.279 E5.48577
G1 X120.252 Y176.01 E5.53327
G1 X120.27 Y174.976 E5.57196
G1 X120.322 Y174.051 E5.60663
G1 X120.38 Y173.598 E5.62372
G1 X120.487 Y173.071 E5.64384
G1 X120.535 Y172.87 E5.65157
G1 X120.833 Y171.77 E5.69421
G1 X121.52 Y169.08 E5.7981
G1 X122.127 Y166.393 E5.90117
G1 X122.649 Y163.724 E6.00293
G1 X123.099 Y161.033 E6.10502
G1 X123.473 Y158.315 E6.20768
G1 X123.772 Y155.576 E6.31078
G1 X123.989 Y152.9 E6.41123
G1 X124.133 Y150.121 E6.51536
G1 X124.19 Y148.23 E6.58615
G1 X124.252 Y147.726 E6.60515
G1 X124.392 Y147.239 E6.62411
G1 X124.607 Y146.779 E6.64311
G1 X124.892 Y146.359 E6.6621
G1 X125.239 Y145.988 E6.68111
G1 F1200 E3.68111
G1 F600 Z0.4
;MESH:libra mini 1.stl
G0 F7200 X128.45 Y149.41 Z0.4
;TYPE:WALL-INNER
G1 F600 Z0.2
G1 F480 E6.68111
G1 F1448.7 X128.451 Y150.165 E6.71231
G1 X128.576 Y150.058 E6.71911
G1 X128.849 Y149.858 E6.73309
G1 X129.155 Y149.676 E6.74781
G1 X129.369 Y149.575 E6.75759
G1 F1451.6 X129.763 Y149.427 E6.77494
G1 F1509.4 X129.957 Y149.394 E6.78275
G1 F1647.6 X130.198 Y149.37 E6.79155
G1 F1582.4 X129.761 Y149.41 E6.80815
G1 F1451.6 X128.45 Y149.41 E6.86222
G0 F7200 X130.711 Y149.507
G0 X133.163 Y149.778
G1 F1674.4 X133.288 Y149.88 E6.86799
G1 X133.466 Y150.049 E6.87676
G1 X133.705 Y150.317 E6.8896
G1 X133.856 Y150.148 E6.89771
G1 X134.085 Y149.951 E6.90851
G1 X134.205 Y149.865 E6.91379
G1 X134.353 Y149.778 E6.91992
G1 X133.163 Y149.778 E6.96247
G1 F1200 E3.96247
G0 F7200 X142.585 Y150.06
G0 X143.11 Y150.247
G0 X143.653 Y150.693
G0 X143.94 Y151.177
G0 X144.071 Y151.764
G0 X144.067 Y155.416
G0 X143.853 Y156.113
G0 X143.461 Y156.604
G0 X139.834 Y158.77
G1 F480 E6.96247
G1 F1269.8 X139.905 Y158.886 E6.96888
G1 X140.042 Y159.188 E6.98452
G1 X140.09 Y159.333 E6.99172
G1 X140.146 Y159.542 E7.00192
G1 X140.18 Y159.75 E7.01186
G1 X140.189 Y159.875 E7.01777
G1 X140.375 Y159.508 E7.03716
G1 X140.666 Y159.06 E7.06235
G1 X140.83 Y158.851 E7.07488
G1 X140.987 Y158.676 E7.08596
G1 X140.671 Y158.76 E7.10138
G1 X140.495 Y158.785 E7.10976
G1 X140.292 Y158.802 E7.11936
G1 X139.968 Y158.79 E7.13465
G1 X139.834 Y158.77 E7.14103
G0 F7200 X143.775 Y157.18
G1 F1260.9 X144.174 Y157.137 E7.16009
G1 X144.656 Y157.131 E7.18297
G1 X144.792 Y157.137 E7.18944
G1 X145.19 Y157.179 E7.20844
G1 X145.026 Y157.04 E7.21865
G1 X144.903 Y156.916 E7.22694
G1 X144.809 Y156.801 E7.23399
G1 X144.622 Y156.545 E7.24904
G1 X144.481 Y156.29 E7.26288
G1 X144.387 Y156.475 E7.27273
G1 X144.163 Y156.802 E7.29155
G1 X143.953 Y157.027 E7.30616
G1 X143.775 Y157.18 E7.31731
G0 F7200 X144.951 Y150.258
G1 F1800 X145.186 Y150.033 E7.32813
G1 X145.304 Y149.94 E7.33312
G1 X145.521 Y149.796 E7.34179
G1 X145.586 Y149.763 E7.34421
G1 X143.377 Y149.762 E7.41768
G1 X143.48 Y149.818 E7.42158
G1 X143.639 Y149.923 E7.42792
G1 X143.85 Y150.096 E7.43699
G1 X143.994 Y150.238 E7.44372
G1 X144.146 Y150.417 E7.45153
G1 X144.284 Y150.622 E7.45975
G1 X144.43 Y150.898 E7.47014
G1 X144.483 Y151.039 E7.47515
G1 X144.536 Y150.898 E7.48016
G1 X144.58 Y150.805 E7.48358
G1 X144.692 Y150.606 E7.49117
G1 X144.818 Y150.418 E7.4987
G1 X144.951 Y150.258 E7.50562
G1 F1200 E4.50562
G0 F7200 X144.895 Y151.77
G0 X144.895 Y155.347
G0 X145.067 Y156.018
G0 X145.528 Y156.627
G0 X147.779 Y157.869
G0 X150.188 Y163.712
G0 X150.182 Y164.329
G1 F480 E7.50562
G1 F1800 X150.229 Y164.08 E7.51405
G1 X150.274 Y163.92 E7.51958
G1 X150.385 Y163.671 E7.52864
G1 X150.447 Y163.557 E7.53296
G1 X150.322 Y163.518 E7.53732
G1 X150.068 Y163.4 E7.54663
G1 X149.925 Y163.315 E7.55216
G1 X149.783 Y163.209 E7.55806
G1 X149.608 Y163.046 E7.56601
G1 X149.449 Y162.861 E7.57412
G1 X149.382 Y162.764 E7.57805
G1 X149.238 Y162.493 E7.58825
G1 F1809 X149.199 Y162.392 E7.59184
G1 F1846.2 X149.132 Y162.137 E7.60039
G1 F1884.8 X149.113 Y162.025 E7.60399
G1 F1879.9 X149.115 Y162.201 E7.6096
G1 F1832.1 X149.088 Y162.511 E7.61977
G1 F1800 X149.005 Y162.948 E7.63456
G1 X148.964 Y163.102 E7.63986
G1 X148.808 Y163.57 E7.65627
G1 X148.622 Y163.985 E7.6714
G1 X148.403 Y164.363 E7.68593
G1 X148.146 Y164.727 E7.70075
G1 X147.917 Y164.998 E7.71255
G1 X147.689 Y165.23 E7.72337
G1 X147.467 Y165.431 E7.73333
G1 X147.153 Y165.668 E7.74641
G1 F1791 X146.71 Y165.947 E7.76391
G1 F1714.3 X146.375 Y166.128 E7.77721
G1 F1722.5 X147.288 Y165.922 E7.80974
G1 F1800 X147.718 Y165.849 E7.82425
G1 X148.131 Y165.797 E7.83809
G1 X148.609 Y165.76 E7.85404
G1 X149.081 Y165.747 E7.86974
G1 X149.555 Y165.757 E7.88551
G1 X150.028 Y165.79 E7.90128
G1 X150.567 Y165.856 E7.91934
G1 X150.735 Y165.886 E7.92502
G1 X150.618 Y165.768 E7.93054
G1 X150.467 Y165.563 E7.93901
G1 X150.374 Y165.4 E7.94526
G1 X150.296 Y165.214 E7.95196
G1 X150.214 Y164.948 E7.96122
G1 X150.183 Y164.76 E7.96756
G1 X150.171 Y164.505 E7.97605
G1 X150.182 Y164.329 E7.98191
G0 F7200 X151.111 Y165.482
G0 X157.346 Y170.238
G1 F1256.5 X157.475 Y170.441 E7.99337
G1 X157.688 Y170.824 E8.01425
G1 X157.935 Y171.333 E8.04121
G1 X157.976 Y171.222 E8.04685
G1 X158.114 Y170.95 E8.06138
G1 X158.179 Y170.849 E8.0671
G1 X158.354 Y170.633 E8.08035
G1 X158.466 Y170.53 E8.0876
G1 X157.346 Y170.238 E8.14274
G1 F1200 E5.14274
G0 F7200 X159.706 Y170.613
G0 X168.954 Y172.848
G1 F480 E8.14274
G1 F1403.5 X169.093 Y173.078 E8.15421
G1 X169.176 Y173.268 E8.16305
G1 X169.199 Y173.341 E8.16632
G1 X169.294 Y173.274 E8.17128
G1 F1390 X169.647 Y173.069 E8.18886
G1 F1353.4 X169.751 Y173.017 E8.194
G1 F1333.3 X169.904 Y172.955 E8.20141
G1 X170.089 Y172.892 E8.21019
G1 X170.022 Y172.817 E8.2147
G1 X169.839 Y172.565 E8.22869
G1 X169.706 Y172.343 E8.24031
G1 X169.522 Y172.525 E8.25193
G1 F1368.8 X169.206 Y172.732 E8.26845
G1 F1406.2 X168.954 Y172.848 E8.28026
G0 F7200 X168.7 Y173.313
G1 F1800 X168.783 Y173.529 E8.28796
G1 X168.808 Y173.627 E8.29132
G1 X168.844 Y173.916 E8.30101
G1 X168.837 Y174.071 E8.30617
G1 F1841.4 X168.797 Y174.291 E8.31344
G1 F1920 X168.72 Y174.505 E8.32053
G1 F1899.7 X168.902 Y174.231 E8.3309
G1 F1822.8 X169.098 Y174.01 E8.3406
G1 F1800 X169.19 Y173.923 E8.34481
G1 X169.407 Y173.749 E8.35406
G1 X169.55 Y173.652 E8.35981
G1 X169.843 Y173.487 E8.37099
G1 X170.075 Y173.393 E8.37932
G1 X170.285 Y173.323 E8.38668
G1 X170.418 Y173.29 E8.39124
G1 X170.662 Y173.247 E8.39948
G1 X170.835 Y173.228 E8.40527
G1 X170.966 Y173.224 E8.40963
G1 F1818.2 X171.177 Y173.233 E8.41658
G1 F1875 X171.367 Y173.255 E8.42269
G1 F1940.7 X171.526 Y173.288 E8.4277
G1 F1899.7 X171.195 Y173.165 E8.43883
G1 F1818.2 X171.013 Y173.068 E8.44562
G1 F1800 X170.77 Y172.896 E8.45552
G1 X170.592 Y172.74 E8.46339
G1 X170.444 Y172.586 E8.47049
G1 X170.346 Y172.467 E8.47562
G1 X170.161 Y172.195 E8.48656
G1 X170.046 Y171.973 E8.49488
G1 X169.98 Y171.815 E8.50057
G1 X169.913 Y171.613 E8.50765
G1 F1813.6 X169.729 Y170.888 E8.53234
G1 F1827.4 X169.736 Y170.988 E8.53563
G1 F1818.2 X169.721 Y171.235 E8.54378
G1 F1804.5 X169.695 Y171.383 E8.54876
G1 F1800 X169.628 Y171.598 E8.55625
G1 X169.518 Y171.811 E8.56422
G1 X169.458 Y171.908 E8.56802
G1 X169.394 Y171.989 E8.57145
G1 X169.219 Y172.164 E8.57968
G1 X168.984 Y172.333 E8.58931
G1 X168.739 Y172.443 E8.59824
G1 X168.555 Y172.496 E8.60461
G1 F1782.2 X168.291 Y172.533 E8.61357
G1 F1710.2 X168.154 Y172.543 E8.61838
G1 F1596.5 X167.923 Y172.532 E8.62705
G1 X168.12 Y172.653 E8.63572
G1 F1730.8 X168.361 Y172.85 E8.64648
G1 F1800 X168.545 Y173.053 E8.6556
G1 X168.7 Y173.313 E8.66567
G0 F7200 X168.571 Y175.149
G0 X168.442 Y175.78
G0 X168.497 Y176.539
G0 X168.787 Y177.227
G0 X169.321 Y178.13
G1 F1800 X169.121 Y177.955 E8.6745
G1 X168.984 Y177.814 E8.68104
G1 X168.744 Y177.507 E8.694
G1 F1804.5 X168.693 Y177.427 E8.69715
G1 F1855.7 X168.573 Y177.191 E8.70569
G1 F1930.3 X168.516 Y177.044 E8.71058
G1 F1909.8 X168.553 Y177.321 E8.71934
G1 F1836.7 X168.558 Y177.458 E8.72381
G1 F1804.5 X168.527 Y177.677 E8.73115
G1 F1800 X168.494 Y177.814 E8.73584
G1 X168.399 Y178.042 E8.74405
G1 X168.308 Y178.195 E8.74997
G1 X168.191 Y178.348 E8.75638
G1 X168.017 Y178.517 E8.76445
G1 X167.842 Y178.642 E8.7716
G1 X167.79 Y178.671 E8.77358
G1 X170.114 Y178.671 E8.85088
G1 F1827.4 X170.57 Y178.678 E8.86582
G1 F1841.4 X170.295 Y178.62 E8.87496
G1 F1813.6 X170.129 Y178.572 E8.88066
G1 F1800 X169.782 Y178.423 E8.89322
G1 X169.651 Y178.353 E8.89816
G1 X169.321 Y178.13 E8.91141
G0 F7200 X168.846 Y178.236
G1 F1531.9 X168.816 Y178.286 E8.91369
G1 X168.759 Y178.286 E8.91591
G1 X168.73 Y178.236 E8.91817
G1 X168.76 Y178.186 E8.92045
G1 X168.816 Y178.186 E8.92264
G0 F7200 X169.705 Y178.267
G0 X169.867 Y178.016
G1 F1800 X169.58 Y177.825 E8.93411
G1 X169.407 Y177.675 E8.94172
G1 X169.276 Y177.541 E8.94795
G1 X169.069 Y177.274 E8.95919
G1 F1804.5 X168.925 Y177.026 E8.96871
G1 X168.789 Y176.694 E8.98061
G1 F1800 X168.73 Y176.479 E8.98802
G1 X168.682 Y176.16 E8.99875
G1 X168.681 Y175.843 E9.0093
G1 X168.684 Y175.776 E9.01153
G1 X168.731 Y175.464 E9.02202
G1 X168.795 Y175.233 E9.02999
G1 X168.903 Y174.964 E9.03963
G1 X169.046 Y174.707 E9.04942
G1 F1804.5 X169.201 Y174.489 E9.05829
G1 X169.447 Y174.23 E9.07014
G1 F1800 X169.632 Y174.08 E9.07806
G1 X169.774 Y173.983 E9.08378
G1 X170.012 Y173.85 E9.09285
G1 X170.221 Y173.765 E9.10036
G1 X170.408 Y173.704 E9.1069
G1 X170.704 Y173.645 E9.11694
G1 X170.876 Y173.626 E9.12269
G1 X171.215 Y173.631 E9.13397
G1 F1804.5 X171.3 Y173.639 E9.1368
G1 X171.632 Y173.699 E9.14799
G1 F1800 X171.818 Y173.76 E9.15451
G1 X172.031 Y173.844 E9.16212
G1 X172.272 Y173.979 E9.17131
G1 X172.457 Y174.104 E9.17873
G1 X172.625 Y174.245 E9.18603
G1 X172.864 Y174.503 E9.19773
G1 X172.993 Y174.681 E9.20504
G1 X173.133 Y174.922 E9.21431
G1 X173.222 Y175.133 E9.22192
G1 X173.29 Y175.332 E9.22892
G1 X173.344 Y175.571 E9.23707
G1 X173.377 Y175.908 E9.24833
G1 X173.379 Y176.03 E9.25239
G1 X173.34 Y176.401 E9.2648
G1 X173.293 Y176.598 E9.27153
G1 X173.215 Y176.832 E9.27974
G1 X173.109 Y177.067 E9.28831
G1 X172.989 Y177.265 E9.29601
G1 X172.848 Y177.461 E9.30404
G1 X172.633 Y177.692 E9.31454
G1 X172.462 Y177.836 E9.32197
G1 X172.262 Y177.972 E9.33002
G1 X172.08 Y178.075 E9.33697
G1 X171.807 Y178.189 E9.34681
G1 X171.586 Y178.257 E9.3545
G1 X171.367 Y178.299 E9.36192
G1 X171.15 Y178.32 E9.36917
G1 X170.881 Y178.318 E9.37812
G1 X170.648 Y178.292 E9.38592
G1 X170.475 Y178.256 E9.39179
G1 X170.248 Y178.19 E9.39966
G1 X169.946 Y178.058 E9.41062
G1 X169.867 Y178.016 E9.41359
G0 F7200 X169.705 Y178.267
G0 X170.642 Y178.534
G0 X171.413 Y178.534
G0 X172.153 Y178.306
G0 X172.674 Y177.949
G0 X173.362 Y177.221
G0 X172.76 Y176.869
;TYPE:WALL-OUTER
G1 F1800 X172.661 Y177.035 E9.42002
G1 X172.547 Y177.196 E9.42658
G1 X172.358 Y177.4 E9.43583
G1 X172.197 Y177.533 E9.44278
G1 X172.039 Y177.639 E9.44911
G1 X171.878 Y177.729 E9.45524
G1 X171.687 Y177.807 E9.4621
G1 X171.501 Y177.865 E9.46858
G1 X171.315 Y177.902 E9.47489
G1 X171.135 Y177.92 E9.48091
G1 X170.92 Y177.92 E9.48806
G1 X170.727 Y177.9 E9.49451
G1 X170.554 Y177.865 E9.50038
G1 X170.368 Y177.808 E9.50685
G1 X170.083 Y177.679 E9.51726
G1 X169.839 Y177.52 E9.52695
G1 X169.693 Y177.395 E9.53334
G1 X169.568 Y177.267 E9.53929
G1 X169.394 Y177.041 E9.54878
G1 F1804.5 X169.295 Y176.872 E9.55527
G1 X169.182 Y176.608 E9.5648
G1 F1800 X169.123 Y176.403 E9.5719
G1 X169.081 Y176.124 E9.58128
G1 X169.081 Y175.843 E9.59063
G1 X169.123 Y175.543 E9.6007
G1 X169.18 Y175.344 E9.60759
G1 X169.243 Y175.18 E9.61343
G1 X169.38 Y174.928 E9.62297
G1 F1804.5 X169.493 Y174.766 E9.62952
G1 X169.704 Y174.537 E9.63985
G1 F1800 X169.856 Y174.411 E9.64642
G1 X170.014 Y174.305 E9.65275
G1 X170.182 Y174.212 E9.65914
G1 X170.379 Y174.134 E9.66618
G1 X170.531 Y174.085 E9.67149
G1 X170.727 Y174.045 E9.67815
G1 X170.918 Y174.024 E9.68454
G1 F1804.5 X171.217 Y174.032 E9.69446
G1 X171.517 Y174.083 E9.70456
G1 F1800 X171.684 Y174.138 E9.71041
G1 X171.867 Y174.21 E9.71695
G1 X172.045 Y174.309 E9.72372
G1 X172.211 Y174.421 E9.73038
G1 X172.353 Y174.539 E9.73652
G1 X172.558 Y174.762 E9.7466
G1 X172.668 Y174.919 E9.75297
G1 X172.768 Y175.091 E9.75959
G1 X172.844 Y175.265 E9.76591
G1 X172.908 Y175.453 E9.77251
G1 X172.948 Y175.633 E9.77864
G1 X172.977 Y175.92 E9.78824
G1 X172.977 Y176.021 E9.7916
G1 X172.946 Y176.323 E9.80169
G1 X172.901 Y176.509 E9.80806
G1 X172.838 Y176.693 E9.81453
G1 X172.76 Y176.869 E9.82093
G0 F7200 X172.661 Y177.035
G0 X172.657 Y177.04
G1 F1200 E6.82093
G0 F7200 X173.227 Y177.444
G0 X173.58 Y176.411
G0 X173.58 Y175.531
G0 X173.332 Y174.789
G0 X172.795 Y174.078
G0 X170.743 Y172.664
G0 X170.324 Y172.156
G0 X170.061 Y171.54
G0 X166.268 Y158.145
G0 X165.237 Y156.566
;TYPE:WALL-INNER
G1 F480 E9.82093
G1 F1392.6 X165.349 Y156.596 E9.82592
