;FLAVOR:Marlin
;TIME:437
;Filament used: 0.370116m
;Layer height: 0.2
;MINX:147.136
;MINY:143.775
;MINZ:0.2
;MAXX:182.853
;MAXY:181.209
;MAXZ:4
;Generated with Cura_SteamEngine 5.2.0
M82 ;absolute extrusion mode
PRINT_START BED_TEMP=65 EXTRUDER_TEMP=235
M82 ;absolute extrusion mode
G92 E0
G92 E0
G1 F1200 E-3
;LAYER_COUNT:20
;LAYER:0
M107
G1 F600 Z0.4
G0 F7200 X153.334 Y146.602 Z0.4
;TYPE:SKIRT
G1 F600 Z0.2
G1 F480 E0
G1 F900 X153.927 Y146.001 E0.03159
G1 X154.223 Y145.744 E0.04626
G1 X154.894 Y145.245 E0.07755
G1 X155.364 Y144.949 E0.09833
G1 X155.976 Y144.616 E0.1244
G1 X156.159 Y144.531 E0.13195
G1 X156.768 Y144.292 E0.15643
G1 X157.265 Y144.13 E0.17599
G1 X157.929 Y143.958 E0.20166
G1 X158.158 Y143.914 E0.21038
G1 X158.615 Y143.846 E0.22767
G1 X158.842 Y143.822 E0.23621
G1 X159.23 Y143.795 E0.25076
G1 X159.824 Y143.778 E0.273
G1 X172.991 Y143.775 E0.76568
G1 X173.931 Y143.788 E0.80085
G1 X174.535 Y143.829 E0.82351
G1 X175.134 Y143.904 E0.84609
G1 X175.854 Y144.044 E0.87354
G1 X176.232 Y144.144 E0.88817
G1 X176.722 Y144.298 E0.90739
G1 X176.964 Y144.387 E0.91704
G1 X177.485 Y144.604 E0.93815
G1 X177.944 Y144.83 E0.9573
G1 X178.312 Y145.033 E0.97302
G1 X178.77 Y145.316 E0.99317
G1 X178.991 Y145.468 E1.00321
G1 X179.284 Y145.684 E1.01683
G1 X179.499 Y145.854 E1.02708
G1 X179.839 Y146.146 E1.04385
G1 X180.034 Y146.328 E1.05383
G1 X180.328 Y146.625 E1.06947
G1 X180.568 Y146.886 E1.08274
G1 X180.875 Y147.251 E1.10058
G1 X181.036 Y147.46 E1.11045
G1 X181.292 Y147.821 E1.12701
G1 X181.475 Y148.103 E1.13959
G1 X181.739 Y148.556 E1.15921
G1 X181.918 Y148.9 E1.17372
G1 X182.16 Y149.432 E1.19559
G1 X182.304 Y149.8 E1.21038
G1 X182.5 Y150.403 E1.2341
G1 X182.613 Y150.833 E1.25074
G1 X182.724 Y151.36 E1.27089
G1 X182.784 Y151.735 E1.2851
G1 X182.853 Y152.624 E1.31846
G1 X182.85 Y153.303 E1.34387
G1 X182.81 Y153.938 E1.36768
G1 X182.732 Y154.501 E1.38894
G1 X182.686 Y154.751 E1.39846
G1 X182.558 Y155.29 E1.41918
G1 X182.434 Y155.716 E1.43579
G1 X182.275 Y156.183 E1.45425
G1 X182.19 Y156.4 E1.46297
G1 X182.042 Y156.742 E1.47691
G1 X181.922 Y156.996 E1.48742
G1 X181.719 Y157.384 E1.50381
G1 X181.396 Y157.924 E1.52735
G1 X181.253 Y158.139 E1.53701
G1 X180.937 Y158.567 E1.55692
G1 X180.022 Y159.689 E1.61109
G1 X179.582 Y160.209 E1.63658
G1 X177.901 Y162.312 E1.73732
G1 X176.302 Y164.435 E1.83677
G1 X174.746 Y166.627 E1.93735
G1 X173.27 Y168.835 E2.03673
G1 X171.833 Y171.123 E2.13782
G1 X170.49 Y173.401 E2.23677
G1 X169.546 Y175.132 E2.31055
G1 X168.665 Y176.69 E2.37752
G1 X168.293 Y177.262 E2.40305
G1 X168.122 Y177.492 E2.41377
G1 X167.76 Y177.937 E2.43524
G1 X167.498 Y178.229 E2.44992
G1 X167.349 Y178.383 E2.45794
G1 X166.985 Y178.726 E2.47665
G1 X166.619 Y179.041 E2.49472
G1 X166.199 Y179.369 E2.51466
G1 X165.784 Y179.661 E2.53365
G1 X165.181 Y180.029 E2.56008
G1 X164.812 Y180.223 E2.57568
G1 X164.36 Y180.435 E2.59436
G1 X164.056 Y180.561 E2.60667
G1 X163.42 Y180.78 E2.63184
G1 X162.831 Y180.943 E2.65471
G1 X162.157 Y181.084 E2.68047
G1 X161.764 Y181.141 E2.69533
G1 X161.251 Y181.191 E2.71462
G1 X160.991 Y181.204 E2.72436
G1 X160.575 Y181.209 E2.73993
G1 X160.076 Y181.196 E2.7586
G1 X159.406 Y181.137 E2.78377
G1 X159 Y181.076 E2.79913
G1 X158.507 Y180.979 E2.81793
G1 X158.275 Y180.922 E2.82687
G1 X157.841 Y180.796 E2.84378
G1 X157.307 Y180.617 E2.86486
G1 X156.72 Y180.382 E2.88851
G1 X156.441 Y180.251 E2.90005
G1 X156.094 Y180.072 E2.91466
G1 X155.86 Y179.941 E2.92469
G1 X155.516 Y179.732 E2.93975
G1 X155.348 Y179.621 E2.94729
G1 X154.968 Y179.346 E2.96484
G1 X154.608 Y179.061 E2.98202
G1 X154.315 Y178.812 E2.99641
G1 X153.994 Y178.519 E3.01267
G1 X153.535 Y178.046 E3.03733
G1 X153.344 Y177.824 E3.04829
G1 X152.999 Y177.379 E3.06936
G1 X152.659 Y176.89 E3.09164
G1 X152.299 Y176.294 E3.1177
G1 X152.045 Y175.799 E3.13851
G1 X150.877 Y173.303 E3.24163
G1 X149.657 Y170.858 E3.34387
G1 X148.787 Y169.22 E3.41327
G1 X148.406 Y168.464 E3.44495
G1 X148.149 Y167.88 E3.46882
G1 X147.912 Y167.264 E3.49352
G1 X147.715 Y166.665 E3.51711
G1 X147.531 Y165.999 E3.54297
G1 X147.395 Y165.391 E3.56628
G1 X147.277 Y164.711 E3.5921
G1 X147.197 Y164.06 E3.61664
G1 X147.165 Y163.68 E3.63091
G1 X147.136 Y163.024 E3.65548
G1 X147.14 Y162.347 E3.68082
G1 X147.151 Y162.07 E3.69119
G1 X147.197 Y161.443 E3.71471
G1 X147.276 Y160.795 E3.73914
G1 X147.386 Y160.152 E3.76355
G1 X147.467 Y159.767 E3.77827
G1 X147.537 Y159.477 E3.78943
G1 X147.702 Y158.88 E3.81261
G1 X147.921 Y158.213 E3.83888
G1 X148.151 Y157.618 E3.86274
G1 X148.399 Y157.048 E3.886
G1 X149.31 Y155.107 E3.96623
G1 X150.404 Y152.611 E4.06821
G1 X151.615 Y149.592 E4.18992
G1 X151.879 Y148.902 E4.21756
G1 X152.152 Y148.3 E4.24229
G1 X152.426 Y147.839 E4.26236
G1 X152.742 Y147.361 E4.2838
G1 X153.127 Y146.847 E4.30783
G1 X153.334 Y146.602 E4.31983
G0 F7200 X153.678 Y146.892
G1 F900 X154.222 Y146.341 E4.34881
G1 X154.518 Y146.084 E4.36347
G1 X155.134 Y145.626 E4.3922
G1 X155.604 Y145.33 E4.41298
G1 X156.165 Y145.025 E4.43687
G1 X156.348 Y144.94 E4.44442
G1 X156.908 Y144.719 E4.46695
G1 X157.405 Y144.557 E4.48651
G1 X158.014 Y144.4 E4.51004
G1 X158.243 Y144.356 E4.51877
G1 X158.663 Y144.294 E4.53465
G1 X159.245 Y144.245 E4.55651
G1 X159.824 Y144.228 E4.57818
G1 X173.062 Y144.225 E5.07351
G1 X173.925 Y144.237 E5.10581
G1 X174.479 Y144.276 E5.12659
G1 X175.078 Y144.351 E5.14918
G1 X175.739 Y144.479 E5.17437
G1 X176.117 Y144.579 E5.189
G1 X176.566 Y144.721 E5.20662
G1 X177.081 Y144.919 E5.22727
G1 X177.306 Y145.017 E5.23645
G1 X177.726 Y145.224 E5.25397
G1 X178.094 Y145.427 E5.2697
G1 X178.515 Y145.687 E5.28821
G1 X179.005 Y146.037 E5.31074
G1 X179.22 Y146.207 E5.321
G1 X179.532 Y146.475 E5.33639
G1 X179.727 Y146.657 E5.34637
G1 X179.997 Y146.93 E5.36074
G1 X180.237 Y147.191 E5.374
G1 X180.519 Y147.525 E5.39036
G1 X180.68 Y147.734 E5.40023
G1 X180.914 Y148.066 E5.41543
G1 X181.097 Y148.348 E5.42801
G1 X181.34 Y148.763 E5.446
G1 X181.519 Y149.107 E5.46051
G1 X181.74 Y149.596 E5.48059
G1 X181.884 Y149.964 E5.49538
G1 X182.065 Y150.518 E5.51719
G1 X182.178 Y150.948 E5.53382
G1 X182.28 Y151.431 E5.55229
G1 X182.34 Y151.806 E5.5665
G1 X182.403 Y152.622 E5.59713
G1 X182.4 Y153.301 E5.62253
G1 X182.363 Y153.884 E5.64439
G1 X182.289 Y154.419 E5.6646
G1 X182.243 Y154.669 E5.67411
G1 X182.126 Y155.164 E5.69314
G1 X182.002 Y155.59 E5.70975
G1 X181.856 Y156.019 E5.7267
G1 X181.635 Y156.55 E5.74822
G1 X181.515 Y156.804 E5.75873
G1 X181.329 Y157.16 E5.77376
G1 X181.021 Y157.675 E5.79622
G1 X180.878 Y157.89 E5.80588
G1 X180.588 Y158.283 E5.82415
G1 X179.673 Y159.405 E5.87833
G1 X179.239 Y159.918 E5.90347
G1 X177.555 Y162.025 E6.0044
G1 X175.915 Y164.202 E6.10638
G1 X174.385 Y166.358 E6.2053
G1 X172.895 Y168.587 E6.30563
G1 X171.443 Y170.897 E6.40772
G1 X170.096 Y173.184 E6.50703
G1 X169.154 Y174.91 E6.58061
G1 X168.273 Y176.468 E6.64758
G1 X167.932 Y176.993 E6.671
G1 X167.761 Y177.223 E6.68173
G1 X167.415 Y177.649 E6.70226
G1 X167.025 Y178.07 E6.72373
G1 X166.692 Y178.385 E6.74089
G1 X166.326 Y178.7 E6.75896
G1 X165.94 Y179.001 E6.77727
G1 X165.525 Y179.293 E6.79626
G1 X164.971 Y179.631 E6.82054
G1 X164.602 Y179.825 E6.83614
G1 X164.188 Y180.019 E6.85325
G1 X163.884 Y180.145 E6.86556
G1 X163.3 Y180.346 E6.88867
G1 X162.711 Y180.509 E6.91154
G1 X162.092 Y180.639 E6.9352
G1 X161.699 Y180.696 E6.95006
G1 X161.229 Y180.742 E6.96773
G1 X160.969 Y180.755 E6.97747
G1 X160.587 Y180.759 E6.99177
G1 X160.088 Y180.746 E7.01045
G1 X159.472 Y180.692 E7.03358
G1 X159.066 Y180.631 E7.04895
G1 X158.614 Y180.542 E7.06618
G1 X158.382 Y180.485 E7.07512
G1 X157.984 Y180.369 E7.09063
G1 X157.45 Y180.19 E7.11171
G1 X156.911 Y179.975 E7.13342
G1 X156.632 Y179.844 E7.14495
G1 X156.313 Y179.68 E7.15838
G1 X156.079 Y179.549 E7.16841
G1 X155.596 Y179.246 E7.18974
G1 X155.247 Y178.993 E7.20587
G1 X154.887 Y178.708 E7.22305
G1 X154.618 Y178.479 E7.23627
G1 X154.297 Y178.186 E7.25254
G1 X153.876 Y177.752 E7.27516
G1 X153.685 Y177.53 E7.28612
G1 X153.368 Y177.122 E7.30545
G1 X153.028 Y176.633 E7.32774
G1 X152.698 Y176.086 E7.35164
G1 X152.452 Y175.607 E7.37179
G1 X151.272 Y173.086 E7.47594
G1 X150.071 Y170.678 E7.57663
G1 X149.187 Y169.015 E7.6471
G1 X148.922 Y168.498 E7.66884
G1 X148.663 Y167.94 E7.69185
G1 X148.568 Y167.715 E7.70099
G1 X148.338 Y167.119 E7.7249
G1 X148.222 Y166.779 E7.73834
G1 X148.033 Y166.14 E7.76327
G1 X147.885 Y165.537 E7.7865
G1 X147.764 Y164.909 E7.81044
G1 X147.671 Y164.258 E7.83504
G1 X147.614 Y163.643 E7.85815
G1 X147.586 Y163.008 E7.88194
G1 X147.59 Y162.354 E7.90641
G1 X147.6 Y162.1 E7.91592
G1 X147.644 Y161.492 E7.93873
G1 X147.685 Y161.121 E7.95269
G1 X147.784 Y160.473 E7.97722
G1 X147.908 Y159.859 E8.00066
G1 X147.971 Y159.593 E8.01089
G1 X148.131 Y159.015 E8.03333
G1 X148.342 Y158.371 E8.05869
G1 X148.564 Y157.795 E8.08179
G1 X148.806 Y157.239 E8.10447
G1 X149.742 Y155.246 E8.18686
G1 X150.802 Y152.824 E8.28579
G1 X152.059 Y149.693 E8.41203
G1 X152.3 Y149.063 E8.43727
G1 X152.563 Y148.487 E8.46096
G1 X152.801 Y148.087 E8.47838
G1 X153.117 Y147.609 E8.49982
G1 X153.471 Y147.137 E8.5219
G1 X153.678 Y146.892 E8.5339
G0 F7200 X154.021 Y147.182
G1 F900 X154.517 Y146.68 E8.5603
G1 X154.813 Y146.423 E8.57497
G1 X155.374 Y146.007 E8.6011
G1 X155.844 Y145.711 E8.62189
G1 X156.355 Y145.433 E8.64365
G1 X156.538 Y145.348 E8.6512
G1 X157.047 Y145.147 E8.67168
G1 X157.544 Y144.985 E8.69124
G1 X158.099 Y144.842 E8.71269
G1 X158.328 Y144.798 E8.72141
G1 X158.71 Y144.741 E8.73586
G1 X158.937 Y144.717 E8.7444
G1 X159.261 Y144.695 E8.75655
G1 X159.824 Y144.678 E8.77763
G1 X173.056 Y144.675 E9.27274
G1 X173.919 Y144.687 E9.30504
G1 X174.423 Y144.722 E9.32394
G1 X175.022 Y144.797 E9.34653
G1 X175.624 Y144.914 E9.36947
G1 X176.002 Y145.014 E9.38411
G1 X176.411 Y145.143 E9.40015
G1 X176.653 Y145.232 E9.4098
G1 X177.126 Y145.43 E9.42899
G1 X177.509 Y145.618 E9.44495
G1 X177.877 Y145.821 E9.46068
G1 X178.26 Y146.058 E9.47753
G1 X178.726 Y146.39 E9.49894
G1 X178.941 Y146.56 E9.50919
G1 X179.225 Y146.804 E9.5232
G1 X179.42 Y146.986 E9.53319
G1 X179.666 Y147.234 E9.54626
G1 X179.906 Y147.495 E9.55952
G1 X180.162 Y147.8 E9.57442
G1 X180.323 Y148.009 E9.58429
G1 X180.537 Y148.311 E9.59814
G1 X180.72 Y148.593 E9.61072
G1 X180.94 Y148.971 E9.62709
G1 X181.119 Y149.315 E9.6416
G1 X181.321 Y149.76 E9.65988
G1 X181.465 Y150.128 E9.67467
G1 X181.63 Y150.632 E9.69451
G1 X181.743 Y151.062 E9.71115
G1 X181.836 Y151.502 E9.72798
G1 X181.896 Y151.877 E9.74219
G1 X181.953 Y152.62 E9.77007
G1 X181.95 Y153.299 E9.79548
G1 X181.917 Y153.83 E9.81538
G1 X181.889 Y154.061 E9.82409
G1 X181.8 Y154.588 E9.84409
G1 X181.694 Y155.039 E9.86142
G1 X181.57 Y155.465 E9.87803
G1 X181.437 Y155.855 E9.89344
G1 X181.229 Y156.357 E9.91378
G1 X181.109 Y156.611 E9.92429
G1 X180.939 Y156.936 E9.93801
G1 X180.804 Y157.171 E9.94815
G1 X180.503 Y157.641 E9.96904
G1 X180.239 Y157.998 E9.98565
G1 X179.269 Y159.187 E10.04307
G1 X178.879 Y159.648 E10.06566
G1 X177.195 Y161.754 E10.16656
G1 X175.57 Y163.912 E10.26764
G1 X174.012 Y166.105 E10.36829
G1 X172.509 Y168.355 E10.46954
G1 X171.08 Y170.63 E10.57007
G1 X169.697 Y172.976 E10.67197
G1 X168.762 Y174.689 E10.74499
G1 X167.881 Y176.247 E10.81196
G1 X167.57 Y176.725 E10.8333
G1 X167.399 Y176.955 E10.84402
G1 X167.07 Y177.36 E10.86355
G1 X166.702 Y177.757 E10.8838
G1 X166.398 Y178.044 E10.89944
G1 X166.032 Y178.359 E10.91751
G1 X165.681 Y178.633 E10.93417
G1 X165.266 Y178.925 E10.95316
G1 X164.762 Y179.232 E10.97524
G1 X164.393 Y179.426 E10.99084
G1 X164.016 Y179.603 E11.00643
G1 X163.712 Y179.729 E11.01874
G1 X163.18 Y179.912 E11.03979
G1 X162.591 Y180.075 E11.06266
G1 X162.028 Y180.194 E11.08419
G1 X161.635 Y180.251 E11.09905
G1 X161.206 Y180.292 E11.11517
G1 X160.946 Y180.305 E11.12491
G1 X160.599 Y180.309 E11.1379
G1 X160.1 Y180.296 E11.15658
G1 X159.539 Y180.247 E11.17765
G1 X159.133 Y180.186 E11.19301
G1 X158.721 Y180.105 E11.20872
G1 X158.489 Y180.048 E11.21766
G1 X158.127 Y179.943 E11.23176
G1 X157.593 Y179.764 E11.25284
G1 X157.103 Y179.567 E11.2726
G1 X156.824 Y179.436 E11.28413
G1 X156.533 Y179.287 E11.29636
G1 X156.299 Y179.156 E11.3064
G1 X155.844 Y178.87 E11.32651
G1 X155.526 Y178.64 E11.34119
G1 X155.166 Y178.355 E11.35837
G1 X154.922 Y178.147 E11.37037
G1 X154.601 Y177.854 E11.38663
G1 X154.217 Y177.459 E11.40725
G1 X154.026 Y177.237 E11.4182
G1 X153.738 Y176.865 E11.43581
G1 X153.398 Y176.376 E11.45809
G1 X153.097 Y175.878 E11.47987
G1 X152.859 Y175.414 E11.49938
G1 X151.677 Y172.89 E11.60366
G1 X150.46 Y170.451 E11.70565
G1 X149.588 Y168.81 E11.77519
G1 X149.226 Y168.093 E11.80524
G1 X149.073 Y167.755 E11.81912
G1 X148.839 Y167.177 E11.84246
G1 X148.648 Y166.633 E11.86403
G1 X148.465 Y166.016 E11.88811
G1 X148.408 Y165.795 E11.89665
G1 X148.28 Y165.227 E11.91844
G1 X148.169 Y164.594 E11.94248
G1 X148.117 Y164.2 E11.95735
G1 X148.062 Y163.605 E11.97971
G1 X148.049 Y163.376 E11.9883
G1 X148.033 Y162.771 E12.01094
G1 X148.039 Y162.36 E12.02632
G1 X148.074 Y161.746 E12.04933
G1 X148.133 Y161.17 E12.071
G1 X148.228 Y160.545 E12.09465
G1 X148.348 Y159.952 E12.11729
G1 X148.406 Y159.71 E12.1266
G1 X148.56 Y159.151 E12.1483
G1 X148.686 Y158.753 E12.16392
G1 X148.897 Y158.174 E12.18698
G1 X149.213 Y157.43 E12.21722
G1 X150.158 Y155.417 E12.30043
G1 X151.219 Y152.995 E12.39937
G1 X152.477 Y149.86 E12.52577
G1 X152.72 Y149.224 E12.55124
G1 X152.973 Y148.675 E12.57386
G1 X153.177 Y148.335 E12.5887
G1 X153.493 Y147.857 E12.61014
G1 X153.814 Y147.427 E12.63022
G1 X154.021 Y147.182 E12.64222
G0 F7200 X154.365 Y147.473
G1 F900 X154.812 Y147.02 E12.66603
G1 X155.108 Y146.763 E12.6807
G1 X155.614 Y146.388 E12.70427
G1 X156.084 Y146.092 E12.72505
G1 X156.544 Y145.841 E12.74466
G1 X156.727 Y145.756 E12.75221
G1 X157.187 Y145.575 E12.7707
G1 X157.684 Y145.413 E12.79026
G1 X158.184 Y145.284 E12.80958
G1 X158.413 Y145.24 E12.81831
G1 X158.757 Y145.189 E12.83132
G1 X159.276 Y145.144 E12.85081
G1 X159.683 Y145.13 E12.86605
G1 X173.049 Y145.125 E13.36618
G1 X173.912 Y145.137 E13.39847
G1 X174.367 Y145.169 E13.41554
G1 X174.966 Y145.244 E13.43813
G1 X175.509 Y145.349 E13.45882
G1 X175.887 Y145.449 E13.47345
G1 X176.256 Y145.566 E13.48794
G1 X176.721 Y145.744 E13.50657
G1 X176.946 Y145.842 E13.51575
G1 X177.291 Y146.012 E13.53014
G1 X177.659 Y146.215 E13.54587
G1 X178.005 Y146.428 E13.56107
G1 X178.226 Y146.58 E13.57111
G1 X178.661 Y146.913 E13.5916
G1 X178.918 Y147.133 E13.60426
G1 X179.113 Y147.315 E13.61424
G1 X179.334 Y147.539 E13.62602
G1 X179.574 Y147.8 E13.63928
G1 X179.806 Y148.075 E13.65275
G1 X179.967 Y148.284 E13.66262
G1 X180.159 Y148.556 E13.67508
G1 X180.342 Y148.838 E13.68766
G1 X180.541 Y149.179 E13.70243
G1 X180.72 Y149.523 E13.71694
G1 X180.902 Y149.924 E13.73342
G1 X181.046 Y150.292 E13.7482
G1 X181.195 Y150.747 E13.76612
G1 X181.308 Y151.177 E13.78275
G1 X181.391 Y151.573 E13.79789
G1 X181.451 Y151.948 E13.8121
G1 X181.503 Y152.618 E13.83725
G1 X181.5 Y153.297 E13.86265
G1 X181.47 Y153.775 E13.88058
G1 X181.404 Y154.256 E13.89874
G1 X181.358 Y154.506 E13.90825
G1 X181.262 Y154.913 E13.9239
G1 X181.138 Y155.339 E13.9405
G1 X181.018 Y155.69 E13.95438
G1 X180.822 Y156.165 E13.97361
G1 X180.702 Y156.419 E13.98412
G1 X180.549 Y156.712 E13.99649
G1 X180.414 Y156.947 E14.00663
G1 X180.129 Y157.391 E14.02637
G1 X179.891 Y157.714 E14.04138
G1 X178.926 Y158.896 E14.09848
G1 X178.535 Y159.357 E14.1211
G1 X176.836 Y161.484 E14.22296
G1 X175.195 Y163.662 E14.325
G1 X173.651 Y165.836 E14.42477
G1 X172.146 Y168.088 E14.52612
G1 X170.681 Y170.419 E14.62914
G1 X169.312 Y172.742 E14.73003
G1 X168.371 Y174.467 E14.80355
G1 X167.49 Y176.025 E14.87052
G1 X167.209 Y176.456 E14.88978
G1 X166.89 Y176.874 E14.90945
G1 X166.725 Y177.071 E14.91907
G1 X166.379 Y177.444 E14.9381
G1 X166.105 Y177.703 E14.95221
G1 X165.739 Y178.018 E14.97028
G1 X165.422 Y178.265 E14.98532
G1 X165.007 Y178.557 E15.0043
G1 X164.553 Y178.834 E15.0242
G1 X164.184 Y179.028 E15.0398
G1 X163.843 Y179.188 E15.0539
G1 X163.539 Y179.314 E15.06621
G1 X163.06 Y179.479 E15.08517
G1 X162.471 Y179.642 E15.10803
G1 X161.963 Y179.748 E15.12745
G1 X161.57 Y179.805 E15.14231
G1 X161.184 Y179.843 E15.15682
G1 X160.924 Y179.856 E15.16656
G1 X160.611 Y179.86 E15.17828
