;FLAVOR:Marlin
;TIME:1230
;Filament used: 2.26097m
;Layer height: 0.2
;MINX:120.625
;MINY:148.875
;MINZ:0.2
;MAXX:209.375
;MAXY:176.125
;MAXZ:14
;Generated with Cura_SteamEngine 5.2.0
M82 ;absolute extrusion mode
PRINT_START BED_TEMP=60 EXTRUDER_TEMP=210
G92 E0
G92 E0
G1 F1800 E-0.65
;LAYER_COUNT:70
;LAYER:0
M107
G1 F600 Z0.4
G0 F7200 X122.825 Y150.321 Z0.4
;TYPE:SKIRT
G1 F600 Z0.2
G1 F720 E0
G1 F4500 X123.088 Y150.108 E0.01281
G1 X123.558 Y149.779 E0.03452
G1 X123.93 Y149.581 E0.05047
G1 X124.311 Y149.402 E0.06641
G1 X124.814 Y149.204 E0.08687
G1 X125.034 Y149.134 E0.0956
G1 X125.599 Y148.997 E0.11761
G1 X125.854 Y148.954 E0.1274
G1 X126.455 Y148.898 E0.15024
G1 X127.604 Y148.875 E0.19374
G1 X165.103 Y148.875 E1.61304
G1 X165.554 Y148.881 E1.63011
G1 X166.233 Y148.912 E1.65584
G1 X166.776 Y148.975 E1.67653
G1 X170.019 Y149.57 E1.80132
G1 X172.723 Y149.983 E1.90485
G1 X175.429 Y150.317 E2.00805
G1 X178.09 Y150.571 E2.10922
G1 X180.817 Y150.752 E2.21266
G1 X183.52 Y150.857 E2.31504
G1 X185.891 Y150.885 E2.40479
G1 X204.608 Y150.886 E3.11321
G1 X205.306 Y150.897 E3.13963
G1 X205.878 Y150.945 E3.16136
G1 X206.438 Y151.073 E3.1831
G1 X206.974 Y151.278 E3.20482
G1 X207.477 Y151.555 E3.22655
G1 X207.937 Y151.899 E3.24829
G1 X208.344 Y152.303 E3.27
G1 X208.691 Y152.76 E3.29172
G1 X208.972 Y153.261 E3.31346
G1 X209.18 Y153.796 E3.33518
G1 X209.312 Y154.355 E3.35692
G1 X209.364 Y154.901 E3.37768
G1 X209.375 Y155.331 E3.39396
G1 X209.375 Y167.344 E3.84864
G1 X209.361 Y168.281 E3.88411
G1 X209.329 Y168.728 E3.90107
G1 X209.254 Y169.331 E3.92407
G1 X209.117 Y169.991 E3.94958
G1 X208.968 Y170.495 E3.96948
G1 X208.844 Y170.853 E3.98382
G1 X208.736 Y171.124 E3.99486
G1 X208.525 Y171.596 E4.01443
G1 X208.28 Y172.053 E4.03405
G1 X208.057 Y172.412 E4.05005
G1 X207.853 Y172.71 E4.06372
G1 X207.601 Y173.046 E4.07961
G1 X207.334 Y173.366 E4.09539
G1 X207.111 Y173.608 E4.10784
G1 X206.873 Y173.847 E4.12061
G1 X206.607 Y174.092 E4.1343
G1 X206.338 Y174.319 E4.14762
G1 X206.125 Y174.484 E4.15782
G1 X205.87 Y174.667 E4.1697
G1 X205.55 Y174.878 E4.1842
G1 X205.175 Y175.097 E4.20064
G1 X204.779 Y175.302 E4.21752
G1 X204.45 Y175.455 E4.23125
G1 X204.226 Y175.547 E4.24042
G1 X203.937 Y175.653 E4.25207
G1 X203.587 Y175.767 E4.266
G1 X203.241 Y175.863 E4.27959
G1 X202.883 Y175.946 E4.2935
G1 X202.492 Y176.017 E4.30854
G1 X202.167 Y176.06 E4.32095
G1 X201.791 Y176.093 E4.33523
G1 X200.926 Y176.124 E4.36799
G1 X172.39 Y176.125 E5.44805
G1 X171.463 Y176.111 E5.48314
G1 X171.03 Y176.081 E5.49957
G1 X170.341 Y175.991 E5.52587
G1 X169.513 Y175.844 E5.5577
G1 X168.35 Y175.619 E5.60253
G1 X165.643 Y175.175 E5.70636
G1 X162.977 Y174.815 E5.80818
G1 X160.284 Y174.529 E5.91068
G1 X157.559 Y174.318 E6.01413
G1 X154.859 Y174.185 E6.11644
G1 X151.48 Y174.125 E6.24436
G1 X125.392 Y174.124 E7.23176
G1 X124.694 Y174.113 E7.25818
G1 X124.122 Y174.065 E7.27991
G1 X123.562 Y173.937 E7.30165
G1 X123.026 Y173.732 E7.32337
G1 X122.523 Y173.455 E7.3451
G1 X122.063 Y173.111 E7.36684
G1 X121.656 Y172.707 E7.38855
G1 X121.309 Y172.25 E7.41027
G1 X121.028 Y171.749 E7.43201
G1 X120.82 Y171.214 E7.45373
G1 X120.688 Y170.655 E7.47547
G1 X120.636 Y170.101 E7.49653
G1 X120.625 Y169.658 E7.51331
G1 X120.625 Y155.621 E8.04459
G1 X120.632 Y155.166 E8.06182
G1 X120.662 Y154.516 E8.08644
G1 X120.729 Y153.952 E8.10794
G1 X120.767 Y153.751 E8.11568
G1 X120.873 Y153.319 E8.13252
G1 X120.961 Y153.029 E8.14399
G1 X121.165 Y152.493 E8.1657
G1 X121.345 Y152.149 E8.18039
G1 X121.594 Y151.722 E8.1991
G1 X121.917 Y151.247 E8.22084
G1 X122.192 Y150.932 E8.23667
G1 X122.456 Y150.659 E8.25104
G1 X122.825 Y150.321 E8.26998
G0 F7200 X123.108 Y150.671
G1 F4500 X123.371 Y150.458 E8.28279
G1 X123.816 Y150.149 E8.3033
G1 X124.121 Y149.988 E8.31635
G1 X124.502 Y149.809 E8.33228
G1 X124.951 Y149.633 E8.35054
G1 X125.171 Y149.563 E8.35927
G1 X125.674 Y149.441 E8.37886
G1 X125.929 Y149.398 E8.38865
G1 X126.464 Y149.348 E8.40899
G1 X127.604 Y149.325 E8.45215
G1 X165.097 Y149.325 E9.87122
G1 X165.678 Y149.335 E9.89321
G1 X166.211 Y149.361 E9.91341
G1 X166.695 Y149.417 E9.93185
G1 X169.971 Y150.018 E10.05791
G1 X172.669 Y150.43 E10.16121
G1 X175.369 Y150.764 E10.26418
G1 X178.051 Y151.019 E10.36615
G1 X180.805 Y151.202 E10.47062
G1 X183.497 Y151.306 E10.57258
G1 X185.886 Y151.335 E10.66301
G1 X204.601 Y151.335 E11.37135
G1 X205.299 Y151.346 E11.39778
G1 X205.839 Y151.395 E11.4183
G1 X206.365 Y151.522 E11.43878
G1 X206.868 Y151.726 E11.45932
G1 X207.334 Y152.001 E11.4798
G1 X207.756 Y152.341 E11.50031
G1 X208.122 Y152.74 E11.52081
G1 X208.427 Y153.189 E11.54135
G1 X208.661 Y153.677 E11.56184
G1 X208.822 Y154.194 E11.58233
G1 X208.914 Y154.914 E11.6098
G1 X208.925 Y155.331 E11.62559
G1 X208.925 Y167.337 E12.08001
G1 X208.911 Y168.274 E12.11548
G1 X208.883 Y168.673 E12.13061
G1 X208.808 Y169.276 E12.15361
G1 X208.685 Y169.864 E12.17635
G1 X208.536 Y170.368 E12.19624
G1 X208.426 Y170.687 E12.20901
G1 X208.318 Y170.958 E12.22006
G1 X208.116 Y171.408 E12.23872
G1 X207.898 Y171.815 E12.2562
G1 X207.675 Y172.174 E12.2722
G1 X207.493 Y172.44 E12.28439
G1 X207.241 Y172.776 E12.30029
G1 X207.004 Y173.061 E12.31432
G1 X206.781 Y173.303 E12.32678
G1 X206.568 Y173.516 E12.33818
G1 X206.302 Y173.761 E12.35186
G1 X206.063 Y173.963 E12.36371
G1 X205.85 Y174.128 E12.37391
G1 X205.622 Y174.291 E12.38451
G1 X205.302 Y174.502 E12.39902
G1 X204.969 Y174.698 E12.41365
G1 X204.573 Y174.903 E12.43052
G1 X204.279 Y175.038 E12.44277
G1 X203.797 Y175.225 E12.46234
G1 X203.447 Y175.339 E12.47627
G1 X203.139 Y175.425 E12.48837
G1 X202.781 Y175.508 E12.50228
G1 X202.433 Y175.571 E12.51567
G1 X202.108 Y175.614 E12.52808
G1 X201.773 Y175.643 E12.5408
G1 X200.926 Y175.674 E12.57288
G1 X172.397 Y175.675 E13.65268
G1 X171.47 Y175.661 E13.68777
G1 X171.084 Y175.634 E13.70241
G1 X170.42 Y175.548 E13.72775
G1 X169.598 Y175.402 E13.75935
G1 X168.4 Y175.17 E13.80554
G1 X165.742 Y174.734 E13.90748
G1 X163.012 Y174.366 E14.01175
G1 X160.335 Y174.081 E14.11364
G1 X157.614 Y173.87 E14.21694
G1 X154.857 Y173.734 E14.32141
G1 X151.488 Y173.675 E14.44895
G1 X125.399 Y173.675 E15.43639
G1 X124.701 Y173.664 E15.46281
G1 X124.161 Y173.615 E15.48333
G1 X123.635 Y173.488 E15.50381
G1 X123.132 Y173.284 E15.52436
G1 X122.666 Y173.009 E15.54484
G1 X122.244 Y172.669 E15.56535
G1 X121.878 Y172.27 E15.58584
G1 X121.573 Y171.821 E15.60638
G1 X121.339 Y171.333 E15.62687
G1 X121.178 Y170.816 E15.64736
G1 X121.085 Y170.089 E15.6751
G1 X121.076 Y169.758 E15.68764
G1 X121.075 Y155.627 E16.22248
G1 X121.086 Y155.049 E16.24436
G1 X121.111 Y154.538 E16.26373
G1 X121.171 Y154.035 E16.2829
G1 X121.209 Y153.834 E16.29064
G1 X121.303 Y153.45 E16.3056
G1 X121.391 Y153.16 E16.31707
G1 X121.586 Y152.654 E16.3376
G1 X121.733 Y152.376 E16.3495
G1 X121.982 Y151.949 E16.36821
G1 X122.289 Y151.502 E16.38873
G1 X122.515 Y151.245 E16.40169
G1 X122.779 Y150.972 E16.41606
G1 X123.108 Y150.671 E16.43294
G0 F7200 X123.391 Y151.021
G1 F4500 X123.654 Y150.808 E16.44575
G1 X124.073 Y150.52 E16.46499
G1 X124.313 Y150.395 E16.47523
G1 X124.694 Y150.216 E16.49117
G1 X125.087 Y150.062 E16.50714
G1 X125.307 Y149.992 E16.51588
G1 X125.749 Y149.885 E16.53309
G1 X126.004 Y149.842 E16.54288
G1 X126.473 Y149.798 E16.56071
G1 X127.604 Y149.775 E16.60353
G1 X165.091 Y149.775 E18.02237
G1 X165.542 Y149.781 E18.03944
G1 X166.189 Y149.811 E18.06396
G1 X166.614 Y149.86 E18.08015
G1 X169.89 Y150.461 E18.20621
G1 X172.58 Y150.872 E18.30921
G1 X175.341 Y151.213 E18.4145
G1 X178.016 Y151.468 E18.51621
G1 X180.758 Y151.65 E18.62022
G1 X183.511 Y151.757 E18.72449
G1 X185.881 Y151.785 E18.8142
G1 X204.594 Y151.785 E19.52247
G1 X205.292 Y151.796 E19.54889
G1 X205.797 Y151.844 E19.56809
G1 X206.289 Y151.971 E19.58732
G1 X206.754 Y152.173 E19.60651
G1 X207.182 Y152.446 E19.62573
G1 X207.562 Y152.782 E19.64493
G1 X207.885 Y153.174 E19.66415
G1 X208.142 Y153.612 E19.68337
G1 X208.327 Y154.084 E19.70256
G1 X208.436 Y154.58 E19.72178
G1 X208.465 Y154.927 E19.73496
G1 X208.474 Y155.237 E19.7467
G1 X208.475 Y167.33 E20.20441
G1 X208.461 Y168.267 E20.23987
G1 X208.436 Y168.617 E20.25315
G1 X208.361 Y169.22 E20.27615
G1 X208.254 Y169.736 E20.2961
G1 X208.105 Y170.24 E20.31599
G1 X208.008 Y170.52 E20.32721
G1 X207.9 Y170.791 E20.33825
G1 X207.707 Y171.221 E20.35609
G1 X207.515 Y171.578 E20.37143
G1 X207.292 Y171.937 E20.38743
G1 X207.133 Y172.17 E20.3981
G1 X206.881 Y172.506 E20.414
G1 X206.673 Y172.756 E20.42631
G1 X206.45 Y172.998 E20.43876
G1 X206.263 Y173.185 E20.44877
G1 X205.997 Y173.43 E20.46246
G1 X205.787 Y173.608 E20.47288
G1 X205.574 Y173.773 E20.48308
G1 X205.374 Y173.915 E20.49236
G1 X205.054 Y174.126 E20.50687
G1 X204.762 Y174.298 E20.51969
G1 X204.366 Y174.503 E20.53657
G1 X204.108 Y174.622 E20.54733
G1 X203.658 Y174.797 E20.5656
G1 X203.308 Y174.911 E20.57953
G1 X203.037 Y174.987 E20.59019
G1 X202.679 Y175.07 E20.6041
G1 X202.374 Y175.125 E20.61583
G1 X202.049 Y175.168 E20.62823
G1 X201.755 Y175.193 E20.6394
G1 X200.926 Y175.224 E20.6708
G1 X172.403 Y175.225 E21.75037
G1 X171.476 Y175.211 E21.78546
G1 X171.138 Y175.188 E21.79828
G1 X170.675 Y175.132 E21.81593
G1 X169.684 Y174.96 E21.854
G1 X168.49 Y174.729 E21.90003
G1 X165.806 Y174.289 E22.00297
G1 X163.085 Y173.922 E22.10689
G1 X160.345 Y173.63 E22.21118
G1 X157.635 Y173.42 E22.31406
G1 X154.889 Y173.285 E22.41812
G1 X151.496 Y173.225 E22.54656
G1 X125.406 Y173.225 E23.53404
G1 X124.708 Y173.214 E23.56047
G1 X124.203 Y173.166 E23.57967
G1 X123.711 Y173.039 E23.5989
G1 X123.246 Y172.837 E23.61809
G1 X122.818 Y172.564 E23.6373
G1 X122.438 Y172.228 E23.6565
G1 X122.115 Y171.836 E23.67572
G1 X121.858 Y171.398 E23.69494
G1 X121.673 Y170.926 E23.71413
G1 X121.564 Y170.43 E23.73335
G1 X121.535 Y170.077 E23.74676
G1 X121.526 Y169.746 E23.75929
G1 X121.525 Y155.634 E24.29342
G1 X121.532 Y155.179 E24.31064
G1 X121.561 Y154.56 E24.33409
G1 X121.613 Y154.119 E24.3509
G1 X121.651 Y153.918 E24.35864
G1 X121.734 Y153.581 E24.37178
G1 X121.822 Y153.291 E24.38325
G1 X122.122 Y152.602 E24.41169
G1 X122.371 Y152.175 E24.4304
G1 X122.66 Y151.758 E24.4496
G1 X122.839 Y151.558 E24.45976
G1 X123.103 Y151.285 E24.47414
G1 X123.391 Y151.021 E24.48892
G1 F1800 E23.83892
G1 F600 Z0.4
;MESH:szczota.stl
G0 F7200 X134.871 Y157.603 Z0.4
;TYPE:WALL-INNER
G1 F600 Z0.2
G1 F720 E24.48892
G1 F4500 X135.238 Y157.631 E24.50131
G1 X135.55 Y157.684 E24.51195
G1 X135.91 Y157.778 E24.52447
G1 X136.256 Y157.903 E24.53685
G1 X136.596 Y158.066 E24.54953
G1 X136.883 Y158.236 E24.56076
G1 X137.139 Y158.418 E24.57132
G1 X137.463 Y158.699 E24.58575
G1 X137.716 Y158.968 E24.59818
G1 X137.912 Y159.217 E24.60884
G1 X138.149 Y159.584 E24.62354
G1 X138.285 Y159.852 E24.63365
G1 X138.444 Y160.249 E24.64804
G1 X138.547 Y160.607 E24.66057
G1 X138.614 Y160.97 E24.67299
G1 X138.644 Y161.283 E24.68357
G1 X138.643 Y161.714 E24.69807
G1 X138.613 Y162.027 E24.70865
G1 X138.546 Y162.392 E24.72113
G1 X138.444 Y162.748 E24.73359
G1 X138.282 Y163.156 E24.74836
G1 X138.139 Y163.428 E24.7587
G1 X137.992 Y163.668 E24.76817
G1 X137.772 Y163.963 E24.78055
G1 X137.486 Y164.279 E24.79489
G1 X137.212 Y164.524 E24.80725
G1 X136.91 Y164.747 E24.81988
G1 X136.592 Y164.938 E24.83236
G1 X136.311 Y165.074 E24.84286
G1 X135.91 Y165.223 E24.85726
G1 X135.555 Y165.317 E24.86961
G1 X135.181 Y165.376 E24.88235
G1 X134.868 Y165.397 E24.8929
G1 X134.443 Y165.387 E24.90721
G1 X134.132 Y165.349 E24.91775
G1 X133.712 Y165.259 E24.9322
G1 X133.413 Y165.163 E24.94276
G1 X133.021 Y164.995 E24.95711
G1 X132.744 Y164.844 E24.96773
G1 X132.462 Y164.658 E24.97909
G1 X132.214 Y164.462 E24.98973
G1 X131.905 Y164.166 E25.00412
G1 X131.667 Y163.886 E25.01649
G1 X131.454 Y163.584 E25.02892
G1 X131.268 Y163.258 E25.04155
G1 X131.118 Y162.922 E25.05393
G1 X131.015 Y162.625 E25.0645
G1 X130.918 Y162.229 E25.07822
G1 X130.865 Y161.839 E25.09146
G1 X130.851 Y161.529 E25.1019
G1 X130.871 Y161.104 E25.11621
G1 X130.915 Y160.792 E25.12682
G1 X130.999 Y160.432 E25.13925
G1 X131.12 Y160.077 E25.15187
G1 X131.292 Y159.697 E25.1659
G1 X131.41 Y159.487 E25.17401
G1 X131.627 Y159.162 E25.18716
G1 X131.885 Y158.855 E25.20065
G1 X132.152 Y158.592 E25.21326
G1 X132.394 Y158.393 E25.2238
G1 X132.745 Y158.154 E25.23808
G1 X133.023 Y158.003 E25.24873
G1 X133.413 Y157.838 E25.26297
G1 X133.711 Y157.741 E25.27352
G1 X134.102 Y157.654 E25.28699
G1 X134.442 Y157.612 E25.29852
G1 X134.871 Y157.603 E25.31296
G0 F7200 X134.88 Y157.503
G0 X136.539 Y158.217
G0 X137.331 Y158.796
G0 X137.99 Y159.631
G0 X138.384 Y160.618
G0 X138.465 Y161.475
G0 X138.519 Y162.838
G0 X138.054 Y162.652
;TYPE:WALL-OUTER
G1 F4500 X137.928 Y162.97 E25.32446
G1 X137.778 Y163.254 E25.33527
G1 X137.652 Y163.458 E25.34334
G1 X137.442 Y163.736 E25.35506
G1 X137.217 Y163.983 E25.3663
G1 X136.972 Y164.204 E25.3774
G1 X136.719 Y164.394 E25.38804
G1 X136.418 Y164.578 E25.39991
G1 X136.137 Y164.714 E25.41042
G1 X135.805 Y164.837 E25.42233
G1 X135.484 Y164.923 E25.43351
G1 X135.174 Y164.975 E25.44408
G1 X134.841 Y164.998 E25.45531
G1 X134.491 Y164.99 E25.46709
G1 X134.163 Y164.949 E25.47821
G1 X133.834 Y164.878 E25.48954
G1 X133.535 Y164.782 E25.5001
G1 X133.213 Y164.644 E25.51189
G1 X132.923 Y164.485 E25.52301
G1 X132.71 Y164.344 E25.53161
G1 X132.463 Y164.148 E25.54222
G1 X132.208 Y163.905 E25.55407
G1 X131.992 Y163.653 E25.56523
G1 X131.81 Y163.399 E25.57575
G1 X131.632 Y163.093 E25.58766
G1 X131.496 Y162.791 E25.5988
G1 X131.393 Y162.494 E25.60938
G1 X131.312 Y162.16 E25.62094
G1 X131.265 Y161.821 E25.63245
G1 X131.251 Y161.511 E25.64289
G1 X131.267 Y161.16 E25.65471
G1 X131.311 Y160.848 E25.66531
G1 X131.388 Y160.526 E25.67645
G1 X131.504 Y160.193 E25.68832
G1 X131.633 Y159.908 E25.69884
G1 X131.768 Y159.669 E25.70808
G1 X131.955 Y159.392 E25.71932
G1 X132.168 Y159.138 E25.73047
G1 X132.406 Y158.901 E25.74177
G1 X132.663 Y158.691 E25.75294
G1 X132.919 Y158.516 E25.76337
G1 X133.232 Y158.346 E25.77535
G1 X133.537 Y158.218 E25.78648
G1 X133.835 Y158.121 E25.79703
G1 X134.171 Y158.048 E25.80859
G1 X134.491 Y158.009 E25.81944
G1 X134.843 Y158.002 E25.83128
G1 X135.172 Y158.026 E25.84238
G1 X135.484 Y158.078 E25.85302
G1 X135.805 Y158.164 E25.8642
G1 X136.118 Y158.279 E25.87542
G1 X136.434 Y158.433 E25.88725
G1 X136.651 Y158.562 E25.89574
G1 X136.907 Y158.744 E25.90631
G1 X137.159 Y158.961 E25.9175
G1 X137.402 Y159.216 E25.92935
G1 X137.598 Y159.465 E25.94001
G1 X137.792 Y159.765 E25.95203
G1 X137.935 Y160.049 E25.96273
G1 X138.054 Y160.345 E25.97346
G1 X138.154 Y160.682 E25.98529
G1 X138.216 Y161.008 E25.99645
G1 X138.246 Y161.321 E26.00703
G1 X138.245 Y161.676 E26.01897
G1 X138.215 Y161.989 E26.02955
G1 X138.153 Y162.317 E26.04078
G1 X138.054 Y162.652 E26.05254
G0 F7200 X137.981 Y162.837
G1 F1800 E25.40254
G1 F600 Z0.4
G0 F7200 X157.871 Y157.603 Z0.4
;TYPE:WALL-INNER
G1 F600 Z0.2
G1 F720 E26.05254
G1 F4500 X158.238 Y157.631 E26.06492
G1 X158.55 Y157.684 E26.07557
G1 X158.91 Y157.778 E26.08808
G1 X159.256 Y157.903 E26.10046
G1 X159.596 Y158.066 E26.11315
G1 X159.883 Y158.236 E26.12437
G1 X160.139 Y158.418 E26.13494
G1 X160.463 Y158.699 E26.14937
G1 X160.716 Y158.968 E26.16179
G1 X160.912 Y159.217 E26.17245
G1 X161.137 Y159.562 E26.18631
G1 X161.285 Y159.852 E26.19726
G1 X161.435 Y160.222 E26.21069
G1 X161.541 Y160.578 E26.22319
G1 X161.611 Y160.943 E26.23569
G1 X161.647 Y161.343 E26.24921
G1 X161.645 Y161.683 E26.26065
G1 X161.61 Y162.052 E26.27312
G1 X161.54 Y162.42 E26.28572
G1 X161.436 Y162.773 E26.2981
G1 X161.296 Y163.127 E26.31091
G1 X161.139 Y163.428 E26.32233
G1 X160.992 Y163.668 E26.3318
G1 X160.772 Y163.963 E26.34418
G1 X160.486 Y164.279 E26.35852
G1 X160.212 Y164.524 E26.37088
G1 X159.91 Y164.747 E26.38351
G1 X159.592 Y164.938 E26.39599
G1 X159.311 Y165.074 E26.4065
G1 X158.91 Y165.223 E26.42089
G1 X158.555 Y165.317 E26.43324
G1 X158.181 Y165.376 E26.44598
G1 X157.868 Y165.397 E26.45654
G1 X157.443 Y165.387 E26.47084
G1 X157.132 Y165.349 E26.48138
G1 X156.712 Y165.259 E26.49583
G1 X156.413 Y165.163 E26.5064
G1 X156.021 Y164.995 E26.52074
G1 X155.744 Y164.844 E26.53136
G1 X155.462 Y164.658 E26.54272
G1 X155.214 Y164.462 E26.55336
G1 X154.905 Y164.166 E26.56775
G1 X154.667 Y163.886 E26.58012
