;FLAVOR:Marlin
;TIME:771
;Filament used: 0.796242m
;Layer height: 0.2
;MINX:126.764
;MINY:67.728
;MINZ:0.2
;MAXX:147.964
;MAXY:110.142
;MAXZ:9.6
;Generated with Cura_SteamEngine 5.2.0
M82 ;absolute extrusion mode
PRINT_START BED_TEMP=65 EXTRUDER_TEMP=235
M82 ;absolute extrusion mode
G92 E0
G92 E0
G1 F1200 E-3
;LAYER_COUNT:47
;LAYER:0
M107
G1 F600 Z0.4
G0 F7200 X128.374 Y69.454 Z0.4
;TYPE:SKIRT
G1 F600 Z0.2
G1 F480 E0
G1 F1800 X128.647 Y69.026 E0.019
G1 X128.983 Y68.645 E0.038
G1 X129.374 Y68.322 E0.05698
G1 X129.812 Y68.065 E0.07598
G1 X130.284 Y67.879 E0.09496
G1 X130.78 Y67.77 E0.11397
G1 X131.128 Y67.74 E0.12704
G1 X131.463 Y67.73 E0.13958
G1 X133.146 Y67.728 E0.20255
G1 X134.347 Y67.744 E0.24749
G1 X136.165 Y67.795 E0.31555
G1 X139.496 Y67.784 E0.44018
G1 X142.285 Y67.728 E0.54456
G1 X143.824 Y67.738 E0.60215
G1 X144.33 Y67.781 E0.62115
G1 X144.822 Y67.903 E0.64012
G1 X145.29 Y68.101 E0.65913
G1 X145.72 Y68.37 E0.67811
G1 X146.103 Y68.703 E0.6971
G1 X146.43 Y69.092 E0.71612
G1 X146.691 Y69.527 E0.7351
G1 X146.88 Y69.998 E0.75409
G1 X146.993 Y70.492 E0.77305
G1 X147.027 Y70.868 E0.78718
G1 X147.037 Y71.208 E0.7999
G1 X147.038 Y76.799 E1.00911
G1 X147.078 Y79.596 E1.11377
G1 X147.193 Y82.311 E1.21545
G1 X147.388 Y85.067 E1.31883
G1 X147.646 Y87.678 E1.41701
G1 X147.86 Y89.579 E1.48859
G1 X147.868 Y90.216 E1.51243
G1 X147.737 Y91.744 E1.56981
G1 X147.652 Y92.586 E1.60147
G1 X147.464 Y95.151 E1.69771
G1 X147.379 Y95.686 E1.71798
G1 X147.237 Y96.265 E1.74028
G1 X146.759 Y98.08 E1.81051
G1 X146.136 Y100.748 E1.91303
G1 X145.659 Y103.098 E2.00275
G1 X145.517 Y103.723 E2.02674
G1 X145.463 Y103.929 E2.0347
G1 X145.343 Y104.319 E2.04997
G1 X145.254 Y104.573 E2.06004
G1 X145.028 Y105.126 E2.0824
G1 X144.848 Y105.502 E2.09799
G1 X144.656 Y105.855 E2.11303
G1 X144.415 Y106.25 E2.13034
G1 X144.185 Y106.59 E2.1457
G1 X143.947 Y106.905 E2.16048
G1 X143.681 Y107.226 E2.17608
G1 X143.363 Y107.572 E2.19366
G1 X142.955 Y107.96 E2.21473
G1 X142.612 Y108.253 E2.23161
G1 X142.342 Y108.46 E2.24434
G1 X141.813 Y108.823 E2.26834
G1 X141.531 Y108.996 E2.28072
G1 X140.957 Y109.301 E2.30504
G1 X140.569 Y109.477 E2.32098
G1 X140.317 Y109.578 E2.33114
G1 X140.073 Y109.664 E2.34082
G1 X139.532 Y109.832 E2.36202
G1 X139.073 Y109.948 E2.37973
G1 X138.84 Y109.994 E2.38862
G1 X138.336 Y110.074 E2.40772
G1 X137.826 Y110.125 E2.42689
G1 X137.471 Y110.142 E2.44019
G1 X137.011 Y110.141 E2.4574
G1 X136.434 Y110.103 E2.47904
G1 X136.169 Y110.073 E2.48902
G1 X135.743 Y110.007 E2.50515
G1 X135.354 Y109.928 E2.52
G1 X134.913 Y109.813 E2.53706
G1 X134.384 Y109.641 E2.55787
G1 X133.944 Y109.47 E2.57553
G1 X133.539 Y109.287 E2.59216
G1 X133.2 Y109.112 E2.60644
G1 X132.953 Y108.972 E2.61706
G1 X132.642 Y108.781 E2.63072
G1 X132.27 Y108.526 E2.64759
G1 X132.064 Y108.37 E2.65726
G1 X131.66 Y108.036 E2.67688
G1 X131.244 Y107.653 E2.69803
G1 X130.912 Y107.301 E2.71614
G1 X130.664 Y107.008 E2.7305
G1 X130.431 Y106.709 E2.74469
G1 X130.287 Y106.509 E2.75391
G1 X130.055 Y106.159 E2.76962
G1 X129.9 Y105.899 E2.78095
G1 X129.621 Y105.378 E2.80306
G1 X129.505 Y105.138 E2.81303
G1 X129.33 Y104.721 E2.82996
G1 X129.153 Y104.215 E2.85001
G1 X129.022 Y103.763 E2.86762
G1 X128.91 Y103.275 E2.88636
G1 X128.815 Y102.692 E2.90846
G1 X128.772 Y102.259 E2.92474
G1 X128.75 Y101.845 E2.94025
G1 X128.739 Y101.035 E2.97056
G1 X128.739 Y99.313 E3.035
G1 X128.699 Y96.515 E3.1397
G1 X128.584 Y93.8 E3.24138
G1 X128.391 Y91.075 E3.3436
G1 X128.2 Y89.068 E3.41904
G1 X128.026 Y87.416 E3.48119
G1 X128.008 Y87.133 E3.4918
G1 X127.988 Y85.932 E3.53675
G1 X127.989 Y71.599 E4.07306
G1 X127.999 Y70.917 E4.09858
G1 X128.047 Y70.411 E4.1176
G1 X128.173 Y69.92 E4.13656
G1 X128.374 Y69.454 E4.15555
G1 F1200 E1.15555
G1 F600 Z0.4
;MESH:libra mini 11.stl
G0 F7200 X134.004 Y75.099 Z0.4
;TYPE:WALL-INNER
G1 F600 Z0.2
G1 F480 E4.15555
G1 F1800 X133.707 Y74.82 E4.16911
G1 X133.602 Y74.707 E4.17424
G1 X133.336 Y74.386 E4.1881
G1 X133.192 Y74.18 E4.19646
G1 X133.024 Y73.912 E4.20698
G1 X132.954 Y73.783 E4.21186
G1 X132.786 Y73.432 E4.22481
G1 X132.717 Y73.268 E4.23073
G1 X132.614 Y72.96 E4.24153
G1 X132.613 Y78.032 E4.41022
G1 X132.668 Y77.895 E4.41513
G1 X132.777 Y77.664 E4.42363
G1 X132.887 Y77.472 E4.43099
G1 X133.033 Y77.26 E4.43955
G1 X133.155 Y77.107 E4.44606
G1 X133.343 Y76.907 E4.45519
G1 X133.588 Y76.694 E4.46598
G1 X133.896 Y76.476 E4.47854
G1 X134.191 Y76.319 E4.48965
G1 X134.356 Y76.245 E4.49566
G1 X134.514 Y76.187 E4.50126
G1 X134.789 Y76.106 E4.5108
G1 X134.934 Y76.076 E4.51572
G1 X135.232 Y76.033 E4.52574
G1 X135.398 Y76.022 E4.53127
G1 X135.673 Y76.02 E4.54042
G1 X135.412 Y75.931 E4.54959
G1 X135.128 Y75.819 E4.55974
G1 X134.703 Y75.6 E4.57564
G1 X134.275 Y75.317 E4.59271
G1 X134.004 Y75.099 E4.60428
G0 F7200 X141.34 Y77.072
G1 F1800 X141.593 Y77.404 E4.61816
G1 X141.763 Y77.69 E4.62923
G1 X141.829 Y77.824 E4.6342
G1 X141.935 Y78.084 E4.64353
G1 X141.986 Y78.242 E4.64906
G1 F1832.1 X142.027 Y78.43 E4.65534
G1 F1940.7 X142.079 Y78.84 E4.66809
G1 F2039.7 X142.089 Y79.097 E4.67564
G1 F2057.1 X142.089 Y84.946 E4.84586
G1 F1994.5 X142.117 Y85.072 E4.84974
G1 F1935.5 X142.114 Y85.244 E4.85506
G1 X142.171 Y85.081 E4.8604
G1 F1994.5 X142.241 Y84.979 E4.86411
G1 F2057.1 X142.355 Y84.737 E4.8719
G1 X142.439 Y84.581 E4.87706
G1 F2039.7 X142.436 Y78.829 E5.04589
G1 F1904.8 X142.414 Y78.173 E5.06652
G1 F1800 X142.414 Y72.955 E5.24007
G1 X142.351 Y73.146 E5.24676
G1 X142.231 Y73.457 E5.25785
G1 X142.166 Y73.598 E5.26301
G1 X141.976 Y73.958 E5.27655
G1 X141.84 Y74.171 E5.28496
G1 X141.573 Y74.534 E5.29994
G1 X141.284 Y74.857 E5.31436
G1 X141.104 Y75.027 E5.32259
G1 X140.826 Y75.262 E5.3347
G1 X140.575 Y75.44 E5.34493
G1 X140.228 Y75.656 E5.35853
G1 X140.034 Y75.755 E5.36577
G1 X139.631 Y75.928 E5.38036
G1 X139.306 Y76.036 E5.39175
G1 X139.402 Y76.045 E5.39496
G1 X139.71 Y76.098 E5.40535
G1 X140.066 Y76.206 E5.41773
G1 X140.224 Y76.267 E5.42336
G1 X140.586 Y76.446 E5.43679
G1 X140.909 Y76.667 E5.44981
G1 X141.12 Y76.846 E5.45901
G1 X141.34 Y77.072 E5.4695
G1 F1200 E2.4695
G0 F7200 X141.553 Y79.07
G0 X141.531 Y85.457
G0 X141.246 Y87.308
G1 F480 E5.4695
G1 F1632.7 X141.631 Y87.408 E5.48409
G1 X141.834 Y87.482 E5.49201
G1 X141.863 Y87.25 E5.50058
G1 X141.892 Y86.877 E5.5143
G1 X141.894 Y86.324 E5.53458
G1 X141.769 Y86.588 E5.54529
G1 X141.646 Y86.796 E5.55415
G1 X141.468 Y87.053 E5.56562
G1 X141.246 Y87.308 E5.57801
G1 F1200 E2.57801
G0 F7200 X138.922 Y88.932
G0 X138.495 Y89.514
G0 X138.264 Y90.183
G0 X138.256 Y93.511
G0 X138.529 Y94.292
G0 X138.974 Y94.861
G0 X139.56 Y95.267
G0 X140.123 Y95.461
G0 X140.827 Y95.503
G0 X141.629 Y95.286
G0 X142.178 Y94.899
G0 X143.418 Y93.625
G1 F480 E5.57801
G0 F7200 X143.163 Y93.588
G1 F1572.1 X143.091 Y93.804 E5.58669
G1 F1722.5 X142.968 Y94.103 E5.59792
G1 F1800 X142.857 Y94.334 E5.60645
G1 X142.694 Y94.595 E5.61668
G1 X142.455 Y94.887 E5.62923
G1 F1795.5 X142.168 Y95.143 E5.64205
G1 X142.422 Y95.011 E5.6516
G1 F1800 X142.511 Y94.996 E5.6546
G1 X143.492 Y94.988 E5.68723
G1 X143.548 Y94.974 E5.68915
G1 X143.589 Y94.947 E5.69078
G1 X143.623 Y94.91 E5.69245
G1 X143.652 Y94.856 E5.69449
G1 X143.662 Y94.797 E5.69648
G1 X143.671 Y94.175 E5.71717
G1 F1760.4 X143.665 Y93.98 E5.72381
G1 F1603.6 X143.639 Y93.635 E5.73673
G1 F1490.7 X143.686 Y92.779 E5.77116
G1 F1422.9 X143.747 Y92 E5.80403
G1 F1321.1 X143.809 Y91.333 E5.83439
G1 F1493.8 X143.947 Y90.899 E5.85264
G1 F1800 X144.065 Y89.957 E5.88422
G1 X144.061 Y89.905 E5.88595
G1 X144.041 Y89.838 E5.88828
G1 X144.006 Y89.789 E5.89028
G1 X143.963 Y89.758 E5.89204
G1 X143.89 Y89.735 E5.89459
G1 X143.003 Y89.73 E5.92409
G1 X143.094 Y90.034 E5.93464
G1 X143.148 Y90.333 E5.94475
G1 X143.166 Y90.594 E5.95345
G1 X143.166 Y90.849 E5.96193
G1 F1493.8 X143.246 Y91.298 E5.98021
G1 F1371.4 X143.201 Y92.79 E6.04537
G1 F1512.6 X143.192 Y93.326 E6.06659
G1 F1519 X143.163 Y93.588 E6.07698
G0 F7200 X143.259 Y94.506
G1 F1531.9 X143.203 Y94.506 E6.07917
G1 X143.173 Y94.556 E6.08145
G1 X143.202 Y94.606 E6.08371
G1 X143.259 Y94.606 E6.08593
G1 X143.289 Y94.556 E6.08821
G0 F7200 X143.558 Y90.85
G1 F1706.2 X143.582 Y90.365 E6.10525
G1 F1493.8 X143.582 Y90.186 E6.11243
G1 F1200 E3.11243
G0 F7200 X143.255 Y93.893
G0 X142.541 Y94.535
G0 X142.041 Y95.038
G0 X141.409 Y95.375
G0 X140.827 Y95.503
G0 X140.123 Y95.461
G0 X139.346 Y95.147
G0 X138.878 Y94.764
G0 X138.529 Y94.292
G0 X138.256 Y93.511
G0 X138.193 Y88.259
G0 X133.426 Y87.413
G1 F480 E6.11243
G1 F1800 X133.299 Y87.292 E6.11826
G1 X133.186 Y87.17 E6.12379
G1 X132.994 Y86.928 E6.13407
G1 X132.838 Y86.687 E6.14361
G1 X132.69 Y86.4 E6.15435
G1 X132.613 Y86.209 E6.1612
G1 X132.613 Y86.773 E6.17996
G1 X132.623 Y87.061 E6.18955
G1 X133.201 Y91.728 E6.34596
G1 X133.287 Y92.559 E6.37374
G1 X133.344 Y93.449 E6.40341
G1 X133.365 Y94.371 E6.43408
G1 X133.365 Y101.663 E6.67661
G1 X133.385 Y102.017 E6.68841
G1 X133.439 Y102.384 E6.70074
G1 X133.545 Y102.8 E6.71502
G1 X133.595 Y102.951 E6.72031
G1 X133.758 Y103.334 E6.73416
G1 X133.836 Y103.487 E6.73987
G1 X133.969 Y103.711 E6.74853
G1 X134.16 Y103.986 E6.75967
G1 X134.397 Y104.271 E6.772
G1 X134.585 Y104.459 E6.78084
G1 X134.844 Y104.683 E6.79223
G1 X135.147 Y104.904 E6.8047
G1 X135.488 Y105.099 E6.81777
G1 X135.66 Y105.182 E6.82412
G1 X136.018 Y105.323 E6.83692
G1 X136.415 Y105.432 E6.85061
G1 X136.589 Y105.468 E6.85652
G1 X136.975 Y105.516 E6.86946
G1 X137.17 Y105.527 E6.87596
G1 X137.356 Y105.527 E6.88214
G1 X137.748 Y105.497 E6.89522
G1 X137.931 Y105.469 E6.90138
G1 X138.188 Y105.414 E6.91012
G1 X138.507 Y105.321 E6.92117
G1 X138.693 Y105.255 E6.92773
G1 X139.036 Y105.101 E6.94024
G1 X139.267 Y104.973 E6.94902
G1 X139.545 Y104.788 E6.96013
G1 X139.832 Y104.56 E6.97232
G1 X140.133 Y104.269 E6.98624
G1 X140.37 Y103.985 E6.99855
G1 X140.589 Y103.662 E7.01153
G1 X140.777 Y103.32 E7.02451
G1 X140.929 Y102.958 E7.03757
G1 X140.988 Y102.783 E7.04371
G1 X141.087 Y102.388 E7.05725
G1 X141.143 Y102.015 E7.0698
G1 X141.158 Y101.822 E7.07624
G1 X141.164 Y96.422 E7.25584
G1 X141.016 Y96.447 E7.26083
G1 X140.806 Y96.464 E7.26784
G1 X140.518 Y96.468 E7.27742
G1 X140.311 Y96.456 E7.28432
G1 X140.021 Y96.418 E7.29404
G1 X139.838 Y96.38 E7.30026
G1 X139.502 Y96.28 E7.31192
G1 X139.094 Y96.108 E7.32665
G1 X138.892 Y95.995 E7.33435
G1 X138.615 Y95.809 E7.34544
G1 X138.371 Y95.61 E7.35592
G1 X138.205 Y95.452 E7.36354
G1 X137.935 Y95.13 E7.37751
G1 X137.733 Y94.832 E7.38949
G1 X137.645 Y94.672 E7.39556
G1 X137.522 Y94.409 E7.40522
G1 X137.459 Y94.25 E7.41091
G1 X137.361 Y93.924 E7.42223
G1 X137.316 Y93.711 E7.42947
G1 X137.27 Y93.34 E7.4419
G1 X137.267 Y90.461 E7.53766
G1 X137.305 Y90.108 E7.54947
G1 X137.344 Y89.9 E7.55651
G1 X137.417 Y89.622 E7.56607
G1 X137.483 Y89.43 E7.57282
G1 X137.599 Y89.162 E7.58253
G1 X137.684 Y88.995 E7.58876
G1 X137.853 Y88.723 E7.59942
G1 X137.968 Y88.565 E7.60592
G1 X138.185 Y88.313 E7.61698
G1 X138.279 Y88.221 E7.62135
G1 X135.286 Y88.214 E7.7209
G1 X135.028 Y88.183 E7.72954
G1 X134.734 Y88.123 E7.73952
G1 X134.537 Y88.064 E7.74636
G1 X134.172 Y87.916 E7.75946
G1 X134.029 Y87.843 E7.7648
G1 X133.767 Y87.684 E7.77499
G1 X133.619 Y87.575 E7.78111
G1 X133.426 Y87.413 E7.78949
G0 F7200 X135.313 Y87.655
G0 X139.297 Y87.646
G0 X140.041 Y87.432
G0 X142.228 Y86.166
G1 F1230.8 X142.348 Y85.54 E7.82049
G1 F1451.6 X142.507 Y85.315 E7.83186
G1 F1726.6 X142.544 Y85.212 E7.83565
G1 F1764.7 X142.685 Y84.914 E7.84684
G1 F1800 X142.814 Y84.675 E7.85587
G1 X142.814 Y72.929 E8.24654
G1 F1769 X142.807 Y72.812 E8.25051
G1 F1519 X142.747 Y72.415 E8.26633
G1 F1358.5 X142.75 Y72.017 E8.28387
G1 F1368.8 X142.259 Y72.017 E8.30535
G1 F1358.5 X142.217 Y72.37 E8.32102
G1 F1541.8 X142.042 Y72.808 E8.33933
G1 F1800 X141.999 Y72.945 E8.34411
G1 X141.858 Y73.313 E8.35721
G1 X141.635 Y73.748 E8.37347
G1 X141.515 Y73.939 E8.38097
G1 X141.272 Y74.271 E8.39466
G1 X141.007 Y74.569 E8.40792
G1 X140.846 Y74.722 E8.41531
G1 X140.578 Y74.948 E8.42697
G1 X140.363 Y75.101 E8.43575
G1 X140.039 Y75.303 E8.44845
G1 X139.86 Y75.394 E8.45512
G1 X139.534 Y75.536 E8.46695
G1 X139.237 Y75.641 E8.47743
G1 F1528.7 X138.84 Y75.812 E8.49436
G1 F1355.9 X138.539 Y75.847 E8.50774
G1 F1406.2 X138.255 Y75.866 E8.51986
G1 F1431.4 X136.843 Y75.869 E8.57891
G1 F1422.9 X136.613 Y75.857 E8.5886
G1 F1384.6 X136.312 Y75.828 E8.60168
G1 F1548.4 X135.905 Y75.671 E8.61854
G1 F1800 X135.636 Y75.587 E8.62792
G1 X135.287 Y75.452 E8.64036
G1 X134.955 Y75.283 E8.65275
G1 X134.604 Y75.061 E8.66657
G1 X134.26 Y74.792 E8.68109
G1 X133.983 Y74.531 E8.69375
G1 X133.66 Y74.151 E8.71034
G1 X133.532 Y73.968 E8.71776
G1 X133.364 Y73.7 E8.72829
G1 X133.155 Y73.279 E8.74392
G1 X133.062 Y73.048 E8.7522
G1 X133.002 Y72.865 E8.75861
G1 F1528.7 X132.823 Y72.447 E8.77641
G1 F1348.3 X132.77 Y72.017 E8.79565
G1 F1366.2 X132.276 Y72.016 E8.8173
G1 X132.276 Y72.279 E8.82882
G1 F1348.3 X132.285 Y72.489 E8.83816
G1 F1509.4 X132.22 Y72.895 E8.85446
G1 F1773.4 X132.213 Y72.992 E8.85775
G1 F1800 X132.214 Y78.032 E9.02538
G1 F1548.4 X132.279 Y78.509 E9.04399
G1 F1395.3 X132.263 Y79.062 E9.06773
G1 F1437.1 X132.264 Y85.224 E9.32443
G1 F1400.8 X132.277 Y85.689 E9.34431
G1 F1545.1 X132.215 Y86.119 E9.36114
G1 F1791 X132.213 Y86.787 E9.38347
G1 F1800 X132.226 Y87.103 E9.39399
G1 X132.803 Y91.77 E9.5504
G1 X132.889 Y92.6 E9.57815
G1 X132.945 Y93.474 E9.60728
G1 X132.965 Y94.371 E9.63712
G1 X132.965 Y101.673 E9.87999
G1 X132.987 Y102.056 E9.89275
G1 X133.013 Y102.268 E9.89985
G1 X133.048 Y102.468 E9.90661
G1 X133.161 Y102.911 E9.92181
G1 X133.22 Y103.093 E9.92817
G1 X133.396 Y103.504 E9.94305
G1 X133.485 Y103.68 E9.9496
G1 X133.632 Y103.927 E9.95916
G1 X133.84 Y104.226 E9.97128
G1 X134.023 Y104.453 E9.98098
G1 X134.312 Y104.752 E9.99481
G1 X134.591 Y104.994 E10.00709
G1 X134.759 Y105.122 E10.01412
G1 X134.931 Y105.24 E10.02105
G1 X135.305 Y105.455 E10.0354
G1 X135.496 Y105.547 E10.04245
G1 X135.896 Y105.704 E10.05675
G1 X136.322 Y105.822 E10.07145
G1 X136.519 Y105.862 E10.07813
G1 X136.73 Y105.894 E10.08523
G1 X137.16 Y105.927 E10.09958
G1 X137.367 Y105.927 E10.10646
G1 X137.797 Y105.894 E10.12081
G1 X138.002 Y105.863 E10.1277
G1 X138.286 Y105.802 E10.13736
G1 X138.629 Y105.702 E10.14925
G1 X138.837 Y105.628 E10.15659
G1 X139.031 Y105.547 E10.16358
G1 X139.22 Y105.456 E10.17056
G1 X139.474 Y105.315 E10.18022
G1 X139.777 Y105.115 E10.1923
G1 X140.1 Y104.858 E10.20602
G1 X140.423 Y104.545 E10.22098
G1 X140.689 Y104.226 E10.2348
G1 X140.931 Y103.871 E10.24909
G1 X141.137 Y103.494 E10.26338
G1 X141.305 Y103.096 E10.27775
G1 X141.373 Y102.895 E10.2848
G1 X141.479 Y102.471 E10.29934
G1 X141.514 Y102.271 E10.30609
G1 X141.541 Y102.055 E10.31333
G1 X141.557 Y101.842 E10.32044
G1 X141.563 Y101.615 E10.32799
G1 X141.564 Y95.914 E10.51761
G1 X141.366 Y95.975 E10.5245
G1 X141.24 Y96.004 E10.5288
G1 X140.95 Y96.052 E10.53857
G1 X140.8 Y96.064 E10.54358
G1 X140.512 Y96.068 E10.55316
G1 X140.364 Y96.06 E10.55809
G1 X140.074 Y96.021 E10.56782
G1 X139.943 Y95.994 E10.57227
G1 X139.65 Y95.908 E10.58243
G1 X139.281 Y95.755 E10.59571
G1 X139.006 Y95.594 E10.60631
G1 X138.777 Y95.429 E10.6157
G1 X138.628 Y95.304 E10.62217
G1 X138.49 Y95.171 E10.62854
G1 X138.245 Y94.877 E10.64127
G1 X138.07 Y94.617 E10.65169
G1 X138.008 Y94.502 E10.65604
G1 X137.885 Y94.239 E10.6657
G1 X137.84 Y94.126 E10.66974
G1 X137.752 Y93.84 E10.67969
G1 X137.708 Y93.633 E10.68673
G1 X137.669 Y93.314 E10.69742
G1 X137.666 Y90.487 E10.79145
G1 X137.702 Y90.152 E10.80265
G1 X137.73 Y90.003 E10.8077
G1 X137.804 Y89.725 E10.81727
G1 X137.851 Y89.588 E10.82208
G1 X137.966 Y89.32 E10.83178
G1 X138.027 Y89.201 E10.83623
G1 X138.127 Y89.034 E10.8427
G1 X138.292 Y88.801 E10.8522
G1 X138.483 Y88.58 E10.86192
G1 X138.574 Y88.49 E10.86617
G1 X138.797 Y88.297 E10.87598
G1 F1777.8 X139.056 Y88.11 E10.88674
G1 F1714.3 X139.098 Y88.071 E10.88874
G1 F1487.6 X139.373 Y87.868 E10.9025
G1 F1457.5 X139.1 Y87.846 E10.91375
G1 F1674.4 X138.971 Y87.826 E10.91841
G1 F1777.8 X135.31 Y87.815 E11.0417
G1 F1800 X135.082 Y87.786 E11.04935
G1 X134.821 Y87.732 E11.05821
G1 X134.68 Y87.69 E11.06311
G1 X134.354 Y87.559 E11.07479
G1 X134.128 Y87.439 E11.0833
G1 X133.876 Y87.269 E11.09341
G1 X133.683 Y87.107 E11.10179
