; generated by SuperSlicer 2.4 on 2022-11-11 at 15:30:25 UTC


;
;

;
;
; 

; external perimeters extrusion width = 0.45mm
; perimeters extrusion width = 0.45mm
; infill extrusion width = 0.45mm
; solid infill extrusion width = 0.48mm
; top infill extrusion width = 0.42mm
; support material extrusion width = 0.45mm
; first layer extrusion width = 0.38mm

; object:{"name":"x-endstop3","id":"x-endstop3.stl id:0 copy 0","object_center":[171.303442,164.974289,0.000000],"boundingbox_center":[171.303442,164.974289,2.401039],"boundingbox_size":[42.839696,13.000216,4.802078]}
; plater:{"center":[171.303442,164.974289,0.000000],"boundingbox_center":[171.303442,164.974289,2.401039],"boundingbox_size":[42.839696,13.000216,4.802078]}

;TYPE:Custom
;  M190 S0
;  M109 S0 ; uncomment to remove set&wait temp gcode added automatically after this start gcode
;  PRINT_START EXTRUDER=235 BED=65 CHAMBER=0
;
PRINT_START EXTRUDER_TEMP=235 BED_TEMP=65
M107
G21 ; set units to millimeters
G90 ; use absolute coordinates
M83 ; use relative distances for extrusion
; Filament gcode
;SET_GCODE_OFFSET Z=0
;SET_PRESSURE_ADVANCE ADVANCE=0.05
;_TOOLCHANGE 0
M104 S235 ; set temperature
M109 S235 ; set temperature and wait for it to be reached
M190 S65 ; set bed temperature and wait for it to be reached
M107
;LAYER_CHANGE
;Z:0.25
;HEIGHT:0.25
;BEFORE_LAYER_CHANGE
;0.25


G1 E-1.2 F3000
G1 Z0.25 F30000
;AFTER_LAYER_CHANGE
;0.25
G92 E0
; printing object x-endstop3.stl id:0 copy 0
G1 X185.457 Y168.382
G1 E1.2 F1800
;TYPE:Internal perimeter
;WIDTH:0.38
G1 F4500
G1 X185.503 Y168.719 E0.01097
G1 X185.674 Y169.212 E0.01682
G1 X185.85 Y169.51 E0.01116
G1 X186.065 Y169.782 E0.01116
G1 X186.566 Y170.205 E0.02114
G1 X185.509 Y170.205 E0.03404
G1 X185.153 Y169.849 E0.01626
G1 X185.153 Y168.402 E0.04662
G1 X185.397 Y168.386 E0.0079
G1 X186.673 Y166.58 F30000
G1 F4500
G1 X186.301 Y166.895 E0.01573
G1 X186.12 Y167.124 E0.00939
G1 X185.971 Y167.374 E0.00939
G1 X185.811 Y167.836 E0.01573
G1 X185.779 Y168.323 E0.01573
G1 X185.822 Y168.643 E0.01042
G1 X185.971 Y169.074 E0.0147
G1 X186.12 Y169.325 E0.00939
G1 X186.301 Y169.554 E0.00939
G1 X186.649 Y169.848 E0.0147
G1 X186.932 Y170.004 E0.01042
G1 X187.368 Y170.139 E0.0147
G1 X187.69 Y170.171 E0.01042
G1 X188.144 Y170.126 E0.0147
G1 X188.453 Y170.03 E0.01042
G1 X188.881 Y169.795 E0.01573
G1 X189.255 Y169.434 E0.01676
G1 X189.503 Y169.013 E0.01573
G1 X189.599 Y168.738 E0.00939
G1 X189.657 Y168.452 E0.00939
G1 X189.657 Y167.964 E0.01573
G1 X189.528 Y167.493 E0.01573
G1 X189.397 Y167.233 E0.00939
G1 X189.232 Y166.993 E0.00939
G1 X188.881 Y166.653 E0.01573
G1 X188.453 Y166.419 E0.01573
G1 X188.144 Y166.323 E0.01042
G1 X187.69 Y166.277 E0.0147
G1 X187.4 Y166.307 E0.00939
G1 X187.116 Y166.374 E0.00939
G1 X186.728 Y166.554 E0.0138
G1 X186.851 Y166.857 F30000
G1 F4500
G1 X186.536 Y167.123 E0.01326
G1 X186.39 Y167.309 E0.00763
G1 X186.269 Y167.513 E0.00763
G1 X186.134 Y167.901 E0.01326
G1 X186.106 Y168.312 E0.01326
G1 X186.141 Y168.567 E0.0083
G1 X186.269 Y168.936 E0.01259
G1 X186.39 Y169.14 E0.00763
G1 X186.536 Y169.326 E0.00763
G1 X186.835 Y169.578 E0.01259
G1 X187.06 Y169.702 E0.0083
G1 X187.434 Y169.817 E0.01259
G1 X187.69 Y169.843 E0.0083
G1 X188.078 Y169.804 E0.01259
G1 X188.324 Y169.728 E0.0083
G1 X188.685 Y169.53 E0.01326
G1 X188.996 Y169.229 E0.01393
G1 X189.206 Y168.875 E0.01326
G1 X189.283 Y168.652 E0.00763
G1 X189.331 Y168.42 E0.00763
G1 X189.331 Y168.008 E0.01326
G1 X189.222 Y167.611 E0.01326
G1 X189.115 Y167.4 E0.00763
G1 X188.981 Y167.205 E0.00763
G1 X188.685 Y166.919 E0.01326
G1 X188.324 Y166.721 E0.01326
G1 X188.078 Y166.644 E0.0083
G1 X187.69 Y166.605 E0.01259
G1 X187.454 Y166.629 E0.00763
G1 X187.224 Y166.684 E0.00763
G1 X186.905 Y166.832 E0.01133
G1 X186.659 Y167.494 F30000
;TYPE:External perimeter
G1 F4500
G1 X186.566 Y167.651 E0.00587
G1 X186.457 Y167.967 E0.01079
G1 X186.434 Y168.301 E0.01079
G1 X186.46 Y168.491 E0.00618
G1 X186.566 Y168.798 E0.01047
G1 X186.659 Y168.955 E0.00587
G1 X186.772 Y169.098 E0.00587
G1 X187.02 Y169.307 E0.01047
G1 X187.189 Y169.4 E0.00618
G1 X187.499 Y169.496 E0.01047
G1 X187.69 Y169.515 E0.00619
G1 X188.013 Y169.483 E0.01047
G1 X188.196 Y169.426 E0.00619
G1 X188.49 Y169.265 E0.01079
G1 X188.738 Y169.025 E0.0111
G1 X188.908 Y168.737 E0.01079
G1 X188.968 Y168.565 E0.00587
G1 X189.004 Y168.387 E0.00587
G1 X189.004 Y168.052 E0.01079
G1 X188.916 Y167.729 E0.01079
G1 X188.834 Y167.567 E0.00587
G1 X188.731 Y167.416 E0.00587
G1 X188.49 Y167.184 E0.01079
G1 X188.196 Y167.023 E0.01079
G1 X188.013 Y166.966 E0.00619
G1 X187.69 Y166.933 E0.01047
G1 X187.509 Y166.952 E0.00587
G1 X187.331 Y166.994 E0.00587
G1 X187.028 Y167.135 E0.01079
G1 X186.772 Y167.351 E0.01079
G1 X186.696 Y167.447 E0.00394
;WIPE_START
G1 X186.26 Y167.472 F30000
;WIPE_END
;WIPE_START
G1 F24000
G1 X186.259 Y167.927 E-0.05404
G1 X186.233 Y168.308 E-0.04533
G1 X186.264 Y168.538 E-0.02757
G1 X186.384 Y168.883 E-0.04336
G1 X186.494 Y169.068 E-0.02561
G1 X186.628 Y169.237 E-0.02561
G1 X186.906 Y169.473 E-0.04336
G1 X187.11 Y169.585 E-0.02757
G1 X187.459 Y169.693 E-0.04336
G1 X187.69 Y169.716 E-0.02757
G1 X188.053 Y169.68 E-0.04336
G1 X188.275 Y169.611 E-0.02757
G1 X188.61 Y169.427 E-0.04534
G1 X188.896 Y169.15 E-0.04731
G1 X189.091 Y168.822 E-0.04534
G1 X189.161 Y168.618 E-0.02561
G1 X189.204 Y168.407 E-0.02561
G1 X189.204 Y168.025 E-0.04534
G1 X189.103 Y167.657 E-0.04533
G1 X189.006 Y167.464 E-0.02561
G1 X188.884 Y167.287 E-0.02561
G1 X188.61 Y167.021 E-0.04534
G1 X188.275 Y166.838 E-0.04534
G1 X188.053 Y166.769 E-0.02757
G1 X187.69 Y166.732 E-0.04336
G1 X187.475 Y166.754 E-0.02561
G1 X187.265 Y166.804 E-0.02561
G1 X186.919 Y166.965 E-0.04534
G1 X186.628 Y167.211 E-0.04534
G1 X186.494 Y167.38 E-0.02561
;WIPE_END
G1 E-0.10547 F3000
G1 X187.305 Y163.619 F30000
G1 E1.2 F1800
;TYPE:Internal perimeter
G1 F4500
G1 X187.368 Y163.639 E0.00212
G1 X187.69 Y163.671 E0.01042
G1 X188.144 Y163.626 E0.0147
G1 X188.453 Y163.53 E0.01042
G1 X188.881 Y163.295 E0.01573
G1 X189.255 Y162.934 E0.01676
G1 X189.503 Y162.513 E0.01573
G1 X189.599 Y162.238 E0.00939
G1 X189.657 Y161.952 E0.00939
G1 X189.657 Y161.464 E0.01573
G1 X189.528 Y160.993 E0.01573
G1 X189.397 Y160.733 E0.00939
G1 X189.232 Y160.493 E0.00939
G1 X188.881 Y160.153 E0.01573
G1 X188.453 Y159.919 E0.01573
G1 X188.144 Y159.823 E0.01042
G1 X187.69 Y159.777 E0.0147
G1 X187.368 Y159.81 E0.01042
G1 X186.932 Y159.945 E0.0147
G1 X186.649 Y160.1 E0.01042
G1 X186.301 Y160.395 E0.0147
G1 X186.12 Y160.624 E0.00939
G1 X185.971 Y160.874 E0.00939
G1 X185.811 Y161.336 E0.01573
G1 X185.779 Y161.823 E0.01573
G1 X185.822 Y162.143 E0.01042
G1 X185.971 Y162.574 E0.0147
G1 X186.12 Y162.825 E0.00939
G1 X186.301 Y163.054 E0.00939
G1 X186.649 Y163.348 E0.0147
G1 X186.932 Y163.504 E0.01042
G1 X187.248 Y163.602 E0.01065
G1 X187.402 Y163.308 F30000
G1 F4500
G1 X187.434 Y163.317 E0.00106
G1 X187.69 Y163.343 E0.0083
G1 X188.078 Y163.304 E0.01259
G1 X188.325 Y163.228 E0.0083
G1 X188.685 Y163.03 E0.01326
G1 X188.996 Y162.729 E0.01393
G1 X189.206 Y162.375 E0.01326
G1 X189.284 Y162.152 E0.00763
G1 X189.331 Y161.92 E0.00763
G1 X189.331 Y161.508 E0.01326
G1 X189.222 Y161.111 E0.01326
G1 X189.115 Y160.9 E0.00763
G1 X188.981 Y160.705 E0.00763
G1 X188.685 Y160.419 E0.01326
G1 X188.325 Y160.221 E0.01326
G1 X188.078 Y160.144 E0.0083
G1 X187.69 Y160.105 E0.01259
G1 X187.434 Y160.131 E0.0083
G1 X187.061 Y160.247 E0.01259
G1 X186.835 Y160.371 E0.0083
G1 X186.536 Y160.623 E0.01259
G1 X186.39 Y160.809 E0.00763
G1 X186.269 Y161.013 E0.00763
G1 X186.134 Y161.401 E0.01326
G1 X186.106 Y161.812 E0.01326
G1 X186.141 Y162.067 E0.0083
G1 X186.269 Y162.436 E0.01259
G1 X186.39 Y162.64 E0.00763
G1 X186.536 Y162.826 E0.00763
G1 X186.835 Y163.078 E0.01259
G1 X187.06 Y163.202 E0.0083
G1 X187.345 Y163.29 E0.00959
G1 X187.499 Y162.996 F30000
;TYPE:External perimeter
G1 F4500
G1 X187.69 Y163.015 E0.00618
G1 X188.013 Y162.983 E0.01047
G1 X188.196 Y162.926 E0.00619
G1 X188.49 Y162.765 E0.01079
G1 X188.738 Y162.525 E0.0111
G1 X188.908 Y162.237 E0.01079
G1 X188.968 Y162.065 E0.00587
G1 X189.004 Y161.887 E0.00587
G1 X189.004 Y161.552 E0.01079
G1 X188.916 Y161.229 E0.01079
G1 X188.834 Y161.067 E0.00587
G1 X188.731 Y160.916 E0.00587
G1 X188.49 Y160.684 E0.01079
G1 X188.196 Y160.523 E0.01079
G1 X188.013 Y160.466 E0.00619
G1 X187.69 Y160.433 E0.01047
G1 X187.499 Y160.453 E0.00618
G1 X187.189 Y160.549 E0.01047
G1 X187.02 Y160.641 E0.00618
G1 X186.772 Y160.851 E0.01047
G1 X186.659 Y160.994 E0.00587
G1 X186.566 Y161.151 E0.00587
G1 X186.457 Y161.467 E0.01079
G1 X186.434 Y161.801 E0.01079
G1 X186.46 Y161.991 E0.00619
G1 X186.566 Y162.298 E0.01047
G1 X186.659 Y162.455 E0.00587
G1 X186.772 Y162.598 E0.00587
G1 X187.02 Y162.807 E0.01047
G1 X187.189 Y162.9 E0.00618
G1 X187.442 Y162.978 E0.00854
;WIPE_START
G1 X187.638 Y163.371 F30000
;WIPE_END
G1 X185.468 Y161.575
;TYPE:Internal perimeter
G1 F4500
G1 X185.153 Y161.564 E0.01017
G1 X185.153 Y160.1 E0.04718
G1 X185.509 Y159.743 E0.01626
G1 X186.566 Y159.743 E0.03404
G1 X186.065 Y160.167 E0.02114
G1 X185.85 Y160.439 E0.01116
G1 X185.674 Y160.736 E0.01116
G1 X185.488 Y161.27 E0.0182
G1 X185.472 Y161.515 E0.00791
;WIPE_START
G1 F24000
G1 X185.153 Y161.564 E-0.03838
G1 X185.153 Y160.1 E-0.17388
G1 X185.509 Y159.743 E-0.05991
G1 X186.566 Y159.743 E-0.12545
G1 X186.065 Y160.167 E-0.07791
G1 X185.85 Y160.439 E-0.04111
G1 X185.674 Y160.736 E-0.04111
G1 X185.488 Y161.27 E-0.06708
G1 X185.472 Y161.515 E-0.02914
;WIPE_END
G1 E-0.54602 F3000
G1 X157.739 Y164.718 F30000
G1 E1.2 F1800
G1 F4500
G1 X157.659 Y164.217 E0.01633
G1 X157.436 Y163.648 E0.0197
G1 X157.098 Y163.138 E0.0197
G1 X156.684 Y162.736 E0.0186
G1 X156.379 Y162.521 E0.01203
G1 X155.859 Y162.268 E0.01861
G1 X155.265 Y162.123 E0.0197
G1 X154.654 Y162.107 E0.0197
G1 X154.053 Y162.22 E0.0197
G1 X153.49 Y162.458 E0.0197
G1 X152.99 Y162.81 E0.0197
G1 X152.575 Y163.259 E0.0197
G1 X152.282 Y163.756 E0.01861
G1 X152.146 Y164.104 E0.01203
G1 X152.024 Y164.668 E0.01861
G1 X152.024 Y165.28 E0.0197
G1 X152.146 Y165.844 E0.01861
G1 X152.282 Y166.192 E0.01203
G1 X152.575 Y166.69 E0.01861
G1 X152.99 Y167.139 E0.0197
G1 X153.49 Y167.49 E0.0197
G1 X154.022 Y167.715 E0.01861
G1 X154.385 Y167.803 E0.01203
G1 X154.96 Y167.849 E0.01861
G1 X155.566 Y167.768 E0.0197
G1 X156.109 Y167.572 E0.01861
G1 X156.436 Y167.391 E0.01203
G1 X156.89 Y167.035 E0.0186
G1 X157.28 Y166.564 E0.0197
G1 X157.562 Y166.022 E0.0197
G1 X157.723 Y165.432 E0.0197
G1 X157.756 Y164.821 E0.0197
G1 X157.749 Y164.777 E0.00144
G1 X157.424 Y164.908 F30000
G1 F4500
G1 X157.428 Y164.839 E0.00225
G1 X157.342 Y164.304 E0.01745
G1 X157.145 Y163.799 E0.01746
G1 X156.845 Y163.348 E0.01746
G1 X156.475 Y162.988 E0.01664
G1 X156.212 Y162.803 E0.01035
G1 X155.748 Y162.577 E0.01664
G1 X155.222 Y162.449 E0.01745
G1 X154.68 Y162.434 E0.01746
G1 X154.148 Y162.535 E0.01746
G1 X153.649 Y162.745 E0.01745
G1 X153.206 Y163.057 E0.01746
G1 X152.838 Y163.455 E0.01746
G1 X152.576 Y163.9 E0.01664
G1 X152.459 Y164.199 E0.01035
G1 X152.35 Y164.703 E0.01664
G1 X152.35 Y165.245 E0.01746
G1 X152.459 Y165.75 E0.01664
G1 X152.576 Y166.049 E0.01035
G1 X152.838 Y166.494 E0.01664
G1 X153.206 Y166.892 E0.01746
G1 X153.649 Y167.203 E0.01746
G1 X154.125 Y167.404 E0.01664
G1 X154.437 Y167.48 E0.01035
G1 X154.951 Y167.521 E0.01664
G1 X155.488 Y167.449 E0.01746
G1 X155.974 Y167.274 E0.01664
G1 X156.255 Y167.119 E0.01035
G1 X156.661 Y166.8 E0.01664
G1 X157.007 Y166.383 E0.01746
G1 X157.257 Y165.902 E0.01746
G1 X157.399 Y165.38 E0.01746
G1 X157.421 Y164.968 E0.01327
G1 X157.098 Y164.891 F30000
G1 F4500
G1 X157.1 Y164.856 E0.00112
G1 X157.025 Y164.39 E0.01521
G1 X156.853 Y163.951 E0.01521
G1 X156.593 Y163.557 E0.01521
G1 X156.266 Y163.24 E0.01467
G1 X156.046 Y163.085 E0.00867
G1 X155.637 Y162.886 E0.01467
G1 X155.178 Y162.774 E0.01521
G1 X154.706 Y162.761 E0.01521
G1 X154.243 Y162.849 E0.01521
G1 X153.808 Y163.032 E0.01521
G1 X153.422 Y163.304 E0.01521
G1 X153.102 Y163.65 E0.01521
G1 X152.871 Y164.043 E0.01467
G1 X152.773 Y164.293 E0.00867
G1 X152.676 Y164.738 E0.01467
G1 X152.676 Y165.21 E0.01521
G1 X152.773 Y165.655 E0.01467
G1 X152.871 Y165.906 E0.00867
G1 X153.102 Y166.298 E0.01467
G1 X153.422 Y166.645 E0.01521
G1 X153.808 Y166.916 E0.01521
G1 X154.227 Y167.093 E0.01467
G1 X154.489 Y167.157 E0.00867
G1 X154.943 Y167.193 E0.01467
G1 X155.41 Y167.131 E0.01521
G1 X155.839 Y166.976 E0.01467
G1 X156.074 Y166.846 E0.00867
G1 X156.432 Y166.565 E0.01467
G1 X156.733 Y166.201 E0.01521
G1 X156.951 Y165.783 E0.01521
G1 X157.075 Y165.327 E0.01521
G1 X157.095 Y164.951 E0.01215
G1 X156.773 Y164.874 F30000
;TYPE:External perimeter
G1 F4500
G1 X156.709 Y164.477 E0.01296
G1 X156.562 Y164.102 E0.01296
G1 X156.34 Y163.767 E0.01296
G1 X156.057 Y163.492 E0.01271
G1 X155.88 Y163.367 E0.00698
G1 X155.525 Y163.195 E0.01271
G1 X155.135 Y163.099 E0.01296
G1 X154.733 Y163.089 E0.01296
G1 X154.337 Y163.163 E0.01296
G1 X153.967 Y163.319 E0.01296
G1 X153.638 Y163.551 E0.01296
G1 X153.365 Y163.846 E0.01296
G1 X153.165 Y164.186 E0.01271
G1 X153.086 Y164.388 E0.00698
G1 X153.003 Y164.773 E0.01271
G1 X153.003 Y165.175 E0.01296
G1 X153.086 Y165.561 E0.01271
G1 X153.165 Y165.763 E0.00698
G1 X153.365 Y166.102 E0.01271
G1 X153.638 Y166.398 E0.01296
G1 X153.967 Y166.629 E0.01296
G1 X154.33 Y166.782 E0.01271
G1 X154.541 Y166.834 E0.00698
G1 X154.934 Y166.865 E0.01271
G1 X155.333 Y166.812 E0.01296
G1 X155.704 Y166.678 E0.01271
G1 X155.893 Y166.573 E0.00698
G1 X156.203 Y166.33 E0.01271
G1 X156.46 Y166.02 E0.01296
G1 X156.645 Y165.663 E0.01296
G1 X156.751 Y165.275 E0.01296
G1 X156.769 Y164.933 E0.01103
;WIPE_START
G1 X157.1 Y164.644 F30000
;WIPE_END
;WIPE_START
G1 F24000
G1 X156.903 Y164.424 E-0.03509
G1 X156.741 Y164.009 E-0.05283
G1 X156.495 Y163.638 E-0.05283
G1 X156.185 Y163.337 E-0.05127
G1 X155.982 Y163.194 E-0.02954
G1 X155.594 Y163.006 E-0.05127
G1 X155.161 Y162.9 E-0.05283
G1 X154.717 Y162.888 E-0.05283
G1 X154.279 Y162.971 E-0.05283
G1 X153.87 Y163.144 E-0.05283
G1 X153.505 Y163.399 E-0.05283
G1 X153.204 Y163.726 E-0.05283
G1 X152.985 Y164.098 E-0.05127
G1 X152.894 Y164.33 E-0.02954
G1 X152.803 Y164.752 E-0.05127
G1 X152.803 Y165.197 E-0.05283
G1 X152.894 Y165.619 E-0.05127
G1 X152.985 Y165.85 E-0.02954
G1 X153.204 Y166.222 E-0.05127
G1 X153.505 Y166.549 E-0.05283
G1 X153.87 Y166.805 E-0.05283
G1 X154.267 Y166.973 E-0.05127
G1 X154.509 Y167.032 E-0.02954
G1 X154.901 Y167.063 E-0.04672
;WIPE_END
G1 E-0.06 F3000
G1 X187.209 Y163.931 F30000
G1 E1.2 F1800
;TYPE:Internal perimeter
G1 F4500
G1 X187.303 Y163.96 E0.00317
G1 X187.69 Y163.999 E0.01253
G1 X188.209 Y163.947 E0.01682
G1 X188.581 Y163.832 E0.01253
G1 X189.076 Y163.56 E0.0182
G1 X189.513 Y163.138 E0.01959
G1 X189.801 Y162.652 E0.0182
G1 X189.914 Y162.325 E0.01115
G1 X189.983 Y161.985 E0.01116
G1 X189.983 Y161.42 E0.0182
G1 X189.834 Y160.875 E0.0182
G1 X189.678 Y160.567 E0.01116
G1 X189.482 Y160.281 E0.01116
G1 X188.926 Y159.743 E0.02493
G1 X191.198 Y159.743 E0.0732
G1 X191.454 Y160 E0.01169
G1 X191.454 Y169.949 E0.32059
G1 X191.198 Y170.205 E0.01169
G1 X188.926 Y170.205 E0.0732
G1 X189.513 Y169.638 E0.02632
G1 X189.801 Y169.152 E0.0182
G1 X189.914 Y168.825 E0.01116
G1 X189.983 Y168.485 E0.01116
G1 X189.983 Y167.92 E0.0182
G1 X189.834 Y167.376 E0.0182
G1 X189.678 Y167.066 E0.01116
G1 X189.482 Y166.781 E0.01116
G1 X189.076 Y166.388 E0.0182
G1 X188.581 Y166.117 E0.0182
G1 X188.209 Y166.002 E0.01253
G1 X187.69 Y165.949 E0.01682
G1 X187.345 Y165.984 E0.01116
G1 X187.009 Y166.064 E0.01116
G1 X186.496 Y166.302 E0.0182
G1 X186.065 Y166.667 E0.0182
G1 X185.85 Y166.939 E0.01116
G1 X185.674 Y167.236 E0.01116
G1 X185.488 Y167.77 E0.0182
G1 X185.453 Y168.305 E0.01728
G1 X151.153 Y168.305 E1.10529
G1 X151.153 Y161.643 E0.21467
G1 X185.464 Y161.643 E1.10564
G1 X185.451 Y161.834 E0.00615
G1 X185.503 Y162.219 E0.01253
G1 X185.674 Y162.712 E0.01682
G1 X185.85 Y163.01 E0.01116
G1 X186.065 Y163.282 E0.01116
G1 X186.463 Y163.619 E0.01682
G1 X186.804 Y163.806 E0.01253
G1 X187.151 Y163.913 E0.01171
;WIPE_START
G1 F24000
G1 X187.303 Y163.96 E-0.01882
G1 X187.69 Y163.999 E-0.04618
G1 X188.209 Y163.947 E-0.06197
G1 X188.581 Y163.832 E-0.04619
