; generated by SuperSlicer 2.4 on 2022-11-11 at 08:31:58 UTC


;
;

;
;
; 

; external perimeters extrusion width = 0.45mm
; perimeters extrusion width = 0.45mm
; infill extrusion width = 0.45mm
; solid infill extrusion width = 0.48mm
; top infill extrusion width = 0.40mm
; support material extrusion width = 0.45mm
; first layer extrusion width = 0.38mm

; object:{"name":"X_endstop_mount","id":"X_endstop_mount.stl id:0 copy 0","object_center":[164.999999,162.500040,0.000000],"boundingbox_center":[164.999999,162.500040,2.450039],"boundingbox_size":[42.839694,13.000216,4.900078]}
; plater:{"center":[164.999999,162.500040,0.000000],"boundingbox_center":[164.999999,162.500040,2.450039],"boundingbox_size":[42.839694,13.000216,4.900078]}

M204 P6000 T7000 ; sets acceleration (P, T), mm/sec^2
;TYPE:Custom
; custom gcode: start_gcode
PRINT_START EXTRUDER_TEMP=235 BED_TEMP=65
; custom gcode end: start_gcode
M107
G21 ; set units to millimeters
G90 ; use absolute coordinates
M82 ; use absolute distances for extrusion
G92 E0
; custom gcode: start_filament_gcode
; Filament gcode
;SET_PRESSURE_ADVANCE ADVANCE=0.025
; custom gcode end: start_filament_gcode
;_TOOLCHANGE 0
M104 S235 ; set temperature
M109 S235 ; set temperature and wait for it to be reached
M190 S65 ; set bed temperature and wait for it to be reached
;LAYER_CHANGE
;Z:0.15
;HEIGHT:0.15
; custom gcode: before_layer_gcode
;BEFORE_LAYER_CHANGE
;0.15
; custom gcode end: before_layer_gcode

G1 E-1.2 F7200
G1 Z0.15 F30000
; custom gcode: layer_gcode
;AFTER_LAYER_CHANGE
;0.15
; custom gcode end: layer_gcode

G92 E0
; printing object X_endstop_mount.stl id:0 copy 0
G1 X180.535 Y164.365
G1 E1.2 F3600
;TYPE:Internal perimeter
;WIDTH:0.38
G1 F4500
G1 X180.217 Y164.634 E1.20849
G1 X180.068 Y164.822 E1.21339
G1 X179.946 Y165.029 E1.2183
G1 X179.809 Y165.423 E1.22679
G1 X179.781 Y165.838 E1.23528
G1 X179.816 Y166.098 E1.24062
G1 X179.946 Y166.471 E1.24867
G1 X180.068 Y166.678 E1.25358
G1 X180.217 Y166.866 E1.25848
G1 X180.519 Y167.121 E1.26653
G1 X180.749 Y167.247 E1.27187
G1 X181.126 Y167.364 E1.27992
G1 X181.386 Y167.391 E1.28526
G1 X181.779 Y167.351 E1.29331
G1 X182.029 Y167.273 E1.29865
G1 X182.376 Y167.084 E1.30671
G1 X182.576 Y166.915 E1.31205
G1 X182.821 Y166.605 E1.3201
G1 X182.939 Y166.371 E1.32544
G1 X183.049 Y165.969 E1.33393
G1 X183.049 Y165.531 E1.34286
G1 X182.939 Y165.129 E1.35135
G1 X182.83 Y164.915 E1.35626
G1 X182.694 Y164.716 E1.36116
G1 X182.395 Y164.427 E1.36965
G1 X182.029 Y164.227 E1.37814
G1 X181.779 Y164.149 E1.38348
G1 X181.386 Y164.11 E1.39154
G1 X181.147 Y164.134 E1.39644
G1 X180.913 Y164.189 E1.40134
G1 X180.59 Y164.339 E1.40861
G1 X180.356 Y165.02 F30000
;TYPE:External perimeter
G1 F4500
G1 X180.263 Y165.176 E1.41232
G1 X180.153 Y165.493 E1.41915
G1 X180.131 Y165.827 E1.42597
G1 X180.156 Y166.017 E1.42989
G1 X180.263 Y166.324 E1.43651
G1 X180.356 Y166.48 E1.44023
G1 X180.469 Y166.623 E1.44394
G1 X180.717 Y166.833 E1.45057
G1 X180.885 Y166.925 E1.45448
G1 X181.195 Y167.022 E1.4611
G1 X181.386 Y167.041 E1.46502
G1 X181.71 Y167.008 E1.47164
G1 X181.893 Y166.952 E1.47556
G1 X182.178 Y166.795 E1.48218
G1 X182.325 Y166.671 E1.48609
G1 X182.526 Y166.416 E1.49272
G1 X182.612 Y166.245 E1.49663
G1 X182.701 Y165.922 E1.50346
G1 X182.701 Y165.578 E1.51048
G1 X182.612 Y165.255 E1.51731
G1 X182.53 Y165.092 E1.52102
G1 X182.427 Y164.942 E1.52474
G1 X182.187 Y164.709 E1.53156
G1 X181.893 Y164.549 E1.53839
G1 X181.71 Y164.492 E1.5423
G1 X181.386 Y164.459 E1.54893
G1 X181.205 Y164.477 E1.55264
G1 X181.028 Y164.52 E1.55635
G1 X180.724 Y164.661 E1.56318
G1 X180.469 Y164.877 E1.57
G1 X180.393 Y164.973 E1.5725
;WIPE_START
G1 X179.956 Y164.997 F30000
;WIPE_END
G92 E0
;WIPE_START
G1 F24000
G1 X179.955 Y165.452 E-0.12969
G1 X179.93 Y165.833 E-0.23849
G1 X179.961 Y166.063 E-0.30466
G1 X180.081 Y166.408 E-0.40873
G1 X180.19 Y166.594 E-0.4702
G1 X180.324 Y166.763 E-0.53167
G1 X180.603 Y166.999 E-0.63574
G1 X180.807 Y167.111 E-0.70191
G1 X181.155 Y167.219 E-0.80598
G1 X181.386 Y167.242 E-0.87215
G1 X181.75 Y167.205 E-0.97622
G1 X181.971 Y167.137 E-1.04239
G1 X182.272 Y166.972 E-1.14
;WIPE_END
G1 E-1.2 F7200
G1 X181.092 Y160.854 F30000
G1 E0 F3600
;TYPE:Internal perimeter
G1 F4500
G1 X181.126 Y160.864 E0.00071
G1 X181.386 Y160.891 E0.00605
G1 X181.779 Y160.851 E0.01411
G1 X182.029 Y160.773 E0.01945
G1 X182.395 Y160.573 E0.02794
G1 X182.71 Y160.269 E0.03687
G1 X182.922 Y159.91 E0.04536
G1 X183.001 Y159.683 E0.05027
G1 X183.049 Y159.447 E0.05517
G1 X183.049 Y159.031 E0.06366
G1 X182.939 Y158.629 E0.07215
G1 X182.83 Y158.415 E0.07705
G1 X182.694 Y158.216 E0.08196
G1 X182.395 Y157.927 E0.09045
G1 X182.029 Y157.727 E0.09894
G1 X181.779 Y157.649 E0.10428
G1 X181.386 Y157.61 E0.11233
G1 X181.126 Y157.636 E0.11767
G1 X180.749 Y157.753 E0.12573
G1 X180.519 Y157.879 E0.13107
G1 X180.217 Y158.134 E0.13912
G1 X180.068 Y158.322 E0.14402
G1 X179.946 Y158.529 E0.14892
G1 X179.809 Y158.923 E0.15741
G1 X179.781 Y159.338 E0.16591
G1 X179.816 Y159.598 E0.17125
G1 X179.946 Y159.971 E0.1793
G1 X180.068 Y160.178 E0.1842
G1 X180.217 Y160.366 E0.1891
G1 X180.519 Y160.621 E0.19716
G1 X180.749 Y160.747 E0.2025
G1 X181.035 Y160.836 E0.20861
G1 X181.195 Y160.522 F30000
;TYPE:External perimeter
G1 F4500
G1 X181.386 Y160.541 E0.21252
G1 X181.71 Y160.508 E0.21915
G1 X181.893 Y160.452 E0.22306
G1 X182.187 Y160.291 E0.22989
G1 X182.434 Y160.051 E0.23691
G1 X182.605 Y159.763 E0.24374
G1 X182.665 Y159.591 E0.24745
G1 X182.701 Y159.413 E0.25117
G1 X182.701 Y159.078 E0.25799
G1 X182.612 Y158.755 E0.26482
G1 X182.53 Y158.592 E0.26853
G1 X182.427 Y158.442 E0.27224
G1 X182.187 Y158.209 E0.27907
G1 X181.893 Y158.049 E0.2859
G1 X181.71 Y157.992 E0.28981
G1 X181.386 Y157.959 E0.29643
G1 X181.195 Y157.978 E0.30035
G1 X180.885 Y158.075 E0.30697
G1 X180.717 Y158.167 E0.31088
G1 X180.469 Y158.377 E0.31751
G1 X180.356 Y158.52 E0.32122
G1 X180.263 Y158.676 E0.32494
G1 X180.153 Y158.993 E0.33176
G1 X180.131 Y159.327 E0.33859
G1 X180.156 Y159.517 E0.3425
G1 X180.263 Y159.824 E0.34913
G1 X180.356 Y159.98 E0.35284
G1 X180.469 Y160.123 E0.35656
G1 X180.717 Y160.333 E0.36318
G1 X180.885 Y160.425 E0.36709
G1 X181.138 Y160.504 E0.3725
;WIPE_START
G1 X181.335 Y160.897 F30000
;WIPE_END
G92 E0
;WIPE_START
G1 F24000
G1 X181.75 Y160.705 E-0.13014
G1 X181.971 Y160.637 E-0.19632
G1 X182.306 Y160.453 E-0.30512
G1 X182.593 Y160.176 E-0.41866
G1 X182.787 Y159.848 E-0.52746
G1 X182.858 Y159.644 E-0.58893
G1 X182.901 Y159.433 E-0.6504
G1 X182.901 Y159.051 E-0.7592
G1 X182.8 Y158.683 E-0.868
G1 X182.703 Y158.49 E-0.92947
G1 X182.581 Y158.312 E-0.99094
G1 X182.306 Y158.047 E-1.09975
G1 X182.182 Y157.979 E-1.14
;WIPE_END
G1 E-1.2 F7200
G1 X179.204 Y166.454 F30000
G1 E0 F3600
;TYPE:Internal perimeter
G1 F4500
G1 X179.312 Y166.765 E0.00672
G1 X179.494 Y167.072 E0.014
G1 X179.715 Y167.352 E0.02128
G1 X180.086 Y167.667 E0.0312
G1 X179.233 Y167.667 E0.04861
G1 X178.914 Y167.348 E0.05781
G1 X178.914 Y166.503 E0.07504
G1 X179.144 Y166.464 E0.07981
G92 E0
;WIPE_START
G1 F24000
G1 X179.312 Y166.765 E-0.09823
G1 X179.494 Y167.072 E-0.19998
G1 X179.715 Y167.352 E-0.30172
G1 X180.086 Y167.667 E-0.44043
G1 X179.233 Y167.667 E-0.6838
G1 X178.914 Y167.348 E-0.81237
G1 X178.914 Y166.503 E-1.05319
G1 X179.144 Y166.464 E-1.1199
;WIPE_END
G1 E-1.2 F7200
G1 X179.204 Y158.546 F30000
G1 E0 F3600
G1 F4500
G1 X178.914 Y158.497 E0.006
G1 X178.914 Y157.652 E0.02322
G1 X179.233 Y157.333 E0.03242
G1 X180.087 Y157.333 E0.04983
G1 X179.715 Y157.648 E0.05976
G1 X179.494 Y157.928 E0.06703
G1 X179.312 Y158.235 E0.07431
G1 X179.223 Y158.49 E0.07981
G92 E0
;WIPE_START
G1 F24000
G1 X178.914 Y158.497 E-0.08827
G1 X178.914 Y157.652 E-0.3291
G1 X179.233 Y157.333 E-0.45767
G1 X180.087 Y157.333 E-0.70103
G1 X179.715 Y157.648 E-0.83974
G1 X179.494 Y157.928 E-0.94149
G1 X179.312 Y158.235 E-1.04322
G1 X179.223 Y158.49 E-1.12006
;WIPE_END
G1 E-1.2 F7200
G1 X179.196 Y165.067 F30000
G1 E0 F3600
G1 F4500
G1 X150.426 Y165.067 E0.5866
G1 X150.345 Y164.832 E0.59165
G1 X150.632 Y164.607 E0.59909
G1 X151.031 Y164.126 E0.61184
G1 X151.319 Y163.571 E0.62459
G1 X151.484 Y162.968 E0.63733
G1 X151.517 Y162.343 E0.65008
G1 X151.418 Y161.726 E0.66283
G1 X151.19 Y161.144 E0.67558
G1 X150.844 Y160.623 E0.68833
G1 X150.136 Y159.933 E0.70848
G1 X179.196 Y159.933 E1.30099
G1 X179.312 Y160.265 E1.30814
G1 X179.494 Y160.572 E1.31542
G1 X179.715 Y160.852 E1.3227
G1 X180.123 Y161.198 E1.33361
G1 X180.476 Y161.391 E1.3418
G1 X180.987 Y161.549 E1.35271
G1 X181.386 Y161.59 E1.3609
G1 X181.919 Y161.536 E1.3718
G1 X182.302 Y161.417 E1.38
G1 X182.811 Y161.138 E1.39183
G1 X183.261 Y160.704 E1.40457
G1 X183.556 Y160.205 E1.4164
G1 X183.673 Y159.867 E1.42368
G1 X183.744 Y159.517 E1.43096
G1 X183.744 Y158.937 E1.44278
G1 X183.591 Y158.378 E1.45461
G1 X183.43 Y158.059 E1.46189
G1 X183.228 Y157.765 E1.46917
G1 X182.782 Y157.333 E1.48183
G1 X184.868 Y157.333 E1.52436
G1 X185.086 Y157.552 E1.53067
G1 X185.086 Y167.448 E1.73243
G1 X184.867 Y167.667 E1.73874
G1 X182.868 Y167.667 E1.7795
G1 X183.41 Y166.981 E1.79733
G1 X183.591 Y166.622 E1.80552
G1 X183.744 Y166.063 E1.81735
G1 X183.744 Y165.437 E1.83009
G1 X183.591 Y164.878 E1.84192
G1 X183.43 Y164.559 E1.8492
G1 X183.228 Y164.265 E1.85648
G1 X182.811 Y163.862 E1.8683
G1 X182.302 Y163.583 E1.88013
G1 X181.919 Y163.464 E1.88832
G1 X181.386 Y163.41 E1.89923
G1 X181.031 Y163.446 E1.90651
G1 X180.684 Y163.529 E1.91379
G1 X180.158 Y163.773 E1.92561
G1 X179.715 Y164.148 E1.93744
G1 X179.494 Y164.428 E1.94472
G1 X179.312 Y164.735 E1.952
G1 X179.216 Y165.01 E1.95793
G92 E0
;WIPE_START
G1 F24000
G1 X175.216 Y165.018 E-1.14
;WIPE_END
G1 E-1.2 F7200
G1 X180.347 Y164.069 F30000
G1 E0 F3600
G1 F4500
G1 X179.966 Y164.391 E0.01016
G1 X179.781 Y164.625 E0.01625
G1 X179.629 Y164.882 E0.02234
G1 X179.465 Y165.353 E0.0325
G1 X179.432 Y165.85 E0.04266
G1 X179.476 Y166.179 E0.04943
G1 X179.629 Y166.618 E0.0589
G1 X179.781 Y166.875 E0.065
G1 X179.966 Y167.109 E0.07109
G1 X180.321 Y167.41 E0.08056
G1 X180.612 Y167.569 E0.08733
G1 X181.095 Y167.719 E0.09763
G1 X181.05 Y168.015 E0.10373
G1 X179.089 Y168.015 E0.14372
G1 X178.566 Y167.492 E0.1588
G1 X178.566 Y165.414 E0.20115
G1 X148.675 Y165.414 E0.81059
G1 X148.654 Y165.09 E0.81722
G1 X149.195 Y165.017 E0.82836
G1 X149.688 Y164.839 E0.83905
G1 X149.975 Y164.68 E0.84574
G1 X150.388 Y164.356 E0.85643
G1 X150.739 Y163.932 E0.86767
G1 X150.993 Y163.444 E0.8789
G1 X151.138 Y162.912 E0.89013
G1 X151.168 Y162.362 E0.90136
G1 X151.08 Y161.818 E0.91259
G1 X150.88 Y161.305 E0.92382
G1 X150.575 Y160.846 E0.93505
G1 X150.199 Y160.48 E0.94575
G1 X149.931 Y160.292 E0.95244
G1 X149.459 Y160.062 E0.96313
G1 X148.761 Y159.892 E0.97778
G1 X148.798 Y159.586 E0.98407
G1 X178.566 Y159.586 E1.59101
G1 X178.566 Y157.508 E1.63336
G1 X179.089 Y156.986 E1.64843
G1 X179.162 Y156.986 E1.64993
G1 X181.05 Y156.986 E1.68843
G1 X181.095 Y157.281 E1.69452
G1 X180.612 Y157.431 E1.70483
G1 X180.321 Y157.59 E1.71159
G1 X179.966 Y157.891 E1.72107
G1 X179.781 Y158.125 E1.72716
G1 X179.629 Y158.382 E1.73325
G1 X179.465 Y158.853 E1.74341
G1 X179.432 Y159.35 E1.75357
G1 X179.476 Y159.679 E1.76034
G1 X179.629 Y160.118 E1.76982
G1 X179.781 Y160.375 E1.77591
G1 X179.966 Y160.609 E1.782
G1 X180.321 Y160.91 E1.79148
G1 X180.612 Y161.069 E1.79824
G1 X181.056 Y161.207 E1.80772
G1 X181.386 Y161.24 E1.81449
G1 X181.849 Y161.194 E1.82397
G1 X182.166 Y161.095 E1.83074
G1 X182.603 Y160.856 E1.84089
G1 X182.985 Y160.486 E1.85174
G1 X183.239 Y160.057 E1.86189
G1 X183.337 Y159.775 E1.86799
G1 X183.397 Y159.482 E1.87408
G1 X183.397 Y158.984 E1.88424
G1 X183.265 Y158.504 E1.89439
G1 X183.13 Y158.237 E1.90048
G1 X182.961 Y157.991 E1.90658
G1 X182.603 Y157.644 E1.91674
G1 X182.166 Y157.405 E1.92689
G1 X181.767 Y157.281 E1.9354
G1 X181.812 Y156.986 E1.9415
G1 X185.012 Y156.986 E2.00673
G1 X185.434 Y157.408 E2.01892
G1 X185.434 Y167.592 E2.22655
G1 X185.012 Y168.015 E2.23874
G1 X181.812 Y168.015 E2.30397
G1 X181.767 Y167.719 E2.31007
G1 X182.166 Y167.595 E2.31857
G1 X182.574 Y167.372 E2.32805
G1 X182.827 Y167.158 E2.33482
G1 X183.115 Y166.793 E2.3443
G1 X183.265 Y166.496 E2.35107
G1 X183.397 Y166.016 E2.36123
G1 X183.397 Y165.484 E2.37207
G1 X183.265 Y165.004 E2.38222
G1 X183.13 Y164.737 E2.38832
G1 X182.961 Y164.491 E2.39441
G1 X182.603 Y164.144 E2.40457
G1 X182.166 Y163.905 E2.41472
G1 X181.849 Y163.807 E2.42149
G1 X181.386 Y163.76 E2.43097
G1 X181.089 Y163.79 E2.43706
G1 X180.799 Y163.859 E2.44315
G1 X180.401 Y164.044 E2.45209
G92 E0
;WIPE_START
G1 F24000
G1 X179.966 Y164.391 E-0.15857
G1 X179.781 Y164.625 E-0.24371
G1 X179.629 Y164.882 E-0.32884
G1 X179.465 Y165.353 E-0.47085
G1 X179.432 Y165.85 E-0.61286
G1 X179.476 Y166.179 E-0.70745
G1 X179.629 Y166.618 E-0.83994
G1 X179.781 Y166.875 E-0.92507
G1 X179.966 Y167.109 E-1.01021
G1 X180.314 Y167.403 E-1.14
;WIPE_END
G1 E-1.2 F7200
G1 X144.914 Y159.933 F30000
G1 E0 F3600
G1 F4500
G1 X146.724 Y159.933 E0.03691
G1 X146.8 Y160.176 E0.0421
G1 X146.643 Y160.287 E0.04601
G1 X146.244 Y160.72 E0.05803
G1 X146.032 Y161.04 E0.06586
G1 X145.788 Y161.576 E0.07787
G1 X145.656 Y162.187 E0.09062
G1 X145.656 Y162.813 E0.10337
G1 X145.78 Y163.389 E0.11538
G1 X145.92 Y163.746 E0.12321
G1 X146.219 Y164.254 E0.13523
G1 X146.643 Y164.713 E0.14797
G1 X146.8 Y164.824 E0.15189
G1 X146.724 Y165.067 E0.15708
G1 X144.914 Y165.067 E0.19399
G1 X144.914 Y159.993 E0.29742
G1 X144.566 Y159.586 F30000
G1 F4500
G1 X148.429 Y159.586 E0.37618
G1 X148.458 Y159.901 E0.38264
G1 X147.832 Y160.019 E0.39563
G1 X147.325 Y160.233 E0.40686
G1 X146.874 Y160.55 E0.41809
G1 X146.518 Y160.935 E0.42879
G1 X146.337 Y161.209 E0.43548
G1 X146.12 Y161.686 E0.44617
G1 X146.004 Y162.225 E0.4574
G1 X146.004 Y162.775 E0.46863
G1 X146.114 Y163.288 E0.47932
G1 X146.234 Y163.594 E0.48601
G1 X146.5 Y164.045 E0.4967
G1 X146.874 Y164.45 E0.50794
G1 X147.325 Y164.767 E0.51917
G1 X147.808 Y164.971 E0.52986
G1 X148.126 Y165.048 E0.53655
G1 X148.526 Y165.08 E0.54472
G1 X148.513 Y165.414 E0.55154
G1 X144.566 Y165.414 E0.63201
G1 X144.566 Y159.646 E0.74963
G92 E0
;WIPE_START
G1 F24000
G1 X148.429 Y159.586 E-1.10105
G1 X148.441 Y159.722 E-1.14
;WIPE_END
G1 E-1.2 F7200
G1 X150.813 Y162.344 F30000
G1 E0 F3600
G1 F4500
G1 X150.743 Y161.91 E0.00896
G1 X150.569 Y161.466 E0.01867
G1 X150.306 Y161.069 E0.02839
G1 X149.977 Y160.749 E0.03775
G1 X149.754 Y160.592 E0.04331
G1 X149.341 Y160.391 E0.05267
G1 X148.878 Y160.278 E0.06239
G1 X148.401 Y160.266 E0.07211
G1 X147.933 Y160.354 E0.08182
G1 X147.494 Y160.539 E0.09154
G1 X147.104 Y160.813 E0.10125
G1 X146.793 Y161.151 E0.11062
G1 X146.642 Y161.378 E0.11617
G1 X146.452 Y161.796 E0.12554
G1 X146.351 Y162.262 E0.13525
G1 X146.351 Y162.738 E0.14497
G1 X146.449 Y163.187 E0.15433
G1 X146.548 Y163.441 E0.15989
G1 X146.781 Y163.837 E0.16925
G1 X147.104 Y164.187 E0.17897
G1 X147.494 Y164.461 E0.18869
G1 X147.917 Y164.639 E0.19805
G1 X148.182 Y164.704 E0.20361
G1 X148.64 Y164.741 E0.21297
G1 X149.112 Y164.677 E0.22269
G1 X149.544 Y164.522 E0.23205
G1 X149.783 Y164.39 E0.23761
G1 X150.144 Y164.106 E0.24697
G1 X150.448 Y163.739 E0.25669
G1 X150.668 Y163.316 E0.2664
G1 X150.793 Y162.856 E0.27612
G1 X150.817 Y162.403 E0.28537
G1 X150.469 Y162.399 F30000
;TYPE:External perimeter
G1 F4500
G1 X150.405 Y162.002 E0.29357
G1 X150.259 Y161.628 E0.30177
G1 X150.036 Y161.293 E0.30997
G1 X149.754 Y161.018 E0.31801
G1 X149.577 Y160.893 E0.32243
G1 X149.222 Y160.72 E0.33047
G1 X148.831 Y160.625 E0.33867
G1 X148.429 Y160.614 E0.34687
G1 X148.034 Y160.689 E0.35506
G1 X147.664 Y160.845 E0.36326
G1 X147.334 Y161.076 E0.37146
G1 X147.067 Y161.366 E0.3795
G1 X146.947 Y161.547 E0.38392
G1 X146.784 Y161.906 E0.39196
G1 X146.699 Y162.299 E0.40016
G1 X146.699 Y162.701 E0.40836
G1 X146.783 Y163.086 E0.4164
G1 X146.862 Y163.288 E0.42082
G1 X147.062 Y163.628 E0.42886
G1 X147.334 Y163.924 E0.43706
G1 X147.664 Y164.155 E0.44526
G1 X148.027 Y164.308 E0.4533
G1 X148.237 Y164.359 E0.45772
G1 X148.631 Y164.391 E0.46576
G1 X149.029 Y164.338 E0.47396
G1 X149.4 Y164.204 E0.482
G1 X149.59 Y164.099 E0.48642
G1 X149.9 Y163.855 E0.49446
G1 X150.157 Y163.546 E0.50266
G1 X150.342 Y163.189 E0.51086
